; generated by PrusaSlicer 2.7.4+win64 on 2024-06-27 at 17:51:40 UTC


;
;
; 

; external perimeters extrusion width = 0.45mm
; perimeters extrusion width = 0.45mm
; infill extrusion width = 0.45mm
; solid infill extrusion width = 0.45mm
; top infill extrusion width = 0.40mm
; support material extrusion width = 0.35mm
; first layer extrusion width = 0.42mm

M73 P0 R61
M73 Q0 S61
M201 X1000 Y1000 Z200 E5000 ; sets maximum accelerations, mm/sec^2
M203 X200 Y200 Z12 E120 ; sets maximum feedrates, mm / sec
M204 S1250 T1250 ; sets acceleration (S) and retract acceleration (R), mm/sec^2
M205 X8.00 Y8.00 Z0.40 E4.50 ; sets the jerk limits, mm/sec
M205 S0 T0 ; sets the minimum extruding and travel feed rate, mm/sec

; printing object baseBoard_V4.stl id:0 copy 0
; stop printing object baseBoard_V4.stl id:0 copy 0

;TYPE:Custom
M862.3 P "MK3S" ; printer model check
M862.1 P0.4 ; nozzle diameter check
M115 U3.13.3 ; tell printer latest fw version
G90 ; use absolute coordinates
M83 ; extruder relative mode
M104 S215 ; set extruder temp
M140 S60 ; set bed temp
M190 S60 ; wait for bed temp
M109 S215 ; wait for extruder temp
G28 W ; home all without mesh bed level
G80 X68.7352 Y69.4989 W112.53 H71.0022 ; mesh bed levelling

G1 Z0.2 F720
G1 Y-3 F1000 ; go outside print area
G92 E0
G1 X60 E9 F1000 ; intro line
G1 X100 E12.5 F1000 ; intro line

G92 E0
M221 S95

; Don't change E values below. Excessive value can damage the printer.
M907 E430 ; set extruder motor current
G21 ; set units to millimeters
G90 ; use absolute coordinates
M83 ; use relative distances for extrusion

M900 K0.05 ; Filament gcode LA 1.5
M900 K30 ; Filament gcode LA 1.0




M107
;LAYER_CHANGE
;Z:0.2
;HEIGHT:0.2
G1 E-.8 F2100
G1 Z.6 F720
G1 X69.315 Y70.758 F10800
G1 Z.2 F720
G1 E.8 F2100
M204 S800
;TYPE:Skirt/Brim
;WIDTH:0.42
G1 F1200
G1 X70.361 Y69.881 E.0428
G1 X71.301 Y69.687 E.03009
G1 X149.173 Y69.734 E2.44162
G1 X160.709 Y72.041 E.36887
G1 X161.669 Y72.47 E.03297
G1 X180.125 Y86.312 E.72334
G1 X180.936 Y87.41 E.0428
M73 P0 R60
G1 X181.076 Y88.214 E.02559
G1 X181.076 Y121.786 E1.05263
G1 X180.685 Y123.093 E.04277
G1 X179.762 Y123.912 E.03869
G1 X147.463 Y140.062 E1.13225
G1 X146.4 Y140.313 E.03425
G1 X71.301 Y140.313 E2.35468
G1 X69.994 Y139.921 E.04278
G1 X69.117 Y138.875 E.0428
G1 X68.924 Y137.935 E.03009
G1 X68.924 Y72.065 E2.06531
G1 X69.298 Y70.815 E.04091
M204 S1000
;WIPE_START
G1 F8640
G1 X69.315 Y70.758 E-.01373
G1 X70.361 Y69.881 E-.31518
G1 X71.301 Y69.687 E-.22162
G1 X72.381 Y69.688 E-.24947
;WIPE_END
G1 Z.6 F720
; printing object baseBoard_V4.stl id:0 copy 0
G1 X148.707 Y74.372 F10800
G1 Z.2 F720
G1 E.8 F2100
M204 S800
;TYPE:Support material
G1 F1200
G1 X160.243 Y74.372 E.3617
G1 X160.243 Y81.293 E.217
G1 X164.857 Y81.293 E.14467
G1 X164.857 Y88.214 E.217
G1 X178.699 Y88.214 E.43401
G1 X178.699 Y98.715 E.32925
G1 X176.392 Y98.715 E.07233
G1 X176.392 Y106.671 E.24945
G1 X178.699 Y106.671 E.07233
G1 X178.699 Y121.786 E.47392
G1 X146.4 Y121.786 E1.01271
G1 X146.4 Y137.935 E.50634
G1 X71.301 Y137.935 E2.35468
G1 X71.301 Y72.065 E2.06531
G1 X148.707 Y72.065 E2.42701
M73 P1 R60
M73 Q1 S60
G1 X148.707 Y74.315 E.07055
M204 S1000
G1 X148.707 Y74.315 F10800
G1 X88.723 Y87.18
M204 S800
G1 F1200
G1 X126.671 Y87.18 E1.18983
G1 X126.671 Y122.82 E1.11747
G1 X88.723 Y122.82 E1.18983
G1 X88.723 Y87.236 E1.11571
M204 S1000
;WIPE_START
G1 F8640
G1 X88.723 Y90.701 E-.8
;WIPE_END
G1 Z.6 F720
G1 X132.73 Y114.52 F10800
G1 Z.2 F720
G1 E.8 F2100
M204 S800
G1 F1200
G1 X164.402 Y114.52 E.99305
G1 X164.683 Y114.801 E.01246
G1 X164.683 Y117.199 E.07519
G1 X164.402 Y117.48 E.01246
G1 X132.73 Y117.48 E.99305
G1 X132.449 Y117.199 E.01246
G1 X132.449 Y114.801 E.07519
G1 X132.69 Y114.56 E.01069
M204 S1000
;WIPE_START
G1 F8640
G1 X132.449 Y114.801 E-.0787
G1 X132.449 Y117.199 E-.5537
G1 X132.73 Y117.48 E-.09176
G1 X133.058 Y117.48 E-.07584
;WIPE_END
G1 Z.6 F720
G1 X132.73 Y92.52 F10800
G1 Z.2 F720
G1 E.8 F2100
M204 S800
G1 F1200
G1 X164.402 Y92.52 E.99305
G1 X164.683 Y92.801 E.01246
G1 X164.683 Y95.199 E.07519
G1 X164.402 Y95.48 E.01246
G1 X132.73 Y95.48 E.99305
G1 X132.449 Y95.199 E.01246
G1 X132.449 Y92.801 E.07519
G1 X132.69 Y92.56 E.01069
M204 S1000
;WIPE_START
G1 F8640
G1 X132.449 Y92.801 E-.0787
G1 X132.449 Y95.199 E-.5537
G1 X132.73 Y95.48 E-.09176
G1 X133.058 Y95.48 E-.07584
;WIPE_END
G1 Z.6 F720
G1 X178.21 Y121.616 F10800
G1 Z.2 F720
G1 E.8 F2100
M204 S800
G1 F1200
G1 X178.21 Y107.01 E.45796
G1 X177.791 Y107.01 E.01314
G1 X177.791 Y121.447 E.45266
G1 X177.372 Y121.447 E.01314
G1 X177.372 Y107.01 E.45266
G1 X176.953 Y107.01 E.01314
G1 X176.953 Y121.447 E.45266
G1 X176.534 Y121.447 E.01314
G1 X176.534 Y106.84 E.45799
M204 S1000
;WIPE_START
G1 F8640
G1 X176.534 Y110.305 E-.8
;WIPE_END
G1 Z.6 F720
G1 X178.21 Y98.545 F10800
G1 Z.2 F720
G1 E.8 F2100
M204 S800
G1 F1200
G1 X178.21 Y88.553 E.31329
G1 X177.791 Y88.553 E.01314
G1 X177.791 Y98.376 E.30799
G1 X177.372 Y98.376 E.01314
G1 X177.372 Y88.553 E.30799
G1 X176.953 Y88.553 E.01314
G1 X176.953 Y98.376 E.30799
G1 X176.534 Y98.376 E.01314
G1 X176.534 Y88.553 E.30799
G1 X176.115 Y88.553 E.01314
G1 X176.115 Y121.447 E1.03137
G1 X175.696 Y121.447 E.01314
G1 X175.696 Y88.553 E1.03137
G1 X175.277 Y88.553 E.01314
G1 X175.277 Y121.447 E1.03137
G1 X174.858 Y121.447 E.01314
G1 X174.858 Y88.553 E1.03137
G1 X174.439 Y88.553 E.01314
M73 P1 R59
M73 Q2 S60
G1 X174.439 Y121.447 E1.03137
G1 X174.02 Y121.447 E.01314
M73 P2 R59
G1 X174.02 Y88.553 E1.03137
G1 X173.601 Y88.553 E.01314
G1 X173.601 Y121.447 E1.03137
G1 X173.182 Y121.447 E.01314
G1 X173.182 Y88.553 E1.03137
G1 X172.763 Y88.553 E.01314
G1 X172.763 Y121.447 E1.03137
G1 X172.344 Y121.447 E.01314
G1 X172.344 Y88.553 E1.03137
G1 X171.925 Y88.553 E.01314
G1 X171.925 Y121.447 E1.03137
G1 X171.506 Y121.447 E.01314
G1 X171.506 Y88.553 E1.03137
G1 X171.087 Y88.553 E.01314
G1 X171.087 Y121.447 E1.03137
G1 X170.668 Y121.447 E.01314
G1 X170.668 Y88.553 E1.03137
G1 X170.25 Y88.553 E.01311
G1 X170.25 Y121.447 E1.03137
G1 X169.831 Y121.447 E.01314
G1 X169.831 Y88.553 E1.03137
G1 X169.412 Y88.553 E.01314
G1 X169.412 Y121.447 E1.03137
G1 X168.993 Y121.447 E.01314
G1 X168.993 Y88.553 E1.03137
G1 X168.574 Y88.553 E.01314
M73 Q2 S59
G1 X168.574 Y121.447 E1.03137
G1 X168.155 Y121.447 E.01314
G1 X168.155 Y88.553 E1.03137
G1 X167.736 Y88.553 E.01314
G1 X167.736 Y121.447 E1.03137
G1 X167.317 Y121.447 E.01314
G1 X167.317 Y88.553 E1.03137
G1 X166.898 Y88.553 E.01314
G1 X166.898 Y121.447 E1.03137
G1 X166.479 Y121.447 E.01314
G1 X166.479 Y88.553 E1.03137
G1 X166.06 Y88.553 E.01314
G1 X166.06 Y121.447 E1.03137
G1 X165.641 Y121.447 E.01314
G1 X165.641 Y88.553 E1.03137
G1 X165.222 Y88.553 E.01314
M73 P3 R59
M73 Q3 S59
G1 X165.222 Y121.447 E1.03137
G1 X164.803 Y121.447 E.01314
G1 X164.803 Y117.559 E.12191
G1 X164.542 Y117.819 E.01155
G1 X164.384 Y117.819 E.00495
G1 X164.384 Y121.447 E.11375
G1 X163.965 Y121.447 E.01314
G1 X163.965 Y117.819 E.11375
G1 X163.546 Y117.819 E.01314
G1 X163.546 Y121.447 E.11375
G1 X163.127 Y121.447 E.01314
G1 X163.127 Y117.819 E.11375
G1 X162.708 Y117.819 E.01314
G1 X162.708 Y121.447 E.11375
G1 X162.289 Y121.447 E.01314
G1 X162.289 Y117.819 E.11375
G1 X161.87 Y117.819 E.01314
G1 X161.87 Y121.447 E.11375
G1 X161.451 Y121.447 E.01314
G1 X161.451 Y117.819 E.11375
G1 X161.032 Y117.819 E.01314
G1 X161.032 Y121.447 E.11375
G1 X160.613 Y121.447 E.01314
G1 X160.613 Y117.819 E.11375
G1 X160.194 Y117.819 E.01314
G1 X160.194 Y121.447 E.11375
G1 X159.775 Y121.447 E.01314
G1 X159.775 Y117.819 E.11375
G1 X159.356 Y117.819 E.01314
G1 X159.356 Y121.447 E.11375
G1 X158.937 Y121.447 E.01314
G1 X158.937 Y117.819 E.11375
G1 X158.518 Y117.819 E.01314
G1 X158.518 Y121.447 E.11375
G1 X158.099 Y121.447 E.01314
G1 X158.099 Y117.819 E.11375
G1 X157.68 Y117.819 E.01314
G1 X157.68 Y121.447 E.11375
G1 X157.261 Y121.447 E.01314
G1 X157.261 Y117.819 E.11375
G1 X156.842 Y117.819 E.01314
G1 X156.842 Y121.447 E.11375
G1 X156.423 Y121.447 E.01314
G1 X156.423 Y117.819 E.11375
G1 X156.004 Y117.819 E.01314
G1 X156.004 Y121.447 E.11375
G1 X155.585 Y121.447 E.01314
G1 X155.585 Y117.819 E.11375
G1 X155.166 Y117.819 E.01314
G1 X155.166 Y121.447 E.11375
G1 X154.747 Y121.447 E.01314
G1 X154.747 Y117.819 E.11375
G1 X154.328 Y117.819 E.01314
G1 X154.328 Y121.447 E.11375
G1 X153.909 Y121.447 E.01314
G1 X153.909 Y117.819 E.11375
G1 X153.49 Y117.819 E.01314
G1 X153.49 Y121.447 E.11375
G1 X153.071 Y121.447 E.01314
G1 X153.071 Y117.819 E.11375
G1 X152.652 Y117.819 E.01314
G1 X152.652 Y121.447 E.11375
G1 X152.234 Y121.447 E.01311
G1 X152.234 Y117.819 E.11375
G1 X151.815 Y117.819 E.01314
G1 X151.815 Y121.447 E.11375
G1 X151.396 Y121.447 E.01314
G1 X151.396 Y117.819 E.11375
G1 X150.977 Y117.819 E.01314
G1 X150.977 Y121.447 E.11375
G1 X150.558 Y121.447 E.01314
G1 X150.558 Y117.819 E.11375
G1 X150.139 Y117.819 E.01314
G1 X150.139 Y121.447 E.11375
G1 X149.72 Y121.447 E.01314
G1 X149.72 Y117.819 E.11375
G1 X149.301 Y117.819 E.01314
G1 X149.301 Y121.447 E.11375
G1 X148.882 Y121.447 E.01314
G1 X148.882 Y117.819 E.11375
G1 X148.463 Y117.819 E.01314
G1 X148.463 Y121.447 E.11375
G1 X148.044 Y121.447 E.01314
G1 X148.044 Y117.819 E.11375
G1 X147.625 Y117.819 E.01314
G1 X147.625 Y121.447 E.11375
G1 X147.206 Y121.447 E.01314
G1 X147.206 Y117.819 E.11375
G1 X146.787 Y117.819 E.01314
G1 X146.787 Y121.447 E.11375
G1 X146.368 Y121.447 E.01314
G1 X146.368 Y117.819 E.11375
G1 X145.949 Y117.819 E.01314
G1 X145.949 Y137.596 E.62009
G1 X145.53 Y137.596 E.01314
G1 X145.53 Y117.819 E.62009
G1 X145.111 Y117.819 E.01314
G1 X145.111 Y137.596 E.62009
G1 X144.692 Y137.596 E.01314
G1 X144.692 Y117.819 E.62009
G1 X144.273 Y117.819 E.01314
G1 X144.273 Y137.596 E.62009
G1 X143.854 Y137.596 E.01314
G1 X143.854 Y117.819 E.62009
G1 X143.435 Y117.819 E.01314
G1 X143.435 Y137.596 E.62009
G1 X143.016 Y137.596 E.01314
G1 X143.016 Y117.819 E.62009
G1 X142.597 Y117.819 E.01314
G1 X142.597 Y137.596 E.62009
G1 X142.178 Y137.596 E.01314
G1 X142.178 Y117.819 E.62009
G1 X141.759 Y117.819 E.01314
G1 X141.759 Y137.596 E.62009
G1 X141.34 Y137.596 E.01314
M73 P3 R58
G1 X141.34 Y117.819 E.62009
G1 X140.921 Y117.819 E.01314
G1 X140.921 Y137.596 E.62009
G1 X140.502 Y137.596 E.01314
G1 X140.502 Y117.819 E.62009
G1 X140.083 Y117.819 E.01314
G1 X140.083 Y137.596 E.62009
G1 X139.664 Y137.596 E.01314
G1 X139.664 Y117.819 E.62009
G1 X139.245 Y117.819 E.01314
G1 X139.245 Y137.596 E.62009
G1 X138.826 Y137.596 E.01314
G1 X138.826 Y117.819 E.62009
G1 X138.407 Y117.819 E.01314
G1 X138.407 Y137.596 E.62009
G1 X137.988 Y137.596 E.01314
G1 X137.988 Y117.819 E.62009
G1 X137.569 Y117.819 E.01314
G1 X137.569 Y137.596 E.62009
G1 X137.15 Y137.596 E.01314
G1 X137.15 Y117.819 E.62009
G1 X136.731 Y117.819 E.01314
G1 X136.731 Y137.596 E.62009
G1 X136.312 Y137.596 E.01314
G1 X136.312 Y117.819 E.62009
G1 X135.893 Y117.819 E.01314
G1 X135.893 Y137.596 E.62009
G1 X135.474 Y137.596 E.01314
M73 P4 R58
M73 Q4 S59
G1 X135.474 Y117.819 E.62009
G1 X135.055 Y117.819 E.01314
G1 X135.055 Y137.596 E.62009
G1 X134.636 Y137.596 E.01314
G1 X134.636 Y117.819 E.62009
G1 X134.217 Y117.819 E.01314
G1 X134.217 Y137.596 E.62009
G1 X133.799 Y137.596 E.01311
G1 X133.799 Y117.819 E.62009
G1 X133.38 Y117.819 E.01314
G1 X133.38 Y137.596 E.62009
G1 X132.961 Y137.596 E.01314
G1 X132.961 Y117.819 E.62009
G1 X132.542 Y117.771 E.01322
G1 X132.542 Y137.596 E.6216
G1 X132.123 Y137.596 E.01314
G1 X132.123 Y72.404 E2.04405
G1 X132.542 Y72.404 E.01314
M73 Q4 S58
G1 X132.542 Y92.229 E.6216
G1 X132.961 Y92.181 E.01322
G1 X132.961 Y72.404 E.62009
G1 X133.38 Y72.404 E.01314
G1 X133.38 Y92.181 E.62009
G1 X133.799 Y92.181 E.01314
G1 X133.799 Y72.404 E.62009
G1 X134.217 Y72.404 E.01311
G1 X134.217 Y92.181 E.62009
G1 X134.636 Y92.181 E.01314
G1 X134.636 Y72.404 E.62009
G1 X135.055 Y72.404 E.01314
G1 X135.055 Y92.181 E.62009
G1 X135.474 Y92.181 E.01314
G1 X135.474 Y72.404 E.62009
G1 X135.893 Y72.404 E.01314
G1 X135.893 Y92.181 E.62009
G1 X136.312 Y92.181 E.01314
G1 X136.312 Y72.404 E.62009
G1 X136.731 Y72.404 E.01314
G1 X136.731 Y92.181 E.62009
G1 X137.15 Y92.181 E.01314
G1 X137.15 Y72.404 E.62009
G1 X137.569 Y72.404 E.01314
G1 X137.569 Y92.181 E.62009
G1 X137.988 Y92.181 E.01314
G1 X137.988 Y72.404 E.62009
G1 X138.407 Y72.404 E.01314
G1 X138.407 Y92.181 E.62009
G1 X138.826 Y92.181 E.01314
G1 X138.826 Y72.404 E.62009
G1 X139.245 Y72.404 E.01314
G1 X139.245 Y92.181 E.62009
G1 X139.664 Y92.181 E.01314
G1 X139.664 Y72.404 E.62009
G1 X140.083 Y72.404 E.01314
G1 X140.083 Y92.181 E.62009
G1 X140.502 Y92.181 E.01314
G1 X140.502 Y72.404 E.62009
G1 X140.921 Y72.404 E.01314
G1 X140.921 Y92.181 E.62009
G1 X141.34 Y92.181 E.01314
G1 X141.34 Y72.404 E.62009
G1 X141.759 Y72.404 E.01314
G1 X141.759 Y92.181 E.62009
G1 X142.178 Y92.181 E.01314
G1 X142.178 Y72.404 E.62009
G1 X142.597 Y72.404 E.01314
M73 P5 R58
M73 Q5 S58
G1 X142.597 Y92.181 E.62009
G1 X143.016 Y92.181 E.01314
G1 X143.016 Y72.404 E.62009
G1 X143.435 Y72.404 E.01314
G1 X143.435 Y92.181 E.62009
G1 X143.854 Y92.181 E.01314
G1 X143.854 Y72.404 E.62009
G1 X144.273 Y72.404 E.01314
G1 X144.273 Y92.181 E.62009
G1 X144.692 Y92.181 E.01314
G1 X144.692 Y72.404 E.62009
G1 X145.111 Y72.404 E.01314
G1 X145.111 Y92.181 E.62009
G1 X145.53 Y92.181 E.01314
G1 X145.53 Y72.404 E.62009
G1 X145.949 Y72.404 E.01314
G1 X145.949 Y92.181 E.62009
G1 X146.368 Y92.181 E.01314
M73 P5 R57
G1 X146.368 Y72.404 E.62009
G1 X146.787 Y72.404 E.01314
G1 X146.787 Y92.181 E.62009
G1 X147.206 Y92.181 E.01314
G1 X147.206 Y72.404 E.62009
G1 X147.625 Y72.404 E.01314
G1 X147.625 Y92.181 E.62009
G1 X148.044 Y92.181 E.01314
G1 X148.044 Y72.404 E.62009
G1 X148.368 Y72.404 E.01016
G1 X148.368 Y74.711 E.07233
G1 X148.463 Y74.711 E.00298
G1 X148.463 Y92.181 E.54776
G1 X148.882 Y92.181 E.01314
G1 X148.882 Y74.711 E.54776
G1 X149.301 Y74.711 E.01314
G1 X149.301 Y92.181 E.54776
G1 X149.72 Y92.181 E.01314
G1 X149.72 Y74.711 E.54776
G1 X150.139 Y74.711 E.01314
G1 X150.139 Y92.181 E.54776
G1 X150.558 Y92.181 E.01314
G1 X150.558 Y74.711 E.54776
G1 X150.977 Y74.711 E.01314
G1 X150.977 Y92.181 E.54776
G1 X151.396 Y92.181 E.01314
G1 X151.396 Y74.711 E.54776
G1 X151.815 Y74.711 E.01314
G1 X151.815 Y92.181 E.54776
G1 X152.234 Y92.181 E.01314
G1 X152.234 Y74.711 E.54776
G1 X152.652 Y74.711 E.01311
G1 X152.652 Y92.181 E.54776
G1 X153.071 Y92.181 E.01314
G1 X153.071 Y74.711 E.54776
G1 X153.49 Y74.711 E.01314
G1 X153.49 Y92.181 E.54776
G1 X153.909 Y92.181 E.01314
G1 X153.909 Y74.711 E.54776
G1 X154.328 Y74.711 E.01314
G1 X154.328 Y92.181 E.54776
G1 X154.747 Y92.181 E.01314
G1 X154.747 Y74.711 E.54776
G1 X155.166 Y74.711 E.01314
G1 X155.166 Y92.181 E.54776
G1 X155.585 Y92.181 E.01314
G1 X155.585 Y74.711 E.54776
G1 X156.004 Y74.711 E.01314
G1 X156.004 Y92.181 E.54776
G1 X156.423 Y92.181 E.01314
G1 X156.423 Y74.711 E.54776
G1 X156.842 Y74.711 E.01314
M73 Q5 S57
G1 X156.842 Y92.181 E.54776
G1 X157.261 Y92.181 E.01314
G1 X157.261 Y74.711 E.54776
G1 X157.68 Y74.711 E.01314
G1 X157.68 Y92.181 E.54776
G1 X158.099 Y92.181 E.01314
G1 X158.099 Y74.711 E.54776
G1 X158.518 Y74.711 E.01314
M73 P6 R57
G1 X158.518 Y92.181 E.54776
G1 X158.937 Y92.181 E.01314
M73 Q6 S57
G1 X158.937 Y74.711 E.54776
G1 X159.356 Y74.711 E.01314
G1 X159.356 Y92.181 E.54776
G1 X159.775 Y92.181 E.01314
G1 X159.775 Y74.711 E.54776
G1 X159.903 Y74.711 E.00401
G1 X159.903 Y81.632 E.217
G1 X160.194 Y81.632 E.00912
G1 X160.194 Y92.181 E.33076
G1 X160.613 Y92.181 E.01314
G1 X160.613 Y81.632 E.33076
G1 X161.032 Y81.632 E.01314
G1 X161.032 Y92.181 E.33076
G1 X161.451 Y92.181 E.01314
G1 X161.451 Y81.632 E.33076
G1 X161.87 Y81.632 E.01314
G1 X161.87 Y92.181 E.33076
G1 X162.289 Y92.181 E.01314
G1 X162.289 Y81.632 E.33076
G1 X162.708 Y81.632 E.01314
G1 X162.708 Y92.181 E.33076
G1 X163.127 Y92.181 E.01314
G1 X163.127 Y81.632 E.33076
G1 X163.546 Y81.632 E.01314
G1 X163.546 Y92.181 E.33076
G1 X163.965 Y92.181 E.01314
G1 X163.965 Y81.632 E.33076
G1 X164.384 Y81.632 E.01314
G1 X164.384 Y92.181 E.33076
G1 X164.542 Y92.181 E.00495
G1 X164.803 Y92.441 E.01155
G1 X164.803 Y88.384 E.1272
M204 S1000
G1 X164.803 Y88.384 F10800
G1 X164.803 Y114.681
M204 S800
G1 F1200
G1 X164.803 Y95.559 E.59956
G1 X164.542 Y95.819 E.01155
