; generated by PrusaSlicer 2.7.4+win64 on 2024-06-23 at 03:46:19 UTC


;
;
; 

; external perimeters extrusion width = 0.45mm
; perimeters extrusion width = 0.45mm
; infill extrusion width = 0.45mm
; solid infill extrusion width = 0.45mm
; top infill extrusion width = 0.40mm
; support material extrusion width = 0.35mm
; first layer extrusion width = 0.42mm

; external perimeters extrusion width = 0.45mm
; perimeters extrusion width = 0.45mm
; infill extrusion width = 0.45mm
; solid infill extrusion width = 0.45mm
; top infill extrusion width = 0.40mm
; support material extrusion width = 0.35mm
; first layer extrusion width = 0.42mm

M73 P0 R1
M73 Q0 S1
M201 X1000 Y1000 Z200 E5000 ; sets maximum accelerations, mm/sec^2
M203 X200 Y200 Z12 E120 ; sets maximum feedrates, mm / sec
M204 S1250 T1250 ; sets acceleration (S) and retract acceleration (R), mm/sec^2
M205 X8.00 Y8.00 Z0.40 E4.50 ; sets the jerk limits, mm/sec
M205 S0 T0 ; sets the minimum extruding and travel feed rate, mm/sec

; printing object jointTip.stl id:0 copy 0
; stop printing object jointTip.stl id:0 copy 0
; printing object jointTip.stl id:1 copy 0
; stop printing object jointTip.stl id:1 copy 0

;TYPE:Custom
M862.3 P "MK3S" ; printer model check
M862.1 P0.4 ; nozzle diameter check
M115 U3.13.3 ; tell printer latest fw version
G90 ; use absolute coordinates
M83 ; extruder relative mode
M104 S215 ; set extruder temp
M140 S60 ; set bed temp
M190 S60 ; wait for bed temp
M109 S215 ; wait for extruder temp
G28 W ; home all without mesh bed level
G80 X113.753 Y98.703 W22.1154 H11.9113 ; mesh bed levelling

G1 Z0.2 F720
G1 Y-3 F1000 ; go outside print area
G92 E0
G1 X60 E9 F1000 ; intro line
G1 X100 E12.5 F1000 ; intro line
M73 P3 R1
M73 Q3 S1

G92 E0
M221 S95

; Don't change E values below. Excessive value can damage the printer.
M907 E430 ; set extruder motor current
G21 ; set units to millimeters
G90 ; use absolute coordinates
M83 ; use relative distances for extrusion

M900 K0.05 ; Filament gcode LA 1.5
M900 K30 ; Filament gcode LA 1.0




M107
;LAYER_CHANGE
;Z:0.2
;HEIGHT:0.2
G1 E-.8 F2100
M73 P6 R1
M73 Q6 S1
G1 Z.6 F720
G1 X115.113 Y101.291 F10800
G1 Z.2 F720
M73 P7 R1
M73 Q7 S1
G1 E.8 F2100
M204 S800
;TYPE:Skirt/Brim
;WIDTH:0.42
G1 F1200
G1 X115.929 Y100.428 E.03724
G1 X116.83 Y99.798 E.03447
G1 X118.004 Y99.299 E.04
G1 X119.281 Y99.074 E.04066
G1 X130.054 Y98.892 E.33783
G1 X130.932 Y98.968 E.02763
M73 P8 R1
M73 Q8 S1
G1 X131.891 Y99.215 E.03105
G1 X132.793 Y99.625 E.03107
G1 X133.54 Y100.13 E.02827
G1 X134.184 Y100.73 E.0276
G1 X134.788 Y101.516 E.03108
G1 X135.211 Y102.311 E.02824
G1 X135.498 Y103.145 E.02765
G1 X135.655 Y104.033 E.02827
G1 X135.663 Y105.023 E.03104
G1 X135.525 Y105.893 E.02762
G1 X135.246 Y106.751 E.02829
G1 X134.788 Y107.629 E.03105
G1 X134.258 Y108.333 E.02763
G1 X133.596 Y108.97 E.02881
G1 X132.793 Y109.519 E.0305
M73 Q9 S1
G1 X131.618 Y110.018 E.04003
G1 X130.341 Y110.243 E.04066
G1 X118.975 Y110.389 E.3564
G1 X117.731 Y110.102 E.04003
M73 P9 R1
G1 X116.491 Y109.485 E.04343
G1 X115.498 Y108.652 E.04064
G1 X114.676 Y107.538 E.04341
G1 X114.237 Y106.552 E.03384
M73 Q10 S1
G1 X113.979 Y105.393 E.03723
G1 X113.96 Y104.294 E.03446
G1 X114.147 Y103.232 E.03381
G1 X114.541 Y102.206 E.03446
G1 X115.081 Y101.341 E.03197
M73 P10 R1
M204 S1000
G1 X115.081 Y101.341 F10800
G1 X115.403 Y101.559
M204 S800
G1 F1200
G1 X115.529 Y101.373 E.00704
G1 X116.319 Y100.595 E.03476
G1 X117.175 Y100.039 E.032
G1 X118.207 Y99.633 E.03477
G1 X119.3 Y99.451 E.03474
G1 X130.047 Y99.269 E.33701
G1 X130.873 Y99.341 E.026
M73 Q11 S1
G1 X131.768 Y99.572 E.02898
G1 X132.61 Y99.955 E.029
G1 X133.303 Y100.423 E.02622
G1 X133.909 Y100.987 E.02596
M73 P11 R1
G1 X134.472 Y101.721 E.029
G1 X134.899 Y102.541 E.02899
G1 X135.157 Y103.336 E.02621
G1 X135.294 Y104.25 E.02898
G1 X135.279 Y105.079 E.026
G1 X135.111 Y105.988 E.02898
G1 X134.825 Y106.773 E.0262
G1 X134.423 Y107.498 E.02599
G1 X133.848 Y108.222 E.02899
G1 X133.227 Y108.781 E.0262
G1 X132.447 Y109.278 E.029
G1 X131.415 Y109.684 E.03477
G1 X130.322 Y109.866 E.03474
G1 X119.021 Y110.015 E.35437
G1 X117.763 Y109.712 E.04057
M73 P12 R1
M73 Q12 S1
G1 X116.617 Y109.115 E.04052
G1 X115.649 Y108.258 E.04054
G1 X114.917 Y107.192 E.04055
G1 X114.538 Y106.253 E.03175
G1 X114.343 Y105.251 E.03201
G1 X114.343 Y104.239 E.03173
G1 X114.564 Y103.152 E.03478
G1 X114.962 Y102.213 E.03198
G1 X115.37 Y101.609 E.02285
M73 Q13 S1
M204 S1000
G1 X115.37 Y101.609 F10800
G1 X115.68 Y101.826
M204 S800
G1 F1200
G1 X115.875 Y101.546 E.0107
G1 X116.557 Y100.888 E.02971
G1 X117.426 Y100.335 E.0323
G1 X118.305 Y99.998 E.02952
G1 X119.32 Y99.827 E.03227
G1 X130.041 Y99.646 E.3362
M73 P13 R1
G1 X130.814 Y99.713 E.02433
G1 X131.646 Y99.929 E.02695
G1 X132.427 Y100.285 E.02691
G1 X133.065 Y100.716 E.02414
G1 X133.633 Y101.245 E.02434
G1 X134.156 Y101.926 E.02692
M73 Q14 S1
G1 X134.552 Y102.688 E.02693
G1 X134.79 Y103.421 E.02416
G1 X134.917 Y104.27 E.02692
G1 X134.895 Y105.129 E.02694
G1 X134.724 Y105.97 E.02691
G1 X134.446 Y106.695 E.02435
M73 P14 R1
G1 X134.061 Y107.362 E.02415
G1 X133.515 Y108.024 E.02691
G1 X132.929 Y108.534 E.02436
G1 X132.197 Y108.982 E.02691
G1 X131.232 Y109.343 E.0323
G1 X130.213 Y109.495 E.0323
G1 X119.066 Y109.64 E.34954
G1 X117.898 Y109.36 E.03766
M73 Q15 S1
G1 X116.76 Y108.755 E.04041
G1 X115.875 Y107.944 E.03764
M73 P15 R1
G1 X115.213 Y106.942 E.03765
G1 X114.875 Y106.063 E.02953
G1 X114.711 Y105.13 E.0297
G1 X114.727 Y104.189 E.02951
G1 X114.95 Y103.183 E.03231
G1 X115.335 Y102.318 E.02969
G1 X115.645 Y101.875 E.01695
M204 S1000
;WIPE_START
G1 F8640
G1 X115.68 Y101.826 E-.0139
G1 X115.875 Y101.546 E-.07879
G1 X116.557 Y100.888 E-.21882
G1 X117.426 Y100.335 E-.23784
G1 X118.305 Y99.998 E-.21737
G1 X118.447 Y99.974 E-.03328
;WIPE_END
G1 Z.6 F720
; printing object jointTip.stl id:0 copy 0
G1 X121.362 Y104.68 F10800
G1 Z.2 F720
G1 E.8 F2100
M73 Q16 S1
M204 S800
;TYPE:Perimeter
;WIDTH:0.419999
G1 F1200
G1 X121.34 Y105.03 E.011
G1 X121.238 Y105.418 E.01258
G1 X121.063 Y105.739 E.01146
G1 X120.713 Y106.125 E.01634
G1 X120.281 Y106.374 E.01563
G1 X119.807 Y106.493 E.01532
G1 X119.305 Y106.475 E.01575
G1 X118.974 Y106.38 E.0108
G1 X118.532 Y106.125 E.016
M73 P16 R1
G1 X118.282 Y105.883 E.01091
G1 X118.012 Y105.451 E.01597
G1 X117.884 Y104.947 E.0163
G1 X117.884 Y104.543 E.01267
G1 X118.012 Y104.039 E.0163
G1 X118.282 Y103.607 E.01597
G1 X118.532 Y103.365 E.01091
G1 X118.973 Y103.11 E.01597
G1 X119.321 Y103.011 E.01134
G1 X119.769 Y103 E.01405
G1 X120.182 Y103.086 E.01323
G1 X120.648 Y103.316 E.01629
G1 X121.007 Y103.663 E.01565
G1 X121.257 Y104.096 E.01568
G1 X121.368 Y104.575 E.01542
G1 X121.366 Y104.62 E.00141
M204 S1000
G1 X121.366 Y104.62 F10800
G1 X121.76 Y104.724
M204 S800
;TYPE:External perimeter
G1 F1200
G1 X121.761 Y104.74 E.0005
G1 X121.677 Y105.338 E.01893
G1 X121.511 Y105.749 E.0139
G1 X121.261 Y106.12 E.01403
G1 X120.942 Y106.428 E.0139
G1 X120.424 Y106.727 E.01875
G1 X119.846 Y106.871 E.01868
G1 X119.245 Y106.85 E.01886
G1 X118.825 Y106.729 E.0137
G1 X118.303 Y106.428 E.01889
G1 X117.987 Y106.122 E.01379
G1 X117.668 Y105.611 E.01889
G1 X117.531 Y105.19 E.01388
G1 X117.484 Y104.745 E.01403
G1 X117.531 Y104.3 E.01403
G1 X117.668 Y103.879 E.01388
G1 X117.987 Y103.368 E.01889
M73 Q17 S1
G1 X118.303 Y103.062 E.01379
G1 X118.825 Y102.761 E.01889
G1 X119.073 Y102.69 E.00809
G1 X119.624 Y102.606 E.01748
G1 X120.067 Y102.653 E.01397
G1 X120.493 Y102.791 E.01404
G1 X120.877 Y103.013 E.01391
G1 X121.307 Y103.429 E.01876
G1 X121.607 Y103.947 E.01877
M73 P17 R1
G1 X121.744 Y104.542 E.01914
G1 X121.755 Y104.665 E.00387
M204 S1000
;WIPE_START
G1 F8640
G1 X121.76 Y104.724 E-.01367
G1 X121.761 Y104.74 E-.0037
G1 X121.677 Y105.338 E-.13944
G1 X121.511 Y105.749 E-.10235
G1 X121.261 Y106.12 E-.1033
G1 X120.942 Y106.428 E-.10239
G1 X120.424 Y106.727 E-.1381
G1 X119.846 Y106.871 E-.13754
G1 X119.589 Y106.862 E-.05951
;WIPE_END
G1 Z.6 F720
G1 X120.08 Y103.232 F10800
G1 Z.2 F720
G1 E.8 F2100
M204 S800
;TYPE:Solid infill
;WIDTH:0.442263
G1 F1200
G1 X120.758 Y103.91 E.03184
G1 X120.942 Y104.229 E.01223
G1 X121.022 Y104.506 E.00957
G1 X121.036 Y104.753 E.00821
G1 X119.61 Y103.326 E.06699
G1 X119.383 Y103.346 E.00757
G1 X119.136 Y103.417 E.00853
G1 X120.948 Y105.23 E.08511
G1 X120.875 Y105.411 E.00648
M73 Q18 S1
G1 X120.75 Y105.596 E.00741
G1 X118.772 Y103.618 E.09289
G1 X118.548 Y103.822 E.01006
M73 P18 R1
G1 X118.495 Y103.906 E.0033
G1 X120.465 Y105.876 E.09251
G1 X120.153 Y106.057 E.01198
G1 X120.095 Y106.071 E.00198
G1 X118.294 Y104.269 E.0846
G1 X118.235 Y104.45 E.00632
G1 X118.204 Y104.745 E.00985
G1 X119.605 Y106.146 E.06579
G1 X119.359 Y106.137 E.00817
G1 X119.107 Y106.065 E.0087
G1 X118.758 Y105.863 E.01339
G1 X118.115 Y105.221 E.03017
M204 S1000
;WIPE_START
G1 F8640
G1 X118.758 Y105.863 E-.20981
G1 X119.107 Y106.065 E-.09311
G1 X119.359 Y106.137 E-.06052
G1 X119.605 Y106.146 E-.05684
G1 X118.442 Y104.983 E-.37972
;WIPE_END
G1 Z.6 F720
; stop printing object jointTip.stl id:0 copy 0
; printing object jointTip.stl id:1 copy 0
G1 X131.739 Y104.507 F10800
M73 Q19 S1
G1 Z.2 F720
M73 P19 R1
G1 E.8 F2100
M204 S800
;TYPE:Perimeter
;WIDTH:0.419999
G1 F1200
G1 X131.717 Y104.857 E.011
G1 X131.615 Y105.245 E.01258
G1 X131.44 Y105.567 E.01149
G1 X131.09 Y105.952 E.01631
G1 X130.658 Y106.202 E.01565
G1 X130.183 Y106.32 E.01535
G1 X129.682 Y106.302 E.01572
G1 X129.35 Y106.207 E.01083
G1 X128.909 Y105.952 E.01597
G1 X128.659 Y105.71 E.01091
G1 X128.389 Y105.278 E.01597
G1 X128.261 Y104.774 E.0163
G1 X128.261 Y104.37 E.01267
G1 X128.389 Y103.866 E.0163
G1 X128.659 Y103.434 E.01597
G1 X128.909 Y103.193 E.01089
G1 X129.35 Y102.938 E.01597
G1 X129.698 Y102.838 E.01135
G1 X130.146 Y102.828 E.01405
G1 X130.558 Y102.914 E.0132
G1 X131.025 Y103.143 E.01631
G1 X131.384 Y103.49 E.01565
G1 X131.634 Y103.923 E.01568
G1 X131.745 Y104.402 E.01542
G1 X131.743 Y104.448 E.00144
M204 S1000
G1 X131.743 Y104.448 F10800
G1 X132.137 Y104.552
M204 S800
;TYPE:External perimeter
G1 F1200
G1 X132.138 Y104.567 E.00047
G1 X132.054 Y105.165 E.01893
G1 X131.888 Y105.576 E.0139
G1 X131.638 Y105.947 E.01403
M73 Q20 S1
G1 X131.319 Y106.255 E.0139
G1 X130.8 Y106.555 E.0188
G1 X130.223 Y106.699 E.01865
G1 X129.622 Y106.677 E.01886
G1 X129.202 Y106.557 E.0137
G1 X128.68 Y106.255 E.01891
G1 X128.363 Y105.949 E.01381
G1 X128.044 Y105.439 E.01886
M73 P20 R1
G1 X127.907 Y105.017 E.01391
G1 X127.861 Y104.572 E.01403
G1 X127.907 Y104.128 E.014
G1 X128.044 Y103.706 E.01391
G1 X128.363 Y103.195 E.01889
G1 X128.68 Y102.889 E.01381
G1 X129.202 Y102.588 E.01889
G1 X129.45 Y102.517 E.00809
G1 X130.001 Y102.433 E.01748
G1 X130.444 Y102.48 E.01397
G1 X130.87 Y102.618 E.01404
G1 X131.254 Y102.84 E.01391
G1 X131.684 Y103.256 E.01876
G1 X131.984 Y103.775 E.0188
G1 X132.121 Y104.37 E.01914
G1 X132.132 Y104.492 E.00384
M204 S1000
;WIPE_START
G1 F8640
G1 X132.137 Y104.552 E-.0139
G1 X132.138 Y104.567 E-.00347
G1 X132.054 Y105.165 E-.13944
G1 X131.888 Y105.576 E-.10235
G1 X131.638 Y105.947 E-.1033
G1 X131.319 Y106.255 E-.10239
G1 X130.8 Y106.555 E-.13842
G1 X130.223 Y106.699 E-.13732
G1 X129.966 Y106.69 E-.05941
;WIPE_END
G1 Z.6 F720
G1 X130.457 Y103.059 F10800
G1 Z.2 F720
G1 E.8 F2100
M73 Q21 S1
M204 S800
;TYPE:Solid infill
;WIDTH:0.442263
G1 F1200
G1 X131.135 Y103.737 E.03184
G1 X131.319 Y104.057 E.01226
G1 X131.399 Y104.333 E.00954
G1 X131.413 Y104.58 E.00821
G1 X129.987 Y103.154 E.06696
G1 X129.76 Y103.173 E.00756
M73 P21 R1
G1 X129.513 Y103.244 E.00853
G1 X131.325 Y105.057 E.08511
G1 X131.252 Y105.238 E.00648
G1 X131.127 Y105.424 E.00744
G1 X129.149 Y103.446 E.09289
G1 X128.924 Y103.649 E.01006
G1 X128.872 Y103.733 E.00328
G1 X130.842 Y105.703 E.09251
G1 X130.529 Y105.884 E.01201
G1 X130.472 Y105.898 E.00195
G1 X128.671 Y104.097 E.08457
G1 X128.612 Y104.277 E.00629
G1 X128.581 Y104.572 E.00985
G1 X129.982 Y105.973 E.06579
G1 X129.736 Y105.964 E.00817
M73 Q22 S1
G1 X129.484 Y105.892 E.0087
G1 X129.135 Y105.691 E.01337
G1 X128.492 Y105.048 E.0302
M204 S1000
M106 S84.15
;LAYER_CHANGE
;Z:0.4
;HEIGHT:0.2
;BEFORE_LAYER_CHANGE
G92 E0.0
;0.4


;WIPE_START
G1 F8640
G1 X129.135 Y105.691 E-.20997
G1 X129.484 Y105.892 E-.09299
G1 X129.736 Y105.964 E-.06052
M73 P22 R1
G1 X129.982 Y105.973 E-.05684
G1 X128.819 Y104.81 E-.37968
;WIPE_END
G1 Z.4 F720
;AFTER_LAYER_CHANGE
;0.4
M104 S210 ; set temperature
; stop printing object jointTip.stl id:1 copy 0
G1 Z.8
G1 X128.889 Y110.262 F10800
G1 Z.4 F720
G1 E.8 F2100
;TYPE:Skirt/Brim
;WIDTH:0.42
G1 F1800
G1 X118.975 Y110.389 E.31087
G1 X117.731 Y110.102 E.04003
G1 X116.491 Y109.485 E.04343
M73 Q23 S1
G1 X115.498 Y108.652 E.04064
G1 X114.676 Y107.538 E.04341
G1 X114.237 Y106.552 E.03384
G1 X113.979 Y105.393 E.03723
G1 X113.96 Y104.294 E.03446
M73 P23 R1
G1 X114.147 Y103.232 E.03381
G1 X114.541 Y102.206 E.03446
G1 X115.113 Y101.291 E.03383
G1 X115.929 Y100.428 E.03724
G1 X116.83 Y99.798 E.03447
G1 X118.004 Y99.299 E.04
G1 X119.281 Y99.074 E.04066
G1 X130.054 Y98.892 E.33783
G1 X130.932 Y98.968 E.02763
G1 X131.891 Y99.215 E.03105
G1 X132.793 Y99.625 E.03107
G1 X133.54 Y100.13 E.02827
G1 X134.184 Y100.73 E.0276
M73 Q24 S1
G1 X134.788 Y101.516 E.03108
G1 X135.211 Y102.311 E.02824
G1 X135.498 Y103.145 E.02765
G1 X135.655 Y104.033 E.02827
G1 X135.663 Y105.023 E.03104
G1 X135.525 Y105.893 E.02762
M73 P24 R1
G1 X135.246 Y106.751 E.02829
G1 X134.788 Y107.629 E.03105
G1 X134.258 Y108.333 E.02763
G1 X133.596 Y108.97 E.02881
G1 X132.793 Y109.519 E.0305
G1 X131.618 Y110.018 E.04003
G1 X130.341 Y110.243 E.04066
G1 X128.949 Y110.261 E.04365
G1 X128.944 Y109.885 F10800
G1 F1800
G1 X119.021 Y110.015 E.31116
G1 X117.763 Y109.712 E.04057
G1 X116.617 Y109.115 E.04052
G1 X115.649 Y108.258 E.04054
G1 X114.917 Y107.192 E.04055
M73 Q25 S1
G1 X114.538 Y106.253 E.03175
G1 X114.343 Y105.251 E.03201
G1 X114.343 Y104.239 E.03173
G1 X114.564 Y103.152 E.03478
G1 X114.962 Y102.213 E.03198
M73 P25 R1
G1 X115.529 Y101.373 E.03178
G1 X116.319 Y100.595 E.03476
G1 X117.175 Y100.039 E.032
G1 X118.207 Y99.633 E.03477
G1 X119.3 Y99.451 E.03474
G1 X130.047 Y99.269 E.33701
G1 X130.873 Y99.341 E.026
G1 X131.768 Y99.572 E.02898
G1 X132.61 Y99.955 E.029
G1 X133.303 Y100.423 E.02622
G1 X133.909 Y100.987 E.02596
G1 X134.472 Y101.721 E.029
G1 X134.899 Y102.541 E.02899
G1 X135.157 Y103.336 E.02621
G1 X135.294 Y104.25 E.02898
G1 X135.279 Y105.079 E.026
M73 Q26 S1
G1 X135.111 Y105.988 E.02898
G1 X134.825 Y106.773 E.0262
G1 X134.423 Y107.498 E.02599
G1 X133.848 Y108.222 E.02899
G1 X133.227 Y108.781 E.0262
G1 X132.447 Y109.278 E.029
M73 P26 R1
G1 X131.415 Y109.684 E.03477
G1 X130.322 Y109.866 E.03474
G1 X129.004 Y109.884 E.04133
G1 X129.004 Y109.884 F10800
G1 X128.999 Y109.51
G1 F1800
G1 X119.066 Y109.64 E.31147
G1 X117.898 Y109.36 E.03766
G1 X116.76 Y108.755 E.04041
G1 X115.875 Y107.944 E.03764
G1 X115.213 Y106.942 E.03765
G1 X114.875 Y106.063 E.02953
G1 X114.711 Y105.13 E.0297
G1 X114.727 Y104.189 E.02951
G1 X114.95 Y103.183 E.03231
G1 X115.335 Y102.318 E.02969
G1 X115.875 Y101.546 E.02954
M73 Q27 S1
G1 X116.557 Y100.888 E.02971
G1 X117.426 Y100.335 E.0323
G1 X118.305 Y99.998 E.02952
G1 X119.32 Y99.827 E.03227
M73 P27 R1
G1 X130.041 Y99.646 E.3362
G1 X130.814 Y99.713 E.02433
G1 X131.646 Y99.929 E.02695
G1 X132.427 Y100.285 E.02691
G1 X133.065 Y100.716 E.02414
G1 X133.633 Y101.245 E.02434
G1 X134.156 Y101.926 E.02692
G1 X134.552 Y102.688 E.02693
G1 X134.79 Y103.421 E.02416
G1 X134.917 Y104.27 E.02692
G1 X134.895 Y105.129 E.02694
G1 X134.724 Y105.97 E.02691
G1 X134.446 Y106.695 E.02435
G1 X134.061 Y107.362 E.02415
G1 X133.515 Y108.024 E.02691
G1 X132.929 Y108.534 E.02436
G1 X132.197 Y108.982 E.02691
G1 X131.232 Y109.343 E.0323
G1 X130.213 Y109.495 E.0323
M73 Q28 S1
G1 X129.059 Y109.51 E.03619
;WIPE_START
G1 F8640
G1 X128.999 Y109.51 E-.01385
G1 X125.595 Y109.555 E-.78615
;WIPE_END
G1 Z.8 F720
M73 P28 R1
; printing object jointTip.stl id:0 copy 0
G1 X121.535 Y104.745 F10800
G1 Z.4 F720
G1 E.8 F2100
M204 S800
;TYPE:Perimeter
;WIDTH:0.449999
G1 F1500
G1 X121.459 Y105.283 E.01839
G1 X121.313 Y105.644 E.01318
G1 X121.089 Y105.976 E.01356
G1 X120.809 Y106.246 E.01317
G1 X120.339 Y106.518 E.01838
