; generated by PrusaSlicer 2.7.4+win64 on 2024-06-27 at 18:25:01 UTC


;
;
; 

; external perimeters extrusion width = 0.45mm
; perimeters extrusion width = 0.45mm
; infill extrusion width = 0.45mm
; solid infill extrusion width = 0.45mm
; top infill extrusion width = 0.40mm
; support material extrusion width = 0.35mm
; first layer extrusion width = 0.42mm

; external perimeters extrusion width = 0.45mm
; perimeters extrusion width = 0.45mm
; infill extrusion width = 0.45mm
; solid infill extrusion width = 0.45mm
; top infill extrusion width = 0.40mm
; support material extrusion width = 0.35mm
; first layer extrusion width = 0.42mm

M73 P0 R61
M73 Q0 S62
M201 X1000 Y1000 Z200 E5000 ; sets maximum accelerations, mm/sec^2
M203 X200 Y200 Z12 E120 ; sets maximum feedrates, mm / sec
M204 S1250 T1250 ; sets acceleration (S) and retract acceleration (R), mm/sec^2
M205 X8.00 Y8.00 Z0.40 E4.50 ; sets the jerk limits, mm/sec
M205 S0 T0 ; sets the minimum extruding and travel feed rate, mm/sec

; printing object singleFlippingLinkage v65.stl_1 id:0 copy 0
; stop printing object singleFlippingLinkage v65.stl_1 id:0 copy 0
; printing object singleFlippingLinkage v65.stl_2 id:1 copy 0
; stop printing object singleFlippingLinkage v65.stl_2 id:1 copy 0

;TYPE:Custom
M862.3 P "MK3S" ; printer model check
M862.1 P0.4 ; nozzle diameter check
M115 U3.13.3 ; tell printer latest fw version
G90 ; use absolute coordinates
M83 ; extruder relative mode
M104 S215 ; set extruder temp
M140 S60 ; set bed temp
M190 S60 ; wait for bed temp
M109 S215 ; wait for extruder temp
G28 W ; home all without mesh bed level
G80 X72.6388 Y49.0196 W125.205 H109.01 ; mesh bed levelling

G1 Z0.2 F720
G1 Y-3 F1000 ; go outside print area
G92 E0
G1 X60 E9 F1000 ; intro line
G1 X100 E12.5 F1000 ; intro line
M73 Q0 S61

G92 E0
M221 S95

; Don't change E values below. Excessive value can damage the printer.
M907 E430 ; set extruder motor current
G21 ; set units to millimeters
G90 ; use absolute coordinates
M83 ; use relative distances for extrusion

M900 K0.05 ; Filament gcode LA 1.5
M900 K30 ; Filament gcode LA 1.0




M107
;LAYER_CHANGE
;Z:0.2
;HEIGHT:0.2
G1 E-.8 F2100
G1 Z.6 F720
G1 X74.395 Y65.659 F10800
G1 Z.2 F720
G1 E.8 F2100
M204 S800
;TYPE:Skirt/Brim
;WIDTH:0.42
G1 F1200
G1 X74.897 Y65.111 E.0233
G1 X75.771 Y64.387 E.03558
G1 X96.387 Y50.344 E.78212
G1 X97.601 Y49.707 E.04299
G1 X98.684 Y49.367 E.03559
G1 X99.808 Y49.21 E.03558
G1 X100.942 Y49.24 E.03557
G1 X102.056 Y49.456 E.03558
G1 X103.12 Y49.853 E.03561
G1 X104.103 Y50.419 E.03557
G1 X104.819 Y50.981 E.02854
G1 X195.444 Y131.967 E3.81076
G1 X196.359 Y133.006 E.04341
G1 X196.945 Y133.978 E.03559
G1 X197.238 Y134.661 E.0233
G1 X197.539 Y135.756 E.03561
G1 X197.656 Y136.885 E.03559
G1 X197.585 Y138.017 E.03556
G1 X197.198 Y139.493 E.04784
G1 X196.705 Y140.515 E.03558
G1 X196.293 Y141.134 E.02331
G1 X195.542 Y141.985 E.03559
G1 X194.554 Y142.777 E.0397
G1 X173.84 Y156.863 E.78541
G1 X172.823 Y157.366 E.03557
M73 P0 R60
G1 X171.737 Y157.695 E.03558
G1 X170.611 Y157.841 E.0356
G1 X169.477 Y157.799 E.03558
G1 X168.745 Y157.671 E.0233
G1 X167.482 Y157.251 E.04173
G1 X78.746 Y117.463 E3.04914
G1 X77.507 Y116.793 E.04416
G1 X76.725 Y116.244 E.02996
G1 X75.784 Y115.41 E.03942
G1 X74.775 Y114.22 E.04892
G1 X74.255 Y113.419 E.02994
G1 X73.693 Y112.294 E.03943
G1 X73.201 Y110.814 E.0489
G1 X73.018 Y109.876 E.02996
G1 X72.916 Y108.623 E.03942
G1 X72.827 Y70.037 E1.20984
G1 X72.959 Y68.712 E.04175
G1 X73.266 Y67.62 E.03557
G1 X73.749 Y66.593 E.03558
G1 X74.361 Y65.709 E.03371
M204 S1000
;WIPE_START
G1 F8640
G1 X74.395 Y65.659 E-.01396
G1 X74.897 Y65.111 E-.1716
G1 X75.771 Y64.387 E-.26206
G1 X77.032 Y63.528 E-.35238
;WIPE_END
G1 Z.6 F720
; printing object singleFlippingLinkage v65.stl_1 id:0 copy 0
G1 X154.939 Y142.036 F10800
G1 Z.2 F720
G1 E.8 F2100
M204 S800
;TYPE:Support material
G1 F1200
G1 X155.342 Y142.14 E.01305
G1 X169.932 Y147.931 E.49218
G1 X170.676 Y147.969 E.02336
G1 X171.237 Y148.095 E.01803
G1 X171.765 Y148.324 E.01805
G1 X172.24 Y148.648 E.01803
G1 X172.646 Y149.056 E.01805
G1 X172.968 Y149.532 E.01802
G1 X173.195 Y150.061 E.01805
G1 X173.318 Y150.623 E.01804
G1 X173.334 Y151.198 E.01804
G1 X173.241 Y151.766 E.01805
G1 X173.043 Y152.306 E.01803
G1 X172.747 Y152.799 E.01803
G1 X172.364 Y153.228 E.01803
G1 X171.907 Y153.578 E.01805
G1 X171.393 Y153.835 E.01802
G1 X170.839 Y153.991 E.01805
G1 X170.266 Y154.04 E.01803
G1 X169.693 Y153.981 E.01806
G1 X169.143 Y153.815 E.01801
G1 X168.633 Y153.549 E.01804
G1 X168.182 Y153.191 E.01805
G1 X167.685 Y152.637 E.02334
G1 X154.009 Y144.931 E.49219
G1 X153.675 Y144.683 E.01304
G1 X153.432 Y144.383 E.0121
G1 X153.201 Y143.653 E.02401
G1 X153.349 Y142.902 E.024
G1 X153.84 Y142.314 E.02402
G1 X154.179 Y142.13 E.01209
G1 X154.882 Y142.035 E.02224
M204 S1000
G1 X154.882 Y142.035 F10800
G1 X172.763 Y152.443
M204 S800
G1 F1200
G1 X172.763 Y149.916 E.07923
G1 X172.344 Y149.234 E.0251
G1 X172.344 Y152.741 E.10996
G1 X171.925 Y153.137 E.01808
G1 X171.925 Y148.844 E.1346
G1 X171.506 Y148.582 E.01549
G1 X171.506 Y153.399 E.15103
G1 X171.087 Y153.569 E.01418
G1 X171.087 Y148.409 E.16179
G1 X170.668 Y148.315 E.01346
G1 X170.668 Y153.665 E.16775
G1 X170.25 Y153.698 E.01315
G1 X170.25 Y148.295 E.16941
G1 X169.831 Y148.256 E.01319
G1 X169.831 Y153.654 E.16925
G1 X169.761 Y153.647 E.00221
G1 X169.412 Y153.542 E.01143
G1 X169.412 Y148.09 E.17094
G1 X168.993 Y147.923 E.01414
G1 X168.993 Y153.354 E.17029
G1 X168.574 Y153.069 E.01589
G1 X168.574 Y147.757 E.16655
G1 X168.155 Y147.591 E.01413
G1 X168.155 Y152.64 E.15831
G1 X167.736 Y152.276 E.0174
G1 X167.736 Y147.424 E.15213
G1 X167.317 Y147.258 E.01413
G1 X167.317 Y152.04 E.14994
G1 X166.898 Y151.804 E.01508
G1 X166.898 Y147.092 E.14774
G1 X166.479 Y146.926 E.01413
G1 X166.479 Y151.568 E.14555
G1 X166.06 Y151.331 E.01509
G1 X166.06 Y146.759 E.14335
G1 X165.641 Y146.593 E.01413
G1 X165.641 Y151.095 E.14116
G1 X165.222 Y150.859 E.01508
G1 X165.222 Y146.427 E.13896
G1 X164.803 Y146.26 E.01414
G1 X164.803 Y150.623 E.1368
G1 X164.384 Y150.387 E.01508
G1 X164.384 Y146.094 E.1346
G1 X163.965 Y145.928 E.01413
G1 X163.965 Y150.151 E.13241
G1 X163.546 Y149.915 E.01508
G1 X163.546 Y145.761 E.13025
G1 X163.127 Y145.595 E.01413
G1 X163.127 Y149.679 E.12805
G1 X162.708 Y149.443 E.01508
G1 X162.708 Y145.429 E.12586
G1 X162.289 Y145.262 E.01414
G1 X162.289 Y149.207 E.12369
G1 X161.87 Y148.971 E.01508
G1 X161.87 Y145.096 E.1215
G1 X161.451 Y144.93 E.01413
G1 X161.451 Y148.735 E.1193
G1 X161.032 Y148.499 E.01508
G1 X161.032 Y144.763 E.11714
G1 X160.613 Y144.597 E.01413
G1 X160.613 Y148.262 E.11491
G1 X160.194 Y148.026 E.01508
G1 X160.194 Y144.431 E.11272
G1 X159.775 Y144.265 E.01413
G1 X159.775 Y147.79 E.11052
G1 X159.356 Y147.554 E.01508
M73 P1 R60
G1 X159.356 Y144.098 E.10836
M73 Q1 S61
G1 X158.937 Y143.932 E.01413
G1 X158.937 Y147.318 E.10617
G1 X158.518 Y147.082 E.01508
G1 X158.518 Y143.766 E.10397
G1 X158.099 Y143.599 E.01414
G1 X158.099 Y146.846 E.10181
G1 X157.68 Y146.61 E.01508
G1 X157.68 Y143.433 E.09961
G1 X157.261 Y143.267 E.01413
G1 X157.261 Y146.374 E.09742
G1 X156.842 Y146.138 E.01508
G1 X156.842 Y143.1 E.09525
G1 X156.423 Y142.934 E.01413
G1 X156.423 Y145.902 E.09306
G1 X156.004 Y145.666 E.01508
G1 X156.004 Y142.768 E.09086
G1 X155.585 Y142.601 E.01414
G1 X155.585 Y145.43 E.0887
G1 X155.166 Y145.193 E.01509
G1 X155.166 Y142.445 E.08616
G1 X154.747 Y142.375 E.01332
G1 X154.747 Y144.957 E.08096
G1 X154.328 Y144.721 E.01508
G1 X154.328 Y142.442 E.07146
G1 X153.909 Y142.713 E.01565
G1 X153.909 Y144.646 E.06061
M204 S1000
;WIPE_START
G1 F8640
G1 X153.909 Y142.713 E-.44634
G1 X154.328 Y142.442 E-.11522
G1 X154.328 Y143.475 E-.23844
;WIPE_END
G1 Z.6 F720
G1 X130.251 Y123.706 F10800
G1 Z.2 F720
G1 E.8 F2100
M204 S800
G1 F1200
G1 X137.172 Y123.706 E.217
G1 X137.172 Y130.893 E.22534
G1 X122.057 Y124.115 E.51939
G1 X122.057 Y121.399 E.08516
G1 X130.251 Y121.399 E.25692
G1 X130.251 Y123.65 E.07058
M204 S1000
G1 X130.251 Y123.65 F10800
G1 X136.731 Y130.509
M204 S800
G1 F1200
G1 X136.731 Y124.045 E.20267
G1 X136.312 Y124.045 E.01314
G1 X136.312 Y130.135 E.19095
G1 X135.893 Y129.948 E.01439
G1 X135.893 Y124.045 E.18508
G1 X135.474 Y124.045 E.01314
G1 X135.474 Y129.76 E.17919
G1 X135.055 Y129.572 E.0144
G1 X135.055 Y124.045 E.1733
G1 X134.636 Y124.045 E.01314
G1 X134.636 Y129.384 E.1674
G1 X134.217 Y129.196 E.0144
G1 X134.217 Y124.045 E.16151
G1 X133.799 Y124.045 E.01311
G1 X133.799 Y129.008 E.15561
G1 X133.38 Y128.82 E.0144
G1 X133.38 Y124.045 E.14972
G1 X132.961 Y124.045 E.01314
G1 X132.961 Y128.632 E.14382
G1 X132.542 Y128.445 E.01439
G1 X132.542 Y124.045 E.13796
G1 X132.123 Y124.045 E.01314
G1 X132.123 Y128.257 E.13206
G1 X131.704 Y128.069 E.0144
G1 X131.704 Y124.045 E.12617
G1 X131.285 Y124.045 E.01314
G1 X131.285 Y127.881 E.12028
G1 X130.866 Y127.693 E.0144
G1 X130.866 Y124.045 E.11438
G1 X130.447 Y124.045 E.01314
G1 X130.447 Y127.505 E.10849
G1 X130.028 Y127.317 E.0144
G1 X130.028 Y124.045 E.10259
G1 X129.911 Y124.045 E.00367
G1 X129.911 Y121.738 E.07233
G1 X129.609 Y121.738 E.00947
G1 X129.609 Y127.13 E.16906
G1 X129.19 Y126.942 E.0144
G1 X129.19 Y121.738 E.16317
G1 X128.771 Y121.738 E.01314
G1 X128.771 Y126.754 E.15727
G1 X128.352 Y126.566 E.0144
G1 X128.352 Y121.738 E.15138
G1 X127.933 Y121.738 E.01314
G1 X127.933 Y126.378 E.14548
G1 X127.514 Y126.19 E.0144
G1 X127.514 Y121.738 E.13959
G1 X127.095 Y121.738 E.01314
G1 X127.095 Y126.002 E.13369
G1 X126.676 Y125.814 E.0144
G1 X126.676 Y121.738 E.1278
G1 X126.257 Y121.738 E.01314
G1 X126.257 Y125.627 E.12194
G1 X125.838 Y125.439 E.0144
G1 X125.838 Y121.738 E.11604
G1 X125.419 Y121.738 E.01314
G1 X125.419 Y125.251 E.11015
G1 X125 Y125.063 E.0144
G1 X125 Y121.738 E.10425
G1 X124.581 Y121.738 E.01314
G1 X124.581 Y124.875 E.09836
G1 X124.162 Y124.687 E.0144
G1 X124.162 Y121.738 E.09246
G1 X123.743 Y121.738 E.01314
G1 X123.743 Y124.499 E.08657
G1 X123.324 Y124.312 E.01439
G1 X123.324 Y121.738 E.08071
G1 X122.905 Y121.738 E.01314
G1 X122.905 Y124.124 E.07481
G1 X122.486 Y123.936 E.0144
G1 X122.486 Y121.569 E.07422
M204 S1000
;WIPE_START
G1 F8640
G1 X122.486 Y123.936 E-.54655
G1 X122.905 Y124.124 E-.10604
G1 X122.905 Y123.486 E-.14741
;WIPE_END
G1 Z.6 F720
G1 X161.697 Y150.843 F10800
G1 Z.2 F720
G1 E.8 F2100
M204 S800
;TYPE:Perimeter
;WIDTH:0.639478
G1 F1200
G1 X161.626 Y150.837 E.00353
;WIDTH:0.592817
G1 X161.556 Y150.831 E.00321
;WIDTH:0.546155
G1 X161.486 Y150.825 E.00294
;WIDTH:0.499494
G1 X161.415 Y150.819 E.00271
;WIDTH:0.452832
G1 X161.345 Y150.813 E.00239
;WIDTH:0.406171
G1 X161.275 Y150.807 E.00212
;WIDTH:0.407618
G1 X160.326 Y150.355 E.03188
;WIDTH:0.455726
G1 X159.378 Y149.904 E.03603
;WIDTH:0.503834
G1 X158.43 Y149.452 E.04025
;WIDTH:0.551942
G1 X157.482 Y149.001 E.04443
;WIDTH:0.60005
G1 X156.534 Y148.549 E.04865
G1 X156.433 Y148.529 E.00477
;WIDTH:0.555038
G1 X156.333 Y148.509 E.00434
;WIDTH:0.510025
G1 X156.233 Y148.488 E.00397
;WIDTH:0.465012
G1 X156.132 Y148.468 E.00361
;WIDTH:0.419999
G1 X80.148 Y114.397 E2.61096
G1 X79.393 Y113.999 E.02676
G1 X78.716 Y113.522 E.02597
G1 X78.104 Y112.964 E.02597
G1 X77.568 Y112.332 E.02598
G1 X77.117 Y111.637 E.02598
G1 X76.758 Y110.89 E.02599
G1 X76.497 Y110.104 E.02597
G1 X76.338 Y109.291 E.02597
G1 X76.282 Y108.439 E.02677
G1 X76.198 Y70.054 E1.20354
;WIDTH:0.418448
G1 X76.249 Y69.437 E.01933
;WIDTH:0.41563
G1 X76.391 Y68.876 E.01793
;WIDTH:0.412166
G1 X76.624 Y68.346 E.01778
;WIDTH:0.414432
G1 X76.943 Y67.863 E.01788
;WIDTH:0.416574
G1 X77.337 Y67.439 E.01798
G1 X77.795 Y67.084 E.018
;WIDTH:0.41641
G1 X78.304 Y66.809 E.01797
;WIDTH:0.413933
G1 X78.908 Y66.61 E.01962
;WIDTH:0.410447
G1 X79.453 Y66.526 E.01685
;WIDTH:0.415936
G1 X80.002 Y66.53 E.01703
;WIDTH:0.416761
G1 X80.572 Y66.627 E.01797
G1 X81.119 Y66.816 E.01799
;WIDTH:0.415276
G1 X81.632 Y67.093 E.01805
;WIDTH:0.411475
G1 X82.085 Y67.447 E.01762
;WIDTH:0.414875
G1 X82.475 Y67.875 E.01791
;WIDTH:0.41669
G1 X82.79 Y68.361 E.018
G1 X83.021 Y68.891 E.01797
;WIDTH:0.416196
G1 X83.163 Y69.452 E.01796
;WIDTH:0.413753
G1 X83.214 Y70.09 E.01974
;WIDTH:0.437888
G1 X83.213 Y71.292 E.03948
;WIDTH:0.419999
G1 X83.248 Y87.652 E.51296
G1 X81.64 Y89.292 E.07201
G1 X81.56 Y89.583 E.00946
G1 X81.588 Y102.245 E.39701
G1 X81.613 Y102.411 E.00526
G1 X81.754 Y102.645 E.00857
G1 X90.429 Y111.282 E.38382
G1 X90.597 Y111.397 E.00638
G1 X154.564 Y140.08 E2.19804
;WIDTH:0.431484
G1 X155.596 Y140.535 E.03644
M73 Q1 S60
;WIDTH:0.405871
G1 X155.892 Y140.654 E.00963
;WIDTH:0.380257
G1 X157.015 Y141.142 E.03435
;WIDTH:0.402442
G1 X157.065 Y141.192 E.00211
;WIDTH:0.45131
G1 X157.116 Y141.241 E.0024
;WIDTH:0.500179
G1 X157.167 Y141.291 E.00272
;WIDTH:0.549047
G1 X157.218 Y141.34 E.00298
;WIDTH:0.597916
G1 X157.269 Y141.39 E.0033
;WIDTH:0.646784
G1 X157.319 Y141.439 E.00352
G1 X157.248 Y141.438 E.00357
;WIDTH:0.597916
G1 X157.178 Y141.436 E.00323
;WIDTH:0.549047
G1 X157.107 Y141.434 E.00299
;WIDTH:0.500179
G1 X157.036 Y141.432 E.0027
;WIDTH:0.45131
G1 X156.965 Y141.43 E.00241
;WIDTH:0.402442
G1 X156.894 Y141.428 E.00212
;WIDTH:0.380257
G1 X155.761 Y140.964 E.03434
;WIDTH:0.385035
G1 X155.697 Y140.941 E.00193
;WIDTH:0.4257
G1 X155.02 Y140.766 E.02226
G1 X154.289 Y140.795 E.02328
;WIDTH:0.419999
G1 X153.65 Y140.975 E.02082
G1 X153.042 Y141.327 E.02203
G1 X152.539 Y141.818 E.02204
G1 X152.162 Y142.457 E.02326
G1 X151.97 Y143.092 E.0208
G1 X151.938 Y143.794 E.02203
G1 X152.082 Y144.482 E.02204
G1 X152.392 Y145.113 E.02204
G1 X152.849 Y145.648 E.02206
G1 X153.349 Y146.013 E.01941
G1 X156.481 Y147.778 E.11272
;WIDTH:0.465012
G1 X156.557 Y147.846 E.00358
;WIDTH:0.510025
G1 X156.633 Y147.915 E.00399
;WIDTH:0.555038
G1 X156.709 Y147.984 E.00437
;WIDTH:0.60005
G1 X156.785 Y148.052 E.00472
G1 X157.711 Y148.547 E.04864
;WIDTH:0.551942
G1 X158.638 Y149.041 E.04446
;WIDTH:0.503834
G1 X159.564 Y149.536 E.04024
;WIDTH:0.455726
G1 X160.491 Y150.03 E.03606
;WIDTH:0.407618
G1 X161.417 Y150.525 E.03184
;WIDTH:0.406171
G1 X161.464 Y150.578 E.00214
;WIDTH:0.452832
G1 X161.51 Y150.631 E.00239
;WIDTH:0.499494
G1 X161.557 Y150.684 E.00269
;WIDTH:0.546155
G1 X161.603 Y150.737 E.00294
;WIDTH:0.592817
G1 X161.65 Y150.79 E.00324
;WIDTH:0.639478
G1 X161.657 Y150.798 E.00053
M204 S1000
;WIPE_START
G1 F8640
G1 X161.697 Y150.843 E-.0139
G1 X161.626 Y150.837 E-.01645
G1 X161.556 Y150.831 E-.01622
G1 X161.486 Y150.825 E-.01622
G1 X161.415 Y150.819 E-.01645
G1 X161.345 Y150.813 E-.01622
G1 X161.275 Y150.807 E-.01622
G1 X160.326 Y150.355 E-.24271
G1 X159.378 Y149.904 E-.2424
G1 X158.584 Y149.526 E-.20321
;WIPE_END
G1 Z.6 F720
G1 X168.973 Y154.468 F10800
G1 Z.2 F720
G1 E.8 F2100
M204 S800
;TYPE:External perimeter
;WIDTH:0.400568
G1 F1200
G1 X168.872 Y154.436 E.00315
;WIDTH:0.404731
G1 X168.276 Y154.132 E.02013
;WIDTH:0.424057
G1 X167.681 Y153.775 E.02199
;WIDTH:0.449127
G1 X167.44 Y153.585 E.01037
;WIDTH:0.474197
G1 X167.199 Y153.396 E.01098
;WIDTH:0.487991
G1 X166.346 Y152.942 E.03576
;WIDTH:0.493328
G1 X166.195 Y152.86 E.00644
;WIDTH:0.531234
G1 X165.465 Y152.471 E.03359
;WIDTH:0.56914
G1 X164.735 Y152.081 E.03621
G1 X164.631 Y151.994 E.00593
;WIDTH:0.519427
G1 X164.527 Y151.907 E.00537
;WIDTH:0.469713
G1 X164.423 Y151.82 E.00481
;WIDTH:0.419999
G1 X153.534 Y145.685 E.39188
G1 X153.073 Y145.345 E.01796
G1 X152.685 Y144.876 E.01909
G1 X152.425 Y144.325 E.0191
G1 X152.309 Y143.726 E.01913
G1 X152.346 Y143.118 E.0191
G1 X152.52 Y142.575 E.01788
G1 X152.856 Y142.022 E.02029
G1 X153.298 Y141.603 E.0191
G1 X153.831 Y141.306 E.01913
G1 X154.382 Y141.16 E.01787
G1 X155.026 Y141.146 E.0202
G1 X155.629 Y141.296 E.01948
G1 X163.202 Y144.302 E.25547
;WIDTH:0.457741
G1 X163.301 Y144.322 E.00348
;WIDTH:0.495483
G1 X163.401 Y144.341 E.00383
;WIDTH:0.533225
G1 X163.501 Y144.36 E.00415
;WIDTH:0.570966
G1 X163.601 Y144.38 E.00448
G1 X165.398 Y145.116 E.08526
;WIDTH:0.528638
G1 X167.194 Y145.852 E.07839
;WIDTH:0.48631
G1 X168.99 Y146.587 E.07155
;WIDTH:0.444439
G1 X169.917 Y146.976 E.03356
;WIDTH:0.457093
G1 X170.215 Y147.092 E.01101
G1 X170.785 Y147.217 E.0201
;WIDTH:0.421835
G1 X171.394 Y147.415 E.02018
G1 X172.08 Y147.717 E.02362
;WIDTH:0.404338
