; generated by PrusaSlicer 2.8.0+win64 on 2024-08-08 at 23:31:40 UTC


;
;
; 

; external perimeters extrusion width = 0.45mm
; perimeters extrusion width = 0.45mm
; infill extrusion width = 0.45mm
; solid infill extrusion width = 0.45mm
; top infill extrusion width = 0.40mm
; support material extrusion width = 0.35mm
; first layer extrusion width = 0.42mm

M73 P0 R37
M73 Q0 S37
M201 X1000 Y1000 Z200 E5000 ; sets maximum accelerations, mm/sec^2
M203 X200 Y200 Z12 E120 ; sets maximum feedrates, mm / sec
M204 S1250 T1250 ; sets acceleration (S) and retract acceleration (R), mm/sec^2
M205 X8.00 Y8.00 Z0.40 E4.50 ; sets the jerk limits, mm/sec
M205 S0 T0 ; sets the minimum extruding and travel feed rate, mm/sec

; printing object 零部件2 v3.stl id:0 copy 0
; stop printing object 零部件2 v3.stl id:0 copy 0

;TYPE:Custom
M862.3 P "MK3S" ; printer model check
M862.1 P0.4 ; nozzle diameter check
M115 U3.13.3 ; tell printer latest fw version
G90 ; use absolute coordinates
M83 ; extruder relative mode
M104 S215 ; set extruder temp
M140 S60 ; set bed temp
M190 S60 ; wait for bed temp
M109 S215 ; wait for extruder temp
G28 W ; home all without mesh bed level
G80 X58.0247 Y77.245 W133.951 H55.5099 ; mesh bed levelling

G1 Z0.2 F720
G1 Y-3 F1000 ; go outside print area
G92 E0
G1 X60 E9 F1000 ; intro line
G1 X100 E12.5 F1000 ; intro line

G92 E0
M221 S95

; Don't change E values below. Excessive value can damage the printer.
M907 E430 ; set extruder motor current
G21 ; set units to millimeters
G90 ; use absolute coordinates
M83 ; use relative distances for extrusion

M900 K0.05 ; Filament gcode LA 1.5
M900 K30 ; Filament gcode LA 1.0




M107
;LAYER_CHANGE
;Z:0.2
;HEIGHT:0.2
G1 E-.8 F2100
G1 Z.6 F720
G1 X59.448 Y79.96 F10800
G1 Z.2 F720
G1 E.8 F2100
M204 S800
;TYPE:Skirt/Brim
;WIDTH:0.42
G1 F1200
G1 X64.211 Y77.652 E.16595
G1 X65.165 Y77.434 E.03068
G1 X69.63 Y77.434 E.14
G1 X70.285 Y77.534 E.02078
G1 X187.946 Y114.447 E3.86647
G1 X188.839 Y114.988 E.03274
G1 X191.146 Y117.295 E.1023
G1 X191.787 Y118.842 E.0525
G1 X191.587 Y125.83 E.21919
G1 X191.015 Y127.24 E.04771
G1 X188.79 Y129.666 E.10321
G1 X186.334 Y131.973 E.10565
G1 X184.835 Y132.566 E.05054
G1 X83.473 Y132.566 E3.17813
G1 X82.494 Y132.335 E.03154
G1 X77.88 Y130.028 E.16174
G1 X77.216 Y129.517 E.02627
G1 X74.909 Y126.818 E.11133
G1 X72.289 Y122.03 E.17113
G1 X63.161 Y101.267 E.71114
G1 X58.566 Y89.656 E.39153
M73 P0 R36
G1 X58.413 Y88.917 E.02366
M73 P1 R36
M73 Q1 S37
G1 X58.213 Y81.929 E.21919
G1 X58.604 Y80.681 E.04101
G1 X59.402 Y79.999 E.03291
M204 S1000
;WIPE_START
G1 F8640
G1 X59.448 Y79.96 E-.01393
G1 X62.511 Y78.476 E-.78607
;WIPE_END
G1 Z.6 F720
; printing object 零部件2 v3.stl id:0 copy 0
G1 X148.707 Y116.172 F10800
G1 Z.2 F720
G1 E.8 F2100
M204 S800
;TYPE:Support material
G1 F1200
G1 X124.364 Y116.172 E.76326
G1 X124.364 Y111.285 E.15323
G1 X148.707 Y111.285 E.76326
G1 X148.707 Y116.115 E.15144
M204 S1000
G1 X148.707 Y116.115 F10800
G1 X148.044 Y116.002
M204 S800
G1 F1200
G1 X148.044 Y111.624 E.13727
G1 X147.625 Y111.624 E.01314
G1 X147.625 Y115.832 E.13194
G1 X147.206 Y115.832 E.01314
G1 X147.206 Y111.624 E.13194
G1 X146.787 Y111.624 E.01314
G1 X146.787 Y115.832 E.13194
G1 X146.368 Y115.832 E.01314
G1 X146.368 Y111.624 E.13194
G1 X145.949 Y111.624 E.01314
G1 X145.949 Y115.832 E.13194
G1 X145.53 Y115.832 E.01314
G1 X145.53 Y111.624 E.13194
G1 X145.111 Y111.624 E.01314
G1 X145.111 Y115.832 E.13194
G1 X144.692 Y115.832 E.01314
G1 X144.692 Y111.624 E.13194
G1 X144.273 Y111.624 E.01314
G1 X144.273 Y115.832 E.13194
G1 X143.854 Y115.832 E.01314
G1 X143.854 Y111.624 E.13194
G1 X143.435 Y111.624 E.01314
G1 X143.435 Y115.832 E.13194
G1 X143.016 Y115.832 E.01314
G1 X143.016 Y111.624 E.13194
G1 X142.597 Y111.624 E.01314
G1 X142.597 Y115.832 E.13194
G1 X142.178 Y115.832 E.01314
G1 X142.178 Y111.624 E.13194
G1 X141.759 Y111.624 E.01314
G1 X141.759 Y115.832 E.13194
G1 X141.34 Y115.832 E.01314
G1 X141.34 Y111.624 E.13194
G1 X140.921 Y111.624 E.01314
G1 X140.921 Y115.832 E.13194
G1 X140.502 Y115.832 E.01314
G1 X140.502 Y111.624 E.13194
G1 X140.083 Y111.624 E.01314
G1 X140.083 Y115.832 E.13194
G1 X139.664 Y115.832 E.01314
G1 X139.664 Y111.624 E.13194
G1 X139.245 Y111.624 E.01314
G1 X139.245 Y115.832 E.13194
G1 X138.826 Y115.832 E.01314
G1 X138.826 Y111.624 E.13194
G1 X138.407 Y111.624 E.01314
G1 X138.407 Y115.832 E.13194
G1 X137.988 Y115.832 E.01314
G1 X137.988 Y111.624 E.13194
G1 X137.569 Y111.624 E.01314
G1 X137.569 Y115.832 E.13194
G1 X137.15 Y115.832 E.01314
G1 X137.15 Y111.624 E.13194
G1 X136.731 Y111.624 E.01314
G1 X136.731 Y115.832 E.13194
G1 X136.312 Y115.832 E.01314
G1 X136.312 Y111.624 E.13194
G1 X135.893 Y111.624 E.01314
G1 X135.893 Y115.832 E.13194
G1 X135.474 Y115.832 E.01314
G1 X135.474 Y111.624 E.13194
G1 X135.055 Y111.624 E.01314
G1 X135.055 Y115.832 E.13194
G1 X134.636 Y115.832 E.01314
G1 X134.636 Y111.624 E.13194
G1 X134.217 Y111.624 E.01314
G1 X134.217 Y115.832 E.13194
G1 X133.799 Y115.832 E.01311
G1 X133.799 Y111.624 E.13194
G1 X133.38 Y111.624 E.01314
G1 X133.38 Y115.832 E.13194
G1 X132.961 Y115.832 E.01314
G1 X132.961 Y111.624 E.13194
G1 X132.542 Y111.624 E.01314
G1 X132.542 Y115.832 E.13194
G1 X132.123 Y115.832 E.01314
G1 X132.123 Y111.624 E.13194
G1 X131.704 Y111.624 E.01314
G1 X131.704 Y115.832 E.13194
G1 X131.285 Y115.832 E.01314
G1 X131.285 Y111.624 E.13194
G1 X130.866 Y111.624 E.01314
G1 X130.866 Y115.832 E.13194
G1 X130.447 Y115.832 E.01314
G1 X130.447 Y111.624 E.13194
G1 X130.028 Y111.624 E.01314
G1 X130.028 Y115.832 E.13194
G1 X129.609 Y115.832 E.01314
G1 X129.609 Y111.624 E.13194
G1 X129.19 Y111.624 E.01314
G1 X129.19 Y115.832 E.13194
G1 X128.771 Y115.832 E.01314
G1 X128.771 Y111.624 E.13194
G1 X128.352 Y111.624 E.01314
G1 X128.352 Y115.832 E.13194
G1 X127.933 Y115.832 E.01314
G1 X127.933 Y111.624 E.13194
G1 X127.514 Y111.624 E.01314
G1 X127.514 Y115.832 E.13194
G1 X127.095 Y115.832 E.01314
G1 X127.095 Y111.624 E.13194
G1 X126.676 Y111.624 E.01314
G1 X126.676 Y115.832 E.13194
G1 X126.257 Y115.832 E.01314
G1 X126.257 Y111.624 E.13194
G1 X125.838 Y111.624 E.01314
G1 X125.838 Y115.832 E.13194
G1 X125.419 Y115.832 E.01314
G1 X125.419 Y111.624 E.13194
G1 X125 Y111.624 E.01314
G1 X125 Y116.002 E.13727
M204 S1000
;WIPE_START
G1 F8640
G1 X125 Y112.538 E-.8
;WIPE_END
G1 Z.6 F720
G1 X77.596 Y101.913 F10800
G1 Z.2 F720
G1 E.8 F2100
M204 S800
;TYPE:Support material interface
;WIDTH:0.35
G1 F1200
G1 X77.335 Y102.603 E.01884
G1 X77.335 Y103.245 E.01639
G1 X77.596 Y103.825 E.01624
M204 S1000
;WIPE_START
G1 F8640
G1 X77.335 Y103.245 E-.14686
G1 X77.335 Y102.603 E-.14824
G1 X77.596 Y101.913 E-.17034
;WIPE_END
G1 E-.33456 F2100
G1 Z.6 F720
G1 X85.112 Y120.971 F10800
G1 Z.2 F720
G1 E.8 F2100
M204 S800
G1 F1200
G1 X84.941 Y120.625 E.00985
G1 X84.941 Y122.369 E.04453
G1 X84.434 Y122.85 E.01784
G1 X84.434 Y120.144 E.06909
G1 X83.927 Y119.952 E.01384
G1 X83.927 Y123.042 E.0789
G1 X83.42 Y123.056 E.01295
G1 X83.42 Y119.937 E.07964
G1 X82.912 Y120.095 E.01358
G1 X82.912 Y122.898 E.07157
G1 X82.405 Y122.487 E.01666
G1 X82.405 Y120.506 E.05058
G1 X82.135 Y120.995 E.01426
G1 X82.053 Y121.49 E.01281
G1 X82.13 Y121.985 E.01279
G1 X82.315 Y122.363 E.01075
M204 S1000
;WIPE_START
G1 F8640
G1 X82.13 Y121.985 E-.09717
G1 X82.053 Y121.49 E-.11567
G1 X82.135 Y120.995 E-.11585
G1 X82.405 Y120.506 E-.12898
G1 X82.405 Y121.988 E-.34233
;WIPE_END
G1 Z.6 F720
G1 X74.646 Y121.15 F10800
G1 Z.2 F720
G1 E.8 F2100
M204 S800
G1 F1200
G1 X74.292 Y121.15 E.00904
G1 X74.292 Y113.902 E.18507
G1 X74.031 Y113.323 E.01622
M204 S1000
G1 X74.031 Y113.323 F10800
G1 X73.785 Y112.778
M204 S800
G1 F1200
G1 X73.785 Y114.228 E.03702
G1 X73.278 Y114.228 E.01295
G1 X73.278 Y111.653 E.06575
G1 X73.017 Y111.074 E.01622
M73 P2 R36
M73 Q2 S37
M204 S1000
G1 X73.017 Y111.074 F10800
G1 X72.771 Y110.529
M204 S800
G1 F1200
G1 X72.771 Y114.228 E.09445
G1 X72.264 Y114.228 E.01295
G1 X72.264 Y109.405 E.12315
G1 X72.002 Y108.825 E.01625
M204 S1000
G1 X72.002 Y108.825 F10800
G1 X71.757 Y108.28
M204 S800
G1 F1200
G1 X71.757 Y109.614 E.03406
G1 X71.25 Y109.614 E.01295
G1 X71.25 Y107.156 E.06276
G1 X70.988 Y106.576 E.01625
M204 S1000
G1 X70.988 Y106.576 F10800
G1 X70.743 Y106.032
M204 S800
G1 F1200
G1 X70.743 Y109.614 E.09146
G1 X70.235 Y109.614 E.01297
G1 X70.235 Y104.907 E.12019
G1 X69.974 Y104.328 E.01622
M204 S1000
;WIPE_START
G1 F8640
G1 X70.235 Y104.907 E-.14665
G1 X70.235 Y107.737 E-.65335
;WIPE_END
G1 Z.6 F720
G1 X67.7 Y105 F10800
G1 Z.2 F720
G1 E.8 F2100
M204 S800
G1 F1200
G1 X67.323 Y105 E.00963
G1 X67.323 Y100.386 E.11781
G1 X67.193 Y100.386 E.00332
G1 X67.193 Y98.161 E.05681
G1 X66.932 Y97.581 E.01624
M204 S1000
G1 X66.932 Y97.581 F10800
G1 X66.686 Y97.037
M204 S800
G1 F1200
G1 X66.686 Y100.386 E.08551
G1 X66.179 Y100.386 E.01295
G1 X66.179 Y95.912 E.11424
G1 X65.917 Y95.333 E.01623
M204 S1000
G1 X65.917 Y95.333 F10800
G1 X65.672 Y94.788
M204 S800
G1 F1200
G1 X65.672 Y100.386 E.14294
G1 X65.165 Y100.386 E.01295
G1 X65.165 Y93.664 E.17164
G1 X64.658 Y92.539 E.03151
G1 X64.658 Y93.465 E.02364
G1 X64.151 Y93.465 E.01295
G1 X64.151 Y91.415 E.05234
G1 X63.889 Y90.835 E.01625
M204 S1000
G1 X63.889 Y90.835 F10800
G1 X63.643 Y90.291
M204 S800
G1 F1200
G1 X63.643 Y93.465 E.08104
G1 X63.136 Y93.465 E.01295
G1 X63.136 Y89.166 E.10977
G1 X62.692 Y88.182 E.02756
M204 S1000
G1 X62.692 Y88.182 F10800
G1 X62.368 Y87.358
M204 S800
G1 F1200
G1 X62.629 Y88.042 E.01869
G1 X62.629 Y88.85 E.02063
G1 X62.709 Y88.85 E.00204
G1 X62.709 Y93.465 E.11784
G1 X63.136 Y93.465 E.0109
M204 S1000
;WIPE_START
G1 F8640
G1 X62.709 Y93.465 E-.0986
G1 X62.709 Y90.428 E-.7014
;WIPE_END
G1 Z.6 F720
G1 X67.439 Y98.706 F10800
G1 Z.2 F720
G1 E.8 F2100
M204 S800
G1 F1200
G1 X67.7 Y99.285 E.01622
G1 X67.7 Y105 E.14593
G1 X68.207 Y105 E.01295
G1 X68.207 Y100.41 E.1172
M204 S1000
G1 X68.207 Y100.41 F10800
G1 X68.453 Y100.955
M204 S800
G1 F1200
G1 X68.714 Y101.534 E.01622
G1 X68.714 Y105 E.0885
G1 X69.221 Y105 E.01295
G1 X69.221 Y102.659 E.05977
M204 S1000
G1 X69.221 Y102.659 F10800
G1 X69.467 Y103.203
M204 S800
G1 F1200
G1 X69.728 Y103.783 E.01624
G1 X69.728 Y109.614 E.14889
G1 X70.082 Y109.614 E.00904
M204 S1000
;WIPE_START
G1 F8640
G1 X69.728 Y109.614 E-.08174
G1 X69.728 Y106.503 E-.71826
;WIPE_END
G1 Z.6 F720
G1 X74.538 Y114.447 F10800
G1 Z.2 F720
G1 E.8 F2100
M204 S800
G1 F1200
G1 X74.799 Y115.027 E.01624
G1 X74.799 Y121.15 E.15634
G1 X75.306 Y121.15 E.01295
G1 X75.306 Y116.151 E.12764
M204 S1000
G1 X75.306 Y116.151 F10800
G1 X75.552 Y116.696
M204 S800
G1 F1200
G1 X75.813 Y117.275 E.01622
G1 X75.813 Y121.15 E.09894
G1 X76.32 Y121.15 E.01295
G1 X76.32 Y118.4 E.07022
M204 S1000
G1 X76.32 Y118.4 F10800
M73 Q2 S36
G1 X76.566 Y118.944
M204 S800
G1 F1200
G1 X76.827 Y119.524 E.01624
G1 X76.827 Y125.764 E.15933
G1 X77.335 Y125.764 E.01297
G1 X77.335 Y120.648 E.13063
M204 S1000
G1 X77.335 Y120.648 F10800
G1 X77.58 Y121.193
M204 S800
G1 F1200
G1 X77.842 Y121.773 E.01625
G1 X77.842 Y125.764 E.10191
G1 X78.349 Y125.764 E.01295
G1 X78.349 Y122.897 E.07321
M204 S1000
G1 X78.349 Y122.897 F10800
G1 X78.594 Y123.442
M204 S800
G1 F1200
G1 X78.856 Y124.018 E.01616
G1 X78.858 Y128.071 E.10349
G1 X79.363 Y128.071 E.01289
M204 S1000
;WIPE_START
G1 F8640
G1 X78.858 Y128.071 E-.11661
G1 X78.856 Y125.111 E-.68339
;WIPE_END
G1 Z.6 F720
G1 X79.097 Y124.491 F10800
G1 Z.2 F720
G1 E.8 F2100
M204 S800
G1 F1200
G1 X79.363 Y124.937 E.01326
G1 X79.363 Y128.071 E.08002
G1 X79.87 Y128.071 E.01295
G1 X79.87 Y125.631 E.0623
G1 X80.377 Y126.186 E.01919
G1 X80.377 Y128.071 E.04813
G1 X80.884 Y128.071 E.01295
G1 X80.884 Y126.647 E.03636
G1 X81.391 Y127.025 E.01615
G1 X81.391 Y128.071 E.02671
G1 X81.898 Y128.071 E.01295
G1 X81.898 Y127.347 E.01849
G1 X82.405 Y127.611 E.0146
G1 X82.405 Y128.071 E.01175
G1 X82.912 Y128.071 E.01295
G1 X82.912 Y127.829 E.00618
G1 X83.274 Y127.958 E.00981
M204 S1000
;WIPE_START
G1 F8640
G1 X82.912 Y127.829 E-.08874
G1 X82.912 Y128.071 E-.05588
G1 X82.405 Y128.071 E-.11707
G1 X82.405 Y127.611 E-.10622
G1 X81.898 Y127.347 E-.13199
G1 X81.898 Y128.071 E-.16717
G1 X81.391 Y128.071 E-.11707
G1 X81.391 Y128.002 E-.01586
;WIPE_END
G1 Z.6 F720
G1 X83.473 Y130.378 F10800
G1 Z.2 F720
G1 E.8 F2100
M204 S800
G1 F1200
G1 X83.473 Y128.071 E.05891
G1 X83.42 Y128.006 E.00214
G1 X83.927 Y128.144 E.01342
G1 X83.927 Y130.378 E.05704
G1 X84.434 Y130.378 E.01295
G1 X84.434 Y128.24 E.05459
G1 X84.941 Y128.302 E.01304
G1 X84.941 Y130.378 E.05301
G1 X85.448 Y130.378 E.01295
G1 X85.448 Y128.33 E.05229
G1 X85.955 Y128.334 E.01295
G1 X85.955 Y130.378 E.05219
G1 X86.462 Y130.378 E.01295
G1 X86.462 Y128.334 E.05219
G1 X86.969 Y128.334 E.01295
G1 X86.969 Y130.378 E.05219
G1 X87.476 Y130.378 E.01295
G1 X87.476 Y128.334 E.05219
G1 X87.983 Y128.334 E.01295
G1 X87.983 Y130.378 E.05219
G1 X88.49 Y130.378 E.01295
G1 X88.49 Y128.334 E.05219
G1 X88.997 Y128.334 E.01295
G1 X88.997 Y130.378 E.05219
G1 X89.504 Y130.378 E.01295
G1 X89.504 Y128.334 E.05219
G1 X90.012 Y128.334 E.01297
G1 X90.012 Y130.378 E.05219
G1 X90.519 Y130.378 E.01295
G1 X90.519 Y128.334 E.05219
G1 X91.026 Y128.334 E.01295
G1 X91.026 Y130.378 E.05219
G1 X91.533 Y130.378 E.01295
G1 X91.533 Y128.334 E.05219
G1 X92.04 Y128.334 E.01295
G1 X92.04 Y130.378 E.05219
G1 X92.547 Y130.378 E.01295
G1 X92.547 Y128.334 E.05219
G1 X93.054 Y128.334 E.01295
G1 X93.054 Y130.378 E.05219
G1 X93.561 Y130.378 E.01295
G1 X93.561 Y128.334 E.05219
G1 X94.068 Y128.334 E.01295
G1 X94.068 Y130.378 E.05219
G1 X94.575 Y130.378 E.01295
G1 X94.575 Y128.334 E.05219
G1 X95.082 Y128.334 E.01295
G1 X95.082 Y130.378 E.05219
G1 X95.589 Y130.378 E.01295
G1 X95.589 Y128.334 E.05219
G1 X96.096 Y128.334 E.01295
G1 X96.096 Y130.378 E.05219
G1 X96.604 Y130.378 E.01297
G1 X96.604 Y128.334 E.05219
G1 X97.111 Y128.334 E.01295
G1 X97.111 Y130.378 E.05219
G1 X97.618 Y130.378 E.01295
G1 X97.618 Y128.334 E.05219
G1 X98.125 Y128.334 E.01295
G1 X98.125 Y130.378 E.05219
G1 X98.632 Y130.378 E.01295
G1 X98.632 Y128.334 E.05219
G1 X99.139 Y128.334 E.01295
G1 X99.139 Y130.378 E.05219
G1 X99.646 Y130.378 E.01295
G1 X99.646 Y128.334 E.05219
G1 X100.153 Y128.334 E.01295
G1 X100.153 Y130.378 E.05219
G1 X100.66 Y130.378 E.01295
G1 X100.66 Y128.334 E.05219
G1 X101.167 Y128.334 E.01295
G1 X101.167 Y130.378 E.05219
G1 X101.674 Y130.378 E.01295
G1 X101.674 Y128.334 E.05219
G1 X102.181 Y128.334 E.01295
G1 X102.181 Y130.378 E.05219
G1 X102.689 Y130.378 E.01297
G1 X102.689 Y128.334 E.05219
G1 X103.196 Y128.334 E.01295
G1 X103.196 Y130.378 E.05219
G1 X103.703 Y130.378 E.01295
G1 X103.703 Y128.334 E.05219
G1 X104.21 Y128.334 E.01295
G1 X104.21 Y130.378 E.05219
G1 X104.717 Y130.378 E.01295
G1 X104.717 Y128.334 E.05219
G1 X105.224 Y128.334 E.01295
G1 X105.224 Y130.378 E.05219
G1 X105.731 Y130.378 E.01295
G1 X105.731 Y128.334 E.05219
G1 X106.238 Y128.334 E.01295
G1 X106.238 Y130.378 E.05219
G1 X106.745 Y130.378 E.01295
G1 X106.745 Y128.334 E.05219
G1 X107.252 Y128.334 E.01295
G1 X107.252 Y130.378 E.05219
G1 X107.759 Y130.378 E.01295
G1 X107.759 Y128.334 E.05219
G1 X108.266 Y128.334 E.01295
G1 X108.266 Y130.378 E.05219
G1 X108.773 Y130.378 E.01295
G1 X108.773 Y128.334 E.05219
G1 X109.281 Y128.334 E.01297
G1 X109.281 Y130.378 E.05219
G1 X109.788 Y130.378 E.01295
G1 X109.788 Y128.334 E.05219
G1 X110.295 Y128.334 E.01295
G1 X110.295 Y130.378 E.05219
G1 X110.802 Y130.378 E.01295
G1 X110.802 Y128.334 E.05219
G1 X111.309 Y128.334 E.01295
G1 X111.309 Y130.378 E.05219
G1 X111.816 Y130.378 E.01295
G1 X111.816 Y128.334 E.05219
G1 X112.323 Y128.334 E.01295
G1 X112.323 Y130.378 E.05219
G1 X112.83 Y130.378 E.01295
G1 X112.83 Y128.334 E.05219
G1 X113.337 Y128.334 E.01295
G1 X113.337 Y130.378 E.05219
G1 X113.844 Y130.378 E.01295
G1 X113.844 Y128.334 E.05219
G1 X114.351 Y128.334 E.01295
G1 X114.351 Y130.378 E.05219
G1 X114.858 Y130.378 E.01295
G1 X114.858 Y128.334 E.05219
G1 X115.365 Y128.334 E.01295
G1 X115.365 Y130.378 E.05219
G1 X115.873 Y130.378 E.01297
G1 X115.873 Y128.334 E.05219
G1 X116.38 Y128.334 E.01295
G1 X116.38 Y130.378 E.05219
G1 X116.887 Y130.378 E.01295
G1 X116.887 Y128.334 E.05219
G1 X117.394 Y128.334 E.01295
G1 X117.394 Y130.378 E.05219
G1 X117.901 Y130.378 E.01295
G1 X117.901 Y128.334 E.05219
