; generated by PrusaSlicer 2.8.0+win64 on 2024-08-11 at 00:20:50 UTC


;
;
; 

; external perimeters extrusion width = 0.45mm
; perimeters extrusion width = 0.45mm
; infill extrusion width = 0.45mm
; solid infill extrusion width = 0.45mm
; top infill extrusion width = 0.40mm
; support material extrusion width = 0.35mm
; first layer extrusion width = 0.42mm

; external perimeters extrusion width = 0.45mm
; perimeters extrusion width = 0.45mm
; infill extrusion width = 0.45mm
; solid infill extrusion width = 0.45mm
; top infill extrusion width = 0.40mm
; support material extrusion width = 0.35mm
; first layer extrusion width = 0.42mm

M73 P0 R93
M73 Q0 S94
M201 X1000 Y1000 Z200 E5000 ; sets maximum accelerations, mm/sec^2
M203 X200 Y200 Z12 E120 ; sets maximum feedrates, mm / sec
M204 S1250 T1250 ; sets acceleration (S) and retract acceleration (R), mm/sec^2
M205 X8.00 Y8.00 Z0.40 E4.50 ; sets the jerk limits, mm/sec
M205 S0 T0 ; sets the minimum extruding and travel feed rate, mm/sec

; printing object baseBoard-9kg motor v3 v7.stl_1 id:0 copy 0
; stop printing object baseBoard-9kg motor v3 v7.stl_1 id:0 copy 0
; printing object baseBoard-9kg motor v3 v7.stl_2 id:1 copy 0
; stop printing object baseBoard-9kg motor v3 v7.stl_2 id:1 copy 0

;TYPE:Custom
M862.3 P "MK3S" ; printer model check
M862.1 P0.4 ; nozzle diameter check
M115 U3.13.3 ; tell printer latest fw version
G90 ; use absolute coordinates
M83 ; extruder relative mode
M104 S215 ; set extruder temp
M140 S60 ; set bed temp
M190 S60 ; wait for bed temp
M109 S215 ; wait for extruder temp
G28 W ; home all without mesh bed level
G80 X68.9237 Y56.1382 W109.147 H101.659 ; mesh bed levelling

G1 Z0.2 F720
G1 Y-3 F1000 ; go outside print area
G92 E0
G1 X60 E9 F1000 ; intro line
G1 X100 E12.5 F1000 ; intro line

G92 E0
M221 S95

; Don't change E values below. Excessive value can damage the printer.
M907 E430 ; set extruder motor current
G21 ; set units to millimeters
G90 ; use absolute coordinates
M83 ; use relative distances for extrusion

M900 K0.05 ; Filament gcode LA 1.5
M900 K30 ; Filament gcode LA 1.0




M107
;LAYER_CHANGE
;Z:0.2
;HEIGHT:0.2
G1 E-.8 F2100
G1 Z.6 F720
G1 X72.331 Y85.819 F10800
G1 Z.2 F720
G1 E.8 F2100
M204 S800
;TYPE:Skirt/Brim
;WIDTH:0.42
G1 F1200
G1 X106.711 Y56.842 E1.40978
G1 X108.122 Y56.327 E.0471
G1 X140.51 Y56.327 E1.0155
G1 X141.758 Y56.718 E.04101
G1 X142.308 Y57.267 E.02437
G1 X177.492 Y107.965 E1.93489
G1 X177.883 Y109.213 E.04101
G1 X177.883 Y139.897 E.96208
G1 X177.492 Y141.145 E.04101
G1 X176.719 Y141.831 E.0324
G1 X147.425 Y157.354 E1.03948
G1 X146.4 Y157.609 E.03312
G1 X71.301 Y157.609 E2.35468
G1 X70.053 Y157.218 E.04101
G1 X69.25 Y156.185 E.04102
G1 X69.112 Y155.42 E.02437
G1 X69.112 Y89.549 E2.06534
G1 X69.89 Y87.876 E.05785
G1 X72.285 Y85.857 E.09822
M204 S1000
;WIPE_START
G1 F8640
M73 Q0 S93
G1 X72.331 Y85.819 E-.01378
G1 X74.935 Y83.625 E-.78622
;WIPE_END
G1 Z.6 F720
; printing object baseBoard-9kg motor v3 v7.stl_1 id:0 copy 0
G1 X157.935 Y98.778 F10800
G1 Z.2 F720
G1 E.8 F2100
M204 S800
;TYPE:Support material
G1 F1200
G1 X164.857 Y98.778 E.21703
G1 X164.857 Y108.733 E.31213
G1 X141.075 Y108.733 E.74567
G1 X140.794 Y109.014 E.01246
G1 X140.794 Y140.096 E.97455
G1 X141.075 Y140.377 E.01246
G1 X146.4 Y140.377 E.16696
G1 X146.4 Y155.42 E.47166
G1 X71.301 Y155.42 E2.35468
G1 X71.301 Y89.549 E2.06534
G1 X157.935 Y89.549 E2.71635
G1 X157.935 Y98.721 E.28758
M73 P0 R92
M204 S1000
G1 X157.935 Y98.721 F10800
G1 X88.723 Y104.665
M204 S800
G1 F1200
G1 X126.671 Y104.665 E1.18983
G1 X126.671 Y140.305 E1.11747
G1 X88.723 Y140.305 E1.18983
G1 X88.723 Y104.721 E1.11571
M204 S1000
;WIPE_START
G1 F8640
G1 X88.723 Y108.186 E-.8
;WIPE_END
G1 Z.6 F720
G1 X164.384 Y108.563 F10800
G1 Z.2 F720
G1 E.8 F2100
M204 S800
G1 F1200
G1 X164.384 Y99.117 E.29617
G1 X163.965 Y99.117 E.01314
G1 X163.965 Y108.393 E.29084
G1 X163.546 Y108.393 E.01314
G1 X163.546 Y99.117 E.29084
G1 X163.127 Y99.117 E.01314
G1 X163.127 Y108.393 E.29084
G1 X162.708 Y108.393 E.01314
G1 X162.708 Y99.117 E.29084
G1 X162.289 Y99.117 E.01314
G1 X162.289 Y108.393 E.29084
G1 X161.87 Y108.393 E.01314
G1 X161.87 Y99.117 E.29084
G1 X161.451 Y99.117 E.01314
G1 X161.451 Y108.393 E.29084
G1 X161.032 Y108.393 E.01314
G1 X161.032 Y99.117 E.29084
G1 X160.613 Y99.117 E.01314
M73 Q1 S93
G1 X160.613 Y108.393 E.29084
G1 X160.194 Y108.393 E.01314
M73 P1 R92
G1 X160.194 Y99.117 E.29084
G1 X159.775 Y99.117 E.01314
G1 X159.775 Y108.393 E.29084
G1 X159.356 Y108.393 E.01314
G1 X159.356 Y99.117 E.29084
G1 X158.937 Y99.117 E.01314
G1 X158.937 Y108.393 E.29084
G1 X158.518 Y108.393 E.01314
G1 X158.518 Y99.117 E.29084
G1 X158.099 Y99.117 E.01314
G1 X158.099 Y108.393 E.29084
G1 X157.68 Y108.393 E.01314
G1 X157.596 Y89.889 E.58019
G1 X157.261 Y89.889 E.0105
G1 X157.261 Y108.393 E.58018
G1 X156.842 Y108.393 E.01314
G1 X156.842 Y89.889 E.58018
G1 X156.423 Y89.889 E.01314
G1 X156.423 Y108.393 E.58018
G1 X156.004 Y108.393 E.01314
G1 X156.004 Y89.889 E.58018
G1 X155.585 Y89.889 E.01314
G1 X155.585 Y108.393 E.58018
G1 X155.166 Y108.393 E.01314
G1 X155.166 Y89.889 E.58018
G1 X154.747 Y89.889 E.01314
G1 X154.747 Y108.393 E.58018
G1 X154.328 Y108.393 E.01314
G1 X154.328 Y89.889 E.58018
G1 X153.909 Y89.889 E.01314
G1 X153.909 Y108.393 E.58018
G1 X153.49 Y108.393 E.01314
G1 X153.49 Y89.889 E.58018
G1 X153.071 Y89.889 E.01314
G1 X153.071 Y108.393 E.58018
G1 X152.652 Y108.393 E.01314
G1 X152.652 Y89.889 E.58018
G1 X152.234 Y89.889 E.01311
G1 X152.233 Y108.393 E.58018
G1 X151.815 Y108.393 E.01311
G1 X151.815 Y89.889 E.58018
G1 X151.396 Y89.889 E.01314
G1 X151.396 Y108.393 E.58018
G1 X150.977 Y108.393 E.01314
G1 X150.977 Y89.889 E.58018
G1 X150.558 Y89.889 E.01314
G1 X150.558 Y108.393 E.58018
G1 X150.139 Y108.393 E.01314
G1 X150.139 Y89.889 E.58018
G1 X149.72 Y89.889 E.01314
G1 X149.72 Y108.393 E.58018
G1 X149.301 Y108.393 E.01314
G1 X149.301 Y89.889 E.58018
G1 X148.882 Y89.889 E.01314
G1 X148.882 Y108.393 E.58018
G1 X148.463 Y108.393 E.01314
G1 X148.463 Y89.889 E.58018
G1 X148.044 Y89.889 E.01314
G1 X148.044 Y108.393 E.58018
G1 X147.625 Y108.393 E.01314
G1 X147.625 Y89.889 E.58018
G1 X147.206 Y89.889 E.01314
G1 X147.206 Y108.393 E.58018
G1 X146.787 Y108.393 E.01314
M73 Q1 S92
G1 X146.787 Y89.889 E.58018
G1 X146.368 Y89.889 E.01314
G1 X146.368 Y108.393 E.58018
G1 X145.949 Y108.393 E.01314
G1 X145.949 Y89.889 E.58018
G1 X145.53 Y89.889 E.01314
G1 X145.53 Y108.393 E.58018
G1 X145.111 Y108.393 E.01314
G1 X145.111 Y89.889 E.58018
G1 X144.692 Y89.889 E.01314
G1 X144.692 Y108.393 E.58018
G1 X144.273 Y108.393 E.01314
G1 X144.273 Y89.889 E.58018
G1 X143.854 Y89.889 E.01314
G1 X143.854 Y108.393 E.58018
G1 X143.435 Y108.393 E.01314
G1 X143.435 Y89.889 E.58018
G1 X143.016 Y89.889 E.01314
G1 X143.016 Y108.393 E.58018
G1 X142.597 Y108.393 E.01314
G1 X142.597 Y89.889 E.58018
G1 X142.178 Y89.889 E.01314
G1 X142.178 Y108.393 E.58018
G1 X141.759 Y108.393 E.01314
G1 X141.759 Y89.889 E.58018
G1 X141.34 Y89.889 E.01314
G1 X141.34 Y108.393 E.58018
G1 X140.921 Y108.407 E.01314
G1 X140.921 Y89.889 E.58062
G1 X140.502 Y89.889 E.01314
G1 X140.502 Y155.081 E2.04405
G1 X140.083 Y155.081 E.01314
M73 P1 R91
G1 X140.083 Y89.889 E2.04405
G1 X139.664 Y89.889 E.01314
G1 X139.664 Y155.081 E2.04405
G1 X139.245 Y155.081 E.01314
G1 X139.245 Y89.889 E2.04405
G1 X138.826 Y89.889 E.01314
M73 Q2 S92
G1 X138.826 Y155.081 E2.04405
G1 X138.407 Y155.081 E.01314
M73 P2 R91
G1 X138.407 Y89.889 E2.04405
G1 X137.988 Y89.889 E.01314
G1 X137.988 Y155.081 E2.04405
G1 X137.569 Y155.081 E.01314
G1 X137.569 Y89.889 E2.04405
G1 X137.15 Y89.889 E.01314
G1 X137.15 Y155.081 E2.04405
G1 X136.731 Y155.081 E.01314
G1 X136.731 Y89.889 E2.04405
G1 X136.312 Y89.889 E.01314
G1 X136.312 Y155.081 E2.04405
G1 X135.893 Y155.081 E.01314
G1 X135.893 Y89.889 E2.04405
G1 X135.474 Y89.889 E.01314
G1 X135.474 Y155.081 E2.04405
G1 X135.055 Y155.081 E.01314
G1 X135.055 Y89.889 E2.04405
G1 X134.636 Y89.889 E.01314
M73 Q2 S91
G1 X134.636 Y155.081 E2.04405
G1 X134.217 Y155.081 E.01314
G1 X134.217 Y89.889 E2.04405
G1 X133.799 Y89.889 E.01311
G1 X133.799 Y155.081 E2.04405
G1 X133.38 Y155.081 E.01314
G1 X133.38 Y89.889 E2.04405
G1 X132.961 Y89.889 E.01314
G1 X132.961 Y155.081 E2.04405
G1 X132.542 Y155.081 E.01314
M73 P2 R90
G1 X132.542 Y89.889 E2.04405
G1 X132.123 Y89.889 E.01314
G1 X132.123 Y155.081 E2.04405
G1 X131.704 Y155.081 E.01314
G1 X131.704 Y89.889 E2.04405
G1 X131.285 Y89.889 E.01314
M73 P3 R90
M73 Q3 S91
G1 X131.285 Y155.081 E2.04405
G1 X130.866 Y155.081 E.01314
G1 X130.866 Y89.889 E2.04405
G1 X130.447 Y89.889 E.01314
G1 X130.447 Y155.081 E2.04405
G1 X130.028 Y155.081 E.01314
G1 X130.028 Y89.889 E2.04405
G1 X129.609 Y89.889 E.01314
G1 X129.609 Y155.081 E2.04405
G1 X129.19 Y155.081 E.01314
G1 X129.19 Y89.889 E2.04405
G1 X128.771 Y89.889 E.01314
G1 X128.771 Y155.081 E2.04405
G1 X128.352 Y155.081 E.01314
G1 X128.352 Y89.889 E2.04405
G1 X127.933 Y89.889 E.01314
G1 X127.933 Y155.081 E2.04405
G1 X127.514 Y155.081 E.01314
G1 X127.514 Y89.889 E2.04405
G1 X127.095 Y89.889 E.01314
M73 Q3 S90
G1 X127.095 Y155.081 E2.04405
G1 X126.676 Y155.081 E.01314
G1 X126.676 Y140.644 E.45266
G1 X126.257 Y140.644 E.01314
G1 X126.257 Y155.081 E.45266
G1 X125.838 Y155.081 E.01314
G1 X125.838 Y140.644 E.45266
G1 X125.419 Y140.644 E.01314
G1 X125.419 Y155.081 E.45266
G1 X125 Y155.081 E.01314
G1 X125 Y140.644 E.45266
G1 X124.581 Y140.644 E.01314
G1 X124.581 Y155.081 E.45266
G1 X124.162 Y155.081 E.01314
G1 X124.162 Y140.644 E.45266
G1 X123.743 Y140.644 E.01314
G1 X123.743 Y155.081 E.45266
G1 X123.324 Y155.081 E.01314
G1 X123.324 Y140.644 E.45266
G1 X122.905 Y140.644 E.01314
G1 X122.905 Y155.081 E.45266
G1 X122.486 Y155.081 E.01314
G1 X122.486 Y140.644 E.45266
G1 X122.067 Y140.644 E.01314
G1 X122.067 Y155.081 E.45266
G1 X121.648 Y155.081 E.01314
G1 X121.648 Y140.644 E.45266
G1 X121.229 Y140.644 E.01314
G1 X121.229 Y155.081 E.45266
G1 X120.81 Y155.081 E.01314
G1 X120.81 Y140.644 E.45266
G1 X120.391 Y140.644 E.01314
G1 X120.391 Y155.081 E.45266
G1 X119.972 Y155.081 E.01314
G1 X119.972 Y140.644 E.45266
G1 X119.553 Y140.644 E.01314
G1 X119.553 Y155.081 E.45266
M73 P3 R89
G1 X119.134 Y155.081 E.01314
G1 X119.134 Y140.644 E.45266
G1 X118.715 Y140.644 E.01314
G1 X118.715 Y155.081 E.45266
G1 X118.296 Y155.081 E.01314
G1 X118.296 Y140.644 E.45266
G1 X117.877 Y140.644 E.01314
G1 X117.877 Y155.081 E.45266
G1 X117.458 Y155.081 E.01314
G1 X117.458 Y140.644 E.45266
G1 X117.039 Y140.644 E.01314
M73 P4 R89
G1 X117.039 Y155.081 E.45266
G1 X116.62 Y155.081 E.01314
M73 Q4 S90
G1 X116.62 Y140.644 E.45266
G1 X116.201 Y140.644 E.01314
G1 X116.201 Y155.081 E.45266
G1 X115.782 Y155.081 E.01314
G1 X115.782 Y140.644 E.45266
G1 X115.364 Y140.644 E.01311
G1 X115.364 Y155.081 E.45266
G1 X114.945 Y155.081 E.01314
G1 X114.945 Y140.644 E.45266
G1 X114.526 Y140.644 E.01314
G1 X114.526 Y155.081 E.45266
G1 X114.107 Y155.081 E.01314
G1 X114.107 Y140.644 E.45266
G1 X113.688 Y140.644 E.01314
G1 X113.688 Y155.081 E.45266
G1 X113.269 Y155.081 E.01314
G1 X113.269 Y140.644 E.45266
G1 X112.85 Y140.644 E.01314
G1 X112.85 Y155.081 E.45266
G1 X112.431 Y155.081 E.01314
G1 X112.431 Y140.644 E.45266
G1 X112.012 Y140.644 E.01314
G1 X112.012 Y155.081 E.45266
G1 X111.593 Y155.081 E.01314
G1 X111.593 Y140.644 E.45266
G1 X111.174 Y140.644 E.01314
G1 X111.174 Y155.081 E.45266
G1 X110.755 Y155.081 E.01314
G1 X110.755 Y140.644 E.45266
G1 X110.336 Y140.644 E.01314
G1 X110.336 Y155.081 E.45266
G1 X109.917 Y155.081 E.01314
G1 X109.917 Y140.644 E.45266
G1 X109.498 Y140.644 E.01314
G1 X109.498 Y155.081 E.45266
G1 X109.079 Y155.081 E.01314
G1 X109.079 Y140.644 E.45266
G1 X108.66 Y140.644 E.01314
G1 X108.66 Y155.081 E.45266
G1 X108.241 Y155.081 E.01314
G1 X108.241 Y140.644 E.45266
G1 X107.822 Y140.644 E.01314
G1 X107.822 Y155.081 E.45266
G1 X107.403 Y155.081 E.01314
G1 X107.403 Y140.644 E.45266
G1 X106.984 Y140.644 E.01314
G1 X106.984 Y155.081 E.45266
G1 X106.565 Y155.081 E.01314
G1 X106.565 Y140.644 E.45266
G1 X106.146 Y140.644 E.01314
G1 X106.146 Y155.081 E.45266
G1 X105.727 Y155.081 E.01314
G1 X105.727 Y140.644 E.45266
G1 X105.308 Y140.644 E.01314
G1 X105.308 Y155.081 E.45266
G1 X104.889 Y155.081 E.01314
G1 X104.889 Y140.644 E.45266
G1 X104.47 Y140.644 E.01314
G1 X104.47 Y155.081 E.45266
G1 X104.051 Y155.081 E.01314
G1 X104.051 Y140.644 E.45266
G1 X103.632 Y140.644 E.01314
G1 X103.632 Y155.081 E.45266
G1 X103.213 Y155.081 E.01314
G1 X103.213 Y140.644 E.45266
G1 X102.794 Y140.644 E.01314
G1 X102.794 Y155.081 E.45266
G1 X102.375 Y155.081 E.01314
G1 X102.375 Y140.644 E.45266
G1 X101.956 Y140.644 E.01314
G1 X101.956 Y155.081 E.45266
G1 X101.537 Y155.081 E.01314
G1 X101.537 Y140.644 E.45266
G1 X101.118 Y140.644 E.01314
G1 X101.118 Y155.081 E.45266
G1 X100.699 Y155.081 E.01314
G1 X100.699 Y140.644 E.45266
G1 X100.28 Y140.644 E.01314
G1 X100.28 Y155.081 E.45266
G1 X99.861 Y155.081 E.01314
G1 X99.861 Y140.644 E.45266
G1 X99.442 Y140.644 E.01314
G1 X99.442 Y155.081 E.45266
G1 X99.023 Y155.081 E.01314
G1 X99.023 Y140.644 E.45266
G1 X98.604 Y140.644 E.01314
G1 X98.604 Y155.081 E.45266
G1 X98.185 Y155.081 E.01314
G1 X98.185 Y140.644 E.45266
G1 X97.766 Y140.644 E.01314
G1 X97.766 Y155.081 E.45266
G1 X97.348 Y155.081 E.01311
G1 X97.348 Y140.644 E.45266
G1 X96.929 Y140.644 E.01314
G1 X96.929 Y155.081 E.45266
G1 X96.51 Y155.081 E.01314
G1 X96.51 Y140.644 E.45266
G1 X96.091 Y140.644 E.01314
G1 X96.091 Y155.081 E.45266
G1 X95.672 Y155.081 E.01314
G1 X95.672 Y140.644 E.45266
G1 X95.253 Y140.644 E.01314
M73 Q4 S89
G1 X95.253 Y155.081 E.45266
G1 X94.834 Y155.081 E.01314
G1 X94.834 Y140.644 E.45266
G1 X94.415 Y140.644 E.01314
G1 X94.415 Y155.081 E.45266
G1 X93.996 Y155.081 E.01314
G1 X93.996 Y140.644 E.45266
G1 X93.577 Y140.644 E.01314
G1 X93.577 Y155.081 E.45266
G1 X93.158 Y155.081 E.01314
G1 X93.158 Y140.644 E.45266
G1 X92.739 Y140.644 E.01314
G1 X92.739 Y155.081 E.45266
G1 X92.32 Y155.081 E.01314
G1 X92.32 Y140.644 E.45266
G1 X91.901 Y140.644 E.01314
G1 X91.901 Y155.081 E.45266
G1 X91.482 Y155.081 E.01314
G1 X91.482 Y140.644 E.45266
G1 X91.063 Y140.644 E.01314
G1 X91.063 Y155.081 E.45266
G1 X90.644 Y155.081 E.01314
G1 X90.644 Y140.644 E.45266
G1 X90.225 Y140.644 E.01314
G1 X90.225 Y155.081 E.45266
G1 X89.806 Y155.081 E.01314
G1 X89.806 Y140.644 E.45266
G1 X89.387 Y140.644 E.01314
G1 X89.387 Y155.081 E.45266
G1 X88.968 Y155.081 E.01314
G1 X88.968 Y140.475 E.45796
M204 S1000
G1 X88.968 Y140.475 F10800
G1 X145.949 Y155.251
M204 S800
G1 F1200
G1 X145.949 Y140.716 E.45573
G1 X145.53 Y140.716 E.01314
G1 X145.53 Y155.081 E.4504
G1 X145.111 Y155.081 E.01314
G1 X145.111 Y140.716 E.4504
G1 X144.692 Y140.716 E.01314
G1 X144.692 Y155.081 E.4504
G1 X144.273 Y155.081 E.01314
G1 X144.273 Y140.716 E.4504
G1 X143.854 Y140.716 E.01314
M73 P5 R88
G1 X143.854 Y155.081 E.4504
G1 X143.435 Y155.081 E.01314
M73 Q5 S89
G1 X143.435 Y140.716 E.4504
G1 X143.016 Y140.716 E.01314
G1 X143.016 Y155.081 E.4504
G1 X142.597 Y155.081 E.01314
G1 X142.597 Y140.716 E.4504
G1 X142.178 Y140.716 E.01314
G1 X142.178 Y155.081 E.4504
G1 X141.759 Y155.081 E.01314
G1 X141.759 Y140.716 E.4504
G1 X141.34 Y140.716 E.01314
G1 X141.34 Y155.081 E.4504
G1 X140.921 Y155.081 E.01314
G1 X140.921 Y140.463 E.45834
M204 S1000
G1 X140.921 Y140.463 F10800
G1 X126.676 Y104.495
M204 S800
G1 F1200
G1 X126.676 Y89.889 E.45796
G1 X126.257 Y89.889 E.01314
G1 X126.257 Y104.325 E.45263
G1 X125.838 Y104.325 E.01314
G1 X125.838 Y89.889 E.45263
G1 X125.419 Y89.889 E.01314
G1 X125.419 Y104.325 E.45263
G1 X125 Y104.325 E.01314
G1 X125 Y89.889 E.45263
G1 X124.581 Y89.889 E.01314
G1 X124.581 Y104.325 E.45263
G1 X124.162 Y104.325 E.01314
G1 X124.162 Y89.889 E.45263
G1 X123.743 Y89.889 E.01314
G1 X123.743 Y104.325 E.45263
G1 X123.324 Y104.325 E.01314
G1 X123.324 Y89.889 E.45263
G1 X122.905 Y89.889 E.01314
G1 X122.905 Y104.325 E.45263
G1 X122.486 Y104.325 E.01314
G1 X122.486 Y89.889 E.45263
G1 X122.067 Y89.889 E.01314
G1 X122.067 Y104.325 E.45263
G1 X121.648 Y104.325 E.01314
G1 X121.648 Y89.889 E.45263
G1 X121.229 Y89.889 E.01314
G1 X121.229 Y104.325 E.45263
G1 X120.81 Y104.325 E.01314
G1 X120.81 Y89.889 E.45263
G1 X120.391 Y89.889 E.01314
