; generated by PrusaSlicer 2.7.4+win64 on 2024-07-31 at 20:14:55 UTC


;
;
; 

; external perimeters extrusion width = 0.45mm
; perimeters extrusion width = 0.45mm
; infill extrusion width = 0.45mm
; solid infill extrusion width = 0.45mm
; top infill extrusion width = 0.40mm
; first layer extrusion width = 0.42mm

M73 P0 R25
M73 Q0 S25
M201 X1000 Y1000 Z200 E5000 ; sets maximum accelerations, mm/sec^2
M203 X200 Y200 Z12 E120 ; sets maximum feedrates, mm / sec
M204 S1250 T1250 ; sets acceleration (S) and retract acceleration (R), mm/sec^2
M205 X8.00 Y8.00 Z0.40 E4.50 ; sets the jerk limits, mm/sec
M205 S0 T0 ; sets the minimum extruding and travel feed rate, mm/sec

; printing object Arducam OV9281 Holder.stl id:0 copy 0
; stop printing object Arducam OV9281 Holder.stl id:0 copy 0

;TYPE:Custom
M862.3 P "MK3S" ; printer model check
M862.1 P0.4 ; nozzle diameter check
M115 U3.13.3 ; tell printer latest fw version
G90 ; use absolute coordinates
M83 ; extruder relative mode
M104 S215 ; set extruder temp
M140 S60 ; set bed temp
M190 S60 ; wait for bed temp
M109 S215 ; wait for extruder temp
G28 W ; home all without mesh bed level
G80 X102.434 Y82.4344 W45.1312 H45.1312 ; mesh bed levelling

G1 Z0.2 F720
G1 Y-3 F1000 ; go outside print area
G92 E0
G1 X60 E9 F1000 ; intro line
G1 X100 E12.5 F1000 ; intro line

G92 E0
M221 S95

; Don't change E values below. Excessive value can damage the printer.
M907 E430 ; set extruder motor current
G21 ; set units to millimeters
G90 ; use absolute coordinates
M83 ; use relative distances for extrusion

M900 K0.05 ; Filament gcode LA 1.5
M900 K30 ; Filament gcode LA 1.0




M107
;LAYER_CHANGE
;Z:0.2
;HEIGHT:0.2
G1 E-.8 F2100
G1 Z.6 F720
G1 X104.451 Y85.778 F10800
G1 Z.2 F720
G1 E.8 F2100
M204 S800
;TYPE:Skirt/Brim
;WIDTH:0.42
G1 F1200
G1 X105.128 Y85.027 E.0317
G1 X105.778 Y84.451 E.02723
G1 X107.171 Y83.55 E.05202
G1 X107.963 Y83.194 E.02723
G1 X108.926 Y82.885 E.03171
G1 X110.423 Y82.644 E.04754
G1 X140.078 Y82.624 E.92981
G1 X141.515 Y82.781 E.04532
G1 X142.751 Y83.156 E.0405
G1 X143.755 Y83.651 E.0351
G1 X144.922 Y84.506 E.04536
G1 X145.804 Y85.448 E.04046
G1 X146.581 Y86.668 E.04535
G1 X147.104 Y88.016 E.04534
G1 X147.323 Y89.114 E.03511
G1 X147.377 Y90 E.02783
G1 X147.365 Y119.434 E.92288
G1 X147.226 Y120.58 E.0362
G1 X146.857 Y121.903 E.04306
G1 X146.383 Y122.956 E.03621
G1 X145.549 Y124.222 E.04753
G1 X144.974 Y124.872 E.02721
G1 X144.222 Y125.549 E.03173
G1 X142.829 Y126.45 E.05202
G1 X142.037 Y126.806 E.02723
G1 X141.074 Y127.115 E.03171
G1 X139.434 Y127.365 E.05202
G1 X110.566 Y127.365 E.90514
G1 X109.42 Y127.226 E.0362
G1 X108.097 Y126.857 E.04306
G1 X107.044 Y126.383 E.03621
G1 X105.778 Y125.549 E.04753
G1 X105.027 Y124.872 E.0317
G1 X104.451 Y124.222 E.02723
G1 X103.55 Y122.829 E.05202
G1 X103.194 Y122.037 E.02723
G1 X102.885 Y121.074 E.03171
G1 X102.635 Y119.434 E.05202
G1 X102.635 Y90.566 E.90514
G1 X102.774 Y89.42 E.0362
M73 Q1 S25
G1 X103.143 Y88.097 E.04306
G1 X103.623 Y87.034 E.03657
M73 P1 R25
G1 X104.418 Y85.828 E.04529
M204 S1000
;WIPE_START
G1 F8640
G1 X104.451 Y85.778 E-.01383
G1 X105.128 Y85.027 E-.23347
G1 X105.778 Y84.451 E-.20054
G1 X107.059 Y83.623 E-.35216
;WIPE_END
G1 Z.6 F720
; printing object Arducam OV9281 Holder.stl id:0 copy 0
G1 X113.03 Y93.755 F10800
G1 Z.2 F720
G1 E.8 F2100
M204 S800
;TYPE:Perimeter
;WIDTH:0.419999
G1 F1200
G1 X113.051 Y93.898 E.00453
G1 X113.165 Y94.092 E.00706
G1 X113.382 Y94.242 E.00827
G1 X113.579 Y94.279 E.00628
G1 X122.267 Y94.285 E.27241
G1 X122.524 Y94.199 E.0085
G1 X122.713 Y94.002 E.00856
G1 X122.787 Y93.721 E.00911
G1 X122.787 Y85.787 E.24876
G1 X140.275 Y85.797 E.54832
G1 X140.822 Y85.869 E.0173
G1 X141.345 Y86.01 E.01698
G1 X142.105 Y86.354 E.02616
G1 X142.776 Y86.835 E.02589
G1 X143.346 Y87.444 E.02615
G1 X143.642 Y87.887 E.01671
G1 X143.936 Y88.536 E.02234
G1 X144.079 Y89.044 E.01655
G1 X144.183 Y89.557 E.01641
G1 X144.213 Y90.06 E.0158
G1 X144.202 Y119.306 E.91699
G1 X144.058 Y120.255 E.0301
G1 X143.873 Y120.848 E.01948
G1 X143.618 Y121.414 E.01946
G1 X143.097 Y122.221 E.03012
G1 X142.685 Y122.685 E.01946
G1 X142.214 Y123.103 E.01974
G1 X141.703 Y123.455 E.01946
G1 X140.84 Y123.876 E.03011
G1 X140.255 Y124.058 E.01921
G1 X139.306 Y124.202 E.0301
G1 X111.029 Y124.213 E.8866
G1 X110.052 Y124.124 E.03076
M73 P1 R24
G1 X109.449 Y123.976 E.01947
G1 X108.861 Y123.753 E.01972
G1 X108.304 Y123.46 E.01973
G1 X107.786 Y123.103 E.01973
G1 X107.315 Y122.685 E.01974
G1 X106.903 Y122.22 E.01948
G1 X106.382 Y121.414 E.03009
G1 X106.127 Y120.848 E.01946
G1 X105.959 Y120.31 E.01767
G1 X105.867 Y119.85 E.01471
G1 X105.798 Y119.323 E.01666
G1 X105.787 Y91.029 E.88714
G1 X105.876 Y90.052 E.03076
G1 X106.024 Y89.45 E.01944
G1 X106.25 Y88.856 E.01993
G1 X106.536 Y88.311 E.0193
G1 X107.105 Y87.538 E.0301
G1 X107.544 Y87.099 E.01947
G1 X108.039 Y86.711 E.01972
G1 X108.578 Y86.385 E.01975
G1 X109.152 Y86.127 E.01973
G1 X109.745 Y85.942 E.01948
G1 X110.695 Y85.798 E.03013
G1 X113.014 Y85.789 E.07271
G1 X113.02 Y88.212 E.07597
G1 X113.042 Y88.804 E.01857
G1 X112.971 Y88.727 E.00328
G1 X112.471 Y88.349 E.01965
G1 X111.913 Y88.106 E.01908
G1 X111.293 Y87.982 E.01982
G1 X110.418 Y88.021 E.02746
G1 X109.839 Y88.196 E.01897
G1 X109.366 Y88.44 E.01669
G1 X108.947 Y88.768 E.01668
G1 X108.77 Y88.952 E.00801
G1 X108.42 Y89.412 E.01812
G1 X108.182 Y89.873 E.01627
G1 X108.014 Y90.454 E.01896
G1 X107.965 Y91.056 E.01894
G1 X108.037 Y91.657 E.01898
G1 X108.226 Y92.231 E.01895
G1 X108.524 Y92.756 E.01893
G1 X108.921 Y93.212 E.01896
G1 X109.401 Y93.58 E.01896
G1 X109.944 Y93.845 E.01894
G1 X110.529 Y93.998 E.01896
G1 X111.16 Y94.028 E.01981
G1 X112.024 Y93.857 E.02762
G1 X112.587 Y93.579 E.01969
G1 X113.047 Y93.191 E.01887
G1 X113.02 Y93.683 E.01545
G1 X113.022 Y93.696 E.00041
M204 S1000
G1 X113.022 Y93.696 F10800
G1 X113.397 Y93.703
M204 S800
;TYPE:External perimeter
G1 F1200
G1 X113.445 Y93.84 E.00455
G1 X113.583 Y93.902 E.00474
G1 X122.221 Y93.91 E.27084
G1 X122.341 Y93.867 E.004
G1 X122.41 Y93.721 E.00506
G1 X122.41 Y85.41 E.26059
G1 X140.3 Y85.42 E.56093
G1 X140.895 Y85.499 E.01882
G1 X141.473 Y85.653 E.01875
G1 X142.295 Y86.026 E.0283
G1 X143.026 Y86.55 E.0282
G1 X143.643 Y87.209 E.02831
G1 X143.973 Y87.703 E.01863
G1 X144.28 Y88.38 E.02331
G1 X144.446 Y88.958 E.01886
G1 X144.559 Y89.533 E.01837
G1 X144.59 Y90.06 E.01655
G1 X144.579 Y119.335 E.9179
G1 X144.426 Y120.34 E.03187
G1 X144.226 Y120.982 E.02108
G1 X143.95 Y121.595 E.02108
G1 X143.398 Y122.449 E.03188
G1 X142.952 Y122.952 E.02108
G1 X142.447 Y123.4 E.02117
G1 X141.894 Y123.782 E.02107
G1 X140.979 Y124.227 E.0319
G1 X140.34 Y124.426 E.02098
G1 X139.335 Y124.579 E.03187
G1 X111.012 Y124.59 E.88805
G1 X109.99 Y124.497 E.03218
G1 X109.337 Y124.336 E.02109
G1 X108.706 Y124.097 E.02116
G1 X108.108 Y123.783 E.02118
G1 X107.553 Y123.4 E.02114
G1 X107.048 Y122.952 E.02117
G1 X106.602 Y122.449 E.02108
G1 X106.05 Y121.595 E.03188
G1 X105.774 Y120.982 E.02108
G1 X105.599 Y120.422 E.0184
G1 X105.496 Y119.918 E.01613
G1 X105.421 Y119.341 E.01824
G1 X105.41 Y91.012 E.88823
G1 X105.503 Y89.99 E.03218
M73 P2 R24
M73 Q2 S25
G1 X105.664 Y89.337 E.02109
G1 X105.906 Y88.701 E.02134
G1 X106.215 Y88.111 E.02088
G1 X106.818 Y87.291 E.03191
G1 X107.293 Y86.816 E.02106
G1 X107.825 Y86.4 E.02117
G1 X108.402 Y86.051 E.02114
G1 X109.018 Y85.774 E.02118
G1 X109.66 Y85.574 E.02108
G1 X110.666 Y85.421 E.03191
G1 X113.39 Y85.411 E.08541
G1 X113.397 Y88.211 E.08779
G1 X113.423 Y88.838 E.01968
G1 X113.495 Y89.402 E.01783
;WIDTH:0.433884
G1 X113.581 Y90.005 E.0198
;WIDTH:0.481255
G1 X113.558 Y90.103 E.00367
;WIDTH:0.528626
G1 X113.535 Y90.201 E.00407
;WIDTH:0.575997
G1 X113.512 Y90.298 E.00442
;WIDTH:0.623368
G1 X113.488 Y90.396 E.00487
G1 X113.436 Y90.317 E.00456
;WIDTH:0.575997
G1 X113.385 Y90.239 E.00413
;WIDTH:0.528626
G1 X113.333 Y90.16 E.00382
;WIDTH:0.481255
G1 X113.281 Y90.081 E.00345
;WIDTH:0.433884
G1 X113.048 Y89.467 E.02135
;WIDTH:0.419999
G1 X112.736 Y89.022 E.01704
G1 X112.313 Y88.692 E.01682
G1 X111.829 Y88.473 E.01666
G1 X111.303 Y88.359 E.01688
G1 X110.52 Y88.384 E.02456
G1 X110.011 Y88.531 E.01661
G1 X109.541 Y88.776 E.01662
G1 X109.13 Y89.109 E.01659
G1 X108.792 Y89.517 E.01661
G1 X108.542 Y89.984 E.01661
G1 X108.39 Y90.491 E.0166
G1 X108.341 Y91.019 E.01663
G1 X108.397 Y91.545 E.01659
G1 X108.557 Y92.05 E.01661
G1 X108.813 Y92.514 E.01662
G1 X109.157 Y92.917 E.01661
G1 X109.573 Y93.244 E.01659
G1 X110.046 Y93.482 E.0166
G1 X110.557 Y93.622 E.01661
G1 X111.094 Y93.657 E.01687
G1 X111.866 Y93.514 E.02462
G1 X112.352 Y93.284 E.01686
G1 X112.774 Y92.936 E.01715
G1 X113.068 Y92.493 E.01667
G1 X113.284 Y91.916 E.01932
;WIDTH:0.457784
G1 X113.341 Y91.789 E.0048
;WIDTH:0.495568
G1 X113.399 Y91.661 E.00529
;WIDTH:0.533352
G1 X113.457 Y91.533 E.00573
;WIDTH:0.571136
G1 X113.514 Y91.405 E.00615
G1 X113.533 Y91.553 E.00655
;WIDTH:0.533352
G1 X113.551 Y91.701 E.00608
;WIDTH:0.495568
G1 X113.57 Y91.848 E.00558
;WIDTH:0.457784
G1 X113.588 Y91.996 E.00514
;WIDTH:0.419999
G1 X113.436 Y92.988 E.03147
G1 X113.4 Y93.643 E.02057
M204 S1000
;WIPE_START
G1 F8640
G1 X113.397 Y93.703 E-.01387
G1 X113.445 Y93.84 E-.03352
G1 X113.583 Y93.902 E-.03493
G1 X116.691 Y93.905 E-.71768
;WIPE_END
G1 Z.6 F720
G1 X136.211 Y89.817 F10800
G1 Z.2 F720
M73 Q2 S24
G1 E.8 F2100
M204 S800
;TYPE:Perimeter
G1 F1200
G1 X136.461 Y89.337 E.01697
G1 X136.841 Y88.867 E.01895
G1 X137.306 Y88.481 E.01895
G1 X137.839 Y88.196 E.01895
G1 X138.418 Y88.021 E.01897
G1 X139.294 Y87.982 E.02749
G1 X139.913 Y88.105 E.01979
G1 X140.413 Y88.319 E.01705
G1 X140.966 Y88.687 E.02083
G1 X141.385 Y89.123 E.01896
G1 X141.71 Y89.633 E.01896
G1 X141.927 Y90.197 E.01895
G1 X142.028 Y90.792 E.01892
G1 X142.009 Y91.397 E.01898
G1 X141.871 Y91.985 E.01894
G1 X141.619 Y92.534 E.01894
G1 X141.263 Y93.023 E.01896
G1 X140.817 Y93.431 E.01895
G1 X140.299 Y93.743 E.01896
G1 X139.73 Y93.946 E.01894
G1 X139.132 Y94.032 E.01894
G1 X138.529 Y93.998 E.01894
G1 X137.944 Y93.845 E.01896
G1 X137.306 Y93.519 E.02246
G1 X136.903 Y93.196 E.01619
G1 X136.524 Y92.756 E.01821
G1 X136.226 Y92.231 E.01893
G1 X136.057 Y91.721 E.01685
G1 X135.965 Y91.056 E.02105
G1 X136.014 Y90.454 E.01894
G1 X136.182 Y89.873 E.01896
G1 X136.183 Y89.87 E.0001
M204 S1000
G1 X136.183 Y89.87 F10800
G1 X136.557 Y89.957
M204 S800
;TYPE:External perimeter
G1 F1200
G1 X136.792 Y89.517 E.01564
G1 X137.13 Y89.109 E.01661
G1 X137.541 Y88.776 E.01659
G1 X138.011 Y88.531 E.01662
G1 X138.52 Y88.384 E.01661
G1 X139.303 Y88.359 E.02456
G1 X139.829 Y88.473 E.01688
G1 X140.313 Y88.687 E.01659
G1 X140.746 Y88.994 E.01664
G1 X141.109 Y89.379 E.01659
G1 X141.388 Y89.829 E.0166
G1 X141.573 Y90.326 E.01663
G1 X141.655 Y90.849 E.0166
G1 X141.633 Y91.378 E.0166
G1 X141.505 Y91.892 E.01661
G1 X141.279 Y92.371 E.01661
G1 X140.962 Y92.795 E.0166
G1 X140.568 Y93.148 E.01659
G1 X140.111 Y93.416 E.01661
G1 X139.61 Y93.589 E.01662
G1 X139.085 Y93.658 E.0166
G1 X138.557 Y93.622 E.01659
G1 X138.046 Y93.482 E.01661
G1 X137.541 Y93.224 E.01778
G1 X137.15 Y92.912 E.01568
G1 X136.813 Y92.514 E.01635
G1 X136.557 Y92.05 E.01662
G1 X136.397 Y91.545 E.01661
G1 X136.341 Y91.019 E.01659
G1 X136.39 Y90.491 E.01663
G1 X136.534 Y90.012 E.01568
M204 S1000
;WIPE_START
G1 F8640
G1 X136.557 Y89.957 E-.01377
G1 X136.792 Y89.517 E-.11518
G1 X137.13 Y89.109 E-.12234
G1 X137.541 Y88.776 E-.12214
G1 X138.011 Y88.531 E-.12238
G1 X138.52 Y88.384 E-.12233
G1 X139.303 Y88.359 E-.18089
G1 X139.307 Y88.36 E-.00097
;WIPE_END
G1 Z.6 F720
G1 X113.488 Y90.396 F10800
G1 Z.2 F720
G1 E.8 F2100
M204 S800
;WIDTH:0.623368
G1 F1200
G1 X113.506 Y90.648 E.01219
;WIDTH:0.588201
G1 X113.523 Y90.899 E.01141
;WIDTH:0.579296
G1 X113.51 Y91.385 E.02168
M204 S1000
;WIPE_START
G1 F8640
G1 X113.523 Y90.899 E-.11226
G1 X113.506 Y90.648 E-.05809
G1 X113.488 Y90.396 E-.05834
;WIPE_END
G1 E-.57131 F2100
G1 Z.6 F720
G1 X111.668 Y121.955 F10800
G1 Z.2 F720
G1 E.8 F2100
M204 S800
;TYPE:Perimeter
;WIDTH:0.419999
G1 F1200
G1 X111.132 Y122.032 E.01698
G1 X110.529 Y121.998 E.01894
G1 X109.944 Y121.845 E.01896
G1 X109.401 Y121.58 E.01894
G1 X108.921 Y121.212 E.01896
G1 X108.524 Y120.756 E.01896
G1 X108.226 Y120.231 E.01893
G1 X108.039 Y119.665 E.01869
G1 X107.976 Y119.165 E.0158
G1 X108.014 Y118.454 E.02232
G1 X108.182 Y117.873 E.01896
G1 X108.461 Y117.337 E.01895
G1 X108.841 Y116.867 E.01895
G1 X109.306 Y116.481 E.01895
G1 X109.839 Y116.196 E.01895
G1 X110.418 Y116.021 E.01897
G1 X111.294 Y115.982 E.02749
G1 X111.913 Y116.105 E.01979
G1 X112.469 Y116.344 E.01898
G1 X112.966 Y116.687 E.01893
G1 X113.385 Y117.123 E.01896
G1 X113.71 Y117.633 E.01896
G1 X113.927 Y118.197 E.01895
G1 X114.028 Y118.792 E.01892
G1 X114.009 Y119.397 E.01898
G1 X113.871 Y119.985 E.01894
G1 X113.619 Y120.534 E.01894
G1 X113.263 Y121.023 E.01896
G1 X112.817 Y121.431 E.01895
G1 X112.299 Y121.743 E.01896
G1 X111.73 Y121.946 E.01894
G1 X111.727 Y121.946 E.00009
M204 S1000
G1 X111.727 Y121.946 F10800
G1 X111.634 Y121.58
M204 S800
;TYPE:External perimeter
G1 F1200
G1 X111.61 Y121.589 E.0008
G1 X111.085 Y121.658 E.0166
G1 X110.557 Y121.622 E.01659
G1 X110.046 Y121.482 E.01661
G1 X109.573 Y121.244 E.0166
G1 X109.157 Y120.917 E.01659
G1 X108.813 Y120.514 E.01661
G1 X108.557 Y120.05 E.01662
G1 X108.4 Y119.554 E.01631
G1 X108.341 Y119.019 E.01688
G1 X108.39 Y118.491 E.01663
G1 X108.542 Y117.984 E.0166
G1 X108.792 Y117.517 E.01661
G1 X109.13 Y117.109 E.01661
G1 X109.541 Y116.776 E.01659
G1 X110.011 Y116.531 E.01662
G1 X110.52 Y116.384 E.01661
G1 X111.303 Y116.359 E.02456
G1 X111.829 Y116.473 E.01688
G1 X112.313 Y116.687 E.01659
G1 X112.746 Y116.994 E.01664
G1 X113.109 Y117.379 E.01659
G1 X113.388 Y117.829 E.0166
G1 X113.573 Y118.326 E.01663
G1 X113.655 Y118.849 E.0166
G1 X113.633 Y119.378 E.0166
G1 X113.505 Y119.892 E.01661
G1 X113.279 Y120.371 E.01661
G1 X112.962 Y120.795 E.0166
G1 X112.568 Y121.148 E.01659
G1 X112.111 Y121.416 E.01661
G1 X111.691 Y121.561 E.01393
M204 S1000
;WIPE_START
G1 F8640
G1 X111.634 Y121.58 E-.01387
G1 X111.61 Y121.589 E-.00592
G1 X111.085 Y121.658 E-.12227
G1 X110.557 Y121.622 E-.1222
G1 X110.046 Y121.482 E-.12234
G1 X109.573 Y121.244 E-.12226
G1 X109.157 Y120.917 E-.12218
G1 X108.813 Y120.514 E-.12234
G1 X108.715 Y120.337 E-.04662
;WIPE_END
G1 Z.6 F720
G1 X139.668 Y121.955 F10800
G1 Z.2 F720
G1 E.8 F2100
M204 S800
;TYPE:Perimeter
G1 F1200
G1 X139.132 Y122.032 E.01698
G1 X138.529 Y121.998 E.01894
G1 X137.944 Y121.845 E.01896
G1 X137.401 Y121.58 E.01894
G1 X136.921 Y121.212 E.01896
G1 X136.524 Y120.756 E.01896
G1 X136.226 Y120.231 E.01893
G1 X136.037 Y119.657 E.01895
G1 X135.965 Y119.056 E.01898
G1 X136.014 Y118.454 E.01894
G1 X136.182 Y117.873 E.01896
G1 X136.461 Y117.337 E.01895
G1 X136.841 Y116.867 E.01895
G1 X137.291 Y116.494 E.01833
G1 X137.839 Y116.196 E.01956
G1 X138.418 Y116.021 E.01897
G1 X139.294 Y115.982 E.02749
G1 X139.913 Y116.105 E.01979
G1 X140.469 Y116.344 E.01898
G1 X140.966 Y116.687 E.01893
G1 X141.385 Y117.123 E.01896
G1 X141.71 Y117.633 E.01896
G1 X141.927 Y118.197 E.01895
G1 X142.028 Y118.792 E.01892
G1 X142.009 Y119.397 E.01898
G1 X141.871 Y119.985 E.01894
G1 X141.619 Y120.534 E.01894
G1 X141.263 Y121.023 E.01896
G1 X140.821 Y121.428 E.0188
G1 X140.299 Y121.743 E.01912
G1 X139.73 Y121.946 E.01894
G1 X139.727 Y121.946 E.00009
M204 S1000
G1 X139.727 Y121.946 F10800
G1 X139.635 Y121.58
M204 S800
;TYPE:External perimeter
G1 F1200
G1 X139.61 Y121.589 E.00083
G1 X139.085 Y121.658 E.0166
G1 X138.557 Y121.622 E.01659
G1 X138.046 Y121.482 E.01661
G1 X137.573 Y121.244 E.0166
G1 X137.157 Y120.917 E.01659
G1 X136.813 Y120.514 E.01661
G1 X136.557 Y120.05 E.01662
G1 X136.397 Y119.545 E.01661
G1 X136.341 Y119.019 E.01659
G1 X136.39 Y118.491 E.01663
G1 X136.542 Y117.984 E.0166
G1 X136.792 Y117.517 E.01661
G1 X137.13 Y117.109 E.01661
G1 X137.526 Y116.789 E.01596
G1 X138.011 Y116.531 E.01722
G1 X138.52 Y116.384 E.01661
G1 X139.303 Y116.359 E.02456
G1 X139.829 Y116.473 E.01688
G1 X140.313 Y116.687 E.01659
G1 X140.746 Y116.994 E.01664
G1 X141.109 Y117.379 E.01659
G1 X141.388 Y117.829 E.0166
G1 X141.573 Y118.326 E.01663
G1 X141.655 Y118.849 E.0166
G1 X141.633 Y119.378 E.0166
