; generated by PrusaSlicer 2.7.4+win64 on 2024-08-12 at 03:04:18 UTC


;
;
; 

; external perimeters extrusion width = 0.45mm
; perimeters extrusion width = 0.45mm
; infill extrusion width = 0.45mm
; solid infill extrusion width = 0.45mm
; top infill extrusion width = 0.40mm
; support material extrusion width = 0.35mm
; first layer extrusion width = 0.42mm

; external perimeters extrusion width = 0.45mm
; perimeters extrusion width = 0.45mm
; infill extrusion width = 0.45mm
; solid infill extrusion width = 0.45mm
; top infill extrusion width = 0.40mm
; support material extrusion width = 0.35mm
; first layer extrusion width = 0.42mm

M73 P0 R104
M73 Q0 S105
M201 X1000 Y1000 Z200 E5000 ; sets maximum accelerations, mm/sec^2
M203 X200 Y200 Z12 E120 ; sets maximum feedrates, mm / sec
M204 S1250 T1250 ; sets acceleration (S) and retract acceleration (R), mm/sec^2
M205 X8.00 Y8.00 Z0.40 E4.50 ; sets the jerk limits, mm/sec
M205 S0 T0 ; sets the minimum extruding and travel feed rate, mm/sec

; printing object BaseBoardLargeServo.stl id:0 copy 0
; stop printing object BaseBoardLargeServo.stl id:0 copy 0
; printing object ServoCover.stl id:1 copy 0
; stop printing object ServoCover.stl id:1 copy 0

;TYPE:Custom
M862.3 P "MK3S" ; printer model check
M862.1 P0.4 ; nozzle diameter check
M115 U3.13.3 ; tell printer latest fw version
G90 ; use absolute coordinates
M83 ; extruder relative mode
M104 S215 ; set extruder temp
M140 S60 ; set bed temp
M190 S60 ; wait for bed temp
M109 S215 ; wait for extruder temp
G28 W ; home all without mesh bed level
G80 X86.5242 Y59.3446 W109.492 H96.3847 ; mesh bed levelling

G1 Z0.2 F720
G1 Y-3 F1000 ; go outside print area
G92 E0
G1 X60 E9 F1000 ; intro line
G1 X100 E12.5 F1000 ; intro line

G92 E0
M221 S95

; Don't change E values below. Excessive value can damage the printer.
M907 E430 ; set extruder motor current
G21 ; set units to millimeters
G90 ; use absolute coordinates
M83 ; use relative distances for extrusion

M900 K0.05 ; Filament gcode LA 1.5
M900 K30 ; Filament gcode LA 1.0




M107
;LAYER_CHANGE
;Z:0.2
;HEIGHT:0.2
G1 E-.8 F2100
G1 Z.6 F720
G1 X88.09 Y64.011 F10800
G1 Z.2 F720
G1 E.8 F2100
M204 S800
;TYPE:Skirt/Brim
;WIDTH:0.42
G1 F1200
G1 X88.77 Y63.244 E.03214
G1 X89.534 Y62.689 E.02961
G1 X91.031 Y61.953 E.0523
G1 X91.952 Y61.739 E.02965
G1 X170.626 Y59.534 E2.46774
G1 X172.188 Y59.643 E.04909
G1 X173.707 Y60.029 E.04914
G1 X175.132 Y60.679 E.04911
G1 X176.418 Y61.574 E.04913
G1 X177.324 Y62.445 E.03941
G1 X195.174 Y81.247 E.81288
G1 X195.828 Y82.884 E.05527
G1 X195.828 Y113.568 E.96208
G1 X194.983 Y115.385 E.06283
G1 X148.045 Y154.981 E1.92542
G1 X146.513 Y155.541 E.05114
G1 X118.125 Y155.541 E.89009
G1 X116.46 Y154.861 E.05639
G1 X89.28 Y128.199 E1.19378
G1 X88.867 Y127.658 E.02134
G1 X86.993 Y124.206 E.12316
G1 X86.715 Y123.09 E.03606
G1 X86.715 Y67.989 E1.72765
G1 X87.099 Y65.996 E.06364
M73 Q0 S104
G1 X87.342 Y65.355 E.02149
G1 X88.061 Y64.064 E.04633
M204 S1000
;WIPE_START
G1 F8640
G1 X88.09 Y64.011 E-.01395
G1 X88.77 Y63.244 E-.23668
G1 X89.534 Y62.689 E-.21804
G1 X90.822 Y62.056 E-.33133
;WIPE_END
G1 Z.6 F720
; printing object BaseBoardLargeServo.stl id:0 copy 0
G1 X171.175 Y61.939 F10800
G1 Z.2 F720
G1 E.8 F2100
M204 S800
;TYPE:Support material
G1 F1200
G1 X171.659 Y61.96 E.01519
G1 X172.773 Y62.214 E.03583
G1 X173.822 Y62.663 E.03578
G1 X174.775 Y63.292 E.0358
G1 X175.6 Y64.081 E.03579
G1 X176.271 Y65.005 E.0358
G1 X176.767 Y66.034 E.03582
G1 X177.07 Y67.134 E.03577
G1 X177.173 Y68.271 E.0358
G1 X177.07 Y69.408 E.0358
G1 X176.617 Y70.818 E.04644
G1 X176.957 Y71.957 E.03727
G1 X177.067 Y73.092 E.03575
G1 X176.994 Y73.854 E.024
G1 X177.389 Y73.673 E.01362
G1 X179.183 Y73.867 E.05658
G1 X180.63 Y75.068 E.05896
G1 X180.719 Y75.363 E.00966
G1 X181.621 Y76.112 E.03676
G1 X182.16 Y77.902 E.05861
G1 X181.932 Y78.679 E.02539
G1 X182.137 Y79.359 E.02227
G1 X181.932 Y80.059 E.02287
G1 X182.149 Y80.782 E.02367
G1 X181.653 Y82.404 E.05318
G1 X158.831 Y82.404 E.71557
G1 X158.55 Y82.685 E.01246
M73 P0 R103
G1 X158.55 Y113.767 E.97455
G1 X158.831 Y114.048 E.01246
G1 X161.632 Y114.048 E.08782
G1 X161.803 Y114.614 E.01854
G1 X162.525 Y115.213 E.02941
G1 X163.064 Y117.003 E.05861
G1 X162.72 Y118.156 E.03773
G1 X163.064 Y119.299 E.03743
G1 X162.853 Y120.017 E.02346
G1 X163.064 Y120.716 E.02289
G1 X162.853 Y121.433 E.02343
G1 X163.064 Y122.132 E.02289
G1 X162.853 Y122.85 E.02346
G1 X163.064 Y123.549 E.02289
G1 X162.853 Y124.267 E.02346
G1 X163.064 Y124.966 E.02289
G1 X162.5 Y126.797 E.06007
G1 X161.078 Y127.977 E.05794
G1 X159.21 Y128.178 E.05891
G1 X158.948 Y128.042 E.00926
G1 X157.786 Y128.168 E.03665
G1 X157.52 Y128.03 E.0094
G1 X156.365 Y128.155 E.03643
G1 X156.099 Y128.017 E.0094
G1 X154.944 Y128.142 E.03643
G1 X154.717 Y128.024 E.00802
G1 X152.825 Y128.184 E.05953
G1 X152.562 Y128.045 E.00933
G1 X151.32 Y128.179 E.03917
G1 X151.097 Y128.064 E.00787
G1 X149.869 Y128.196 E.03872
G1 X149.622 Y128.068 E.00872
G1 X148.357 Y128.204 E.03989
G1 X147.635 Y127.83 E.02549
G1 X147.427 Y128.003 E.00848
G1 X145.558 Y128.204 E.05894
G1 X144.741 Y127.781 E.02885
G1 X142.917 Y127.978 E.05752
G1 X142.275 Y127.646 E.02266
G1 X141.849 Y128.002 E.01741
G1 X140.049 Y128.196 E.05676
G1 X139.153 Y127.787 E.03088
G1 X138.763 Y127.829 E.0123
G1 X138.533 Y127.71 E.00812
G1 X137.317 Y127.841 E.03835
G1 X137.108 Y127.733 E.00738
G1 X135.855 Y127.868 E.03951
G1 X135.647 Y127.761 E.00733
G1 X134.393 Y127.896 E.03955
G1 X134.184 Y127.788 E.00738
G1 X132.932 Y127.923 E.03948
G1 X132.722 Y127.814 E.00742
G1 X131.472 Y127.949 E.03942
G1 X131.261 Y127.84 E.00745
G1 X130.012 Y127.975 E.03939
G1 X129.8 Y127.865 E.00749
G1 X128.552 Y128 E.03936
G1 X128.339 Y127.889 E.00753
G1 X127.094 Y128.024 E.03926
G1 X126.878 Y127.911 E.00764
G1 X125.638 Y128.045 E.03911
G1 X125.419 Y127.932 E.00773
G1 X124.184 Y128.065 E.03895
G1 X123.964 Y127.951 E.00777
G1 X122.731 Y128.084 E.03888
G1 X122.515 Y127.972 E.00763
G1 X121.275 Y128.106 E.03911
G1 X121.06 Y127.995 E.00759
G1 X119.817 Y128.129 E.0392
G1 X119.604 Y128.019 E.00752
G1 X118.359 Y128.153 E.03926
G1 X118.148 Y128.044 E.00745
G1 X116.899 Y128.179 E.03939
G1 X116.689 Y128.069 E.00743
G1 X115.438 Y128.204 E.03945
G1 X115.182 Y128.072 E.00903
G1 X113.956 Y128.204 E.03866
G1 X113.695 Y128.069 E.00921
G1 X112.44 Y128.204 E.03958
G1 X112.183 Y128.071 E.00907
G1 X110.945 Y128.204 E.03904
G1 X110.701 Y128.078 E.00861
G1 X109.529 Y128.204 E.03696
G1 X109.284 Y128.078 E.00864
G1 X108.112 Y128.204 E.03696
G1 X107.866 Y128.077 E.00868
G1 X106.685 Y128.204 E.03724
G1 X106.437 Y128.076 E.00875
G1 X105.245 Y128.204 E.03759
G1 X104.994 Y128.075 E.00885
G1 X103.79 Y128.204 E.03797
G1 X103.536 Y128.073 E.00896
G1 X102.315 Y128.204 E.0385
G1 X102.056 Y128.07 E.00914
G1 X100.814 Y128.204 E.03917
G1 X100.553 Y128.069 E.00921
G1 X99.298 Y128.204 E.03958
G1 X99.053 Y128.078 E.00864
G1 X97.881 Y128.204 E.03696
G1 X97.596 Y128.057 E.01005
G1 X96.231 Y128.204 E.04305
G1 X96.102 Y128.138 E.00454
G1 X95.485 Y128.204 E.01946
G1 X95.225 Y128.069 E.00919
G1 X93.973 Y128.204 E.03948
G1 X92.305 Y127.34 E.0589
G1 X92.201 Y127.153 E.00671
G1 X90.944 Y126.503 E.04437
G1 X90.087 Y124.963 E.05526
G1 X90.087 Y124.701 E.00821
G1 X89.949 Y124.63 E.00487
G1 X89.092 Y123.09 E.05526
G1 X89.092 Y121.493 E.05007
G1 X89.294 Y121.13 E.01303
G1 X89.092 Y120.766 E.01305
G1 X89.092 Y67.989 E1.65479
G1 X89.419 Y67.4 E.02112
G1 X89.419 Y66.511 E.02787
G1 X90.167 Y65.167 E.04823
G1 X90.932 Y64.612 E.02963
G1 X92.019 Y64.115 E.03748
G1 X94.648 Y64.359 E.08278
G1 X94.922 Y64.234 E.00944
G1 X96.071 Y64.358 E.03624
G1 X96.367 Y64.223 E.0102
G1 X97.442 Y64.339 E.0339
G1 X97.891 Y64.134 E.01548
G1 X99.035 Y64.257 E.03608
G1 X99.342 Y64.116 E.01059
G1 X100.525 Y64.244 E.03731
G1 X100.807 Y64.115 E.00972
G1 X102.017 Y64.246 E.03816
G1 X102.303 Y64.115 E.00986
G1 X103.461 Y64.24 E.03652
G1 X103.734 Y64.115 E.00941
G1 X104.967 Y64.248 E.03888
G1 X105.258 Y64.115 E.01003
G1 X106.437 Y64.243 E.03718
G1 X106.715 Y64.115 E.0096
G1 X107.928 Y64.246 E.03825
G1 X108.215 Y64.115 E.00989
G1 X109.416 Y64.245 E.03788
G1 X109.7 Y64.115 E.00979
G1 X110.911 Y64.246 E.03819
G1 X111.197 Y64.115 E.00986
G1 X112.423 Y64.248 E.03867
G1 X112.713 Y64.115 E.01
G1 X113.94 Y64.248 E.0387
G1 X114.23 Y64.115 E.01
G1 X115.456 Y64.248 E.03867
G1 X115.746 Y64.115 E.01
G1 X116.973 Y64.248 E.0387
G1 X117.263 Y64.115 E.01
G1 X119.057 Y64.309 E.05658
G1 X119.697 Y64.84 E.02607
G1 X119.921 Y64.864 E.00706
G1 X120.265 Y64.708 E.01184
G1 X121.4 Y64.83 E.03579
G1 X121.725 Y64.681 E.01121
G1 X122.864 Y64.804 E.03592
G1 X123.182 Y64.659 E.01096
G1 X124.321 Y64.782 E.03592
G1 X124.637 Y64.638 E.01089
G1 X125.777 Y64.761 E.03595
G1 X126.093 Y64.616 E.0109
G1 X127.233 Y64.739 E.03595
G1 X127.548 Y64.596 E.01085
G1 X128.69 Y64.719 E.03601
G1 X129.001 Y64.576 E.01073
G1 X130.145 Y64.7 E.03608
G1 X130.453 Y64.559 E.01062
G1 X131.596 Y64.683 E.03605
G1 X131.904 Y64.542 E.01062
G1 X133.047 Y64.665 E.03604
G1 X133.356 Y64.524 E.01065
G1 X134.5 Y64.648 E.03608
G1 X134.807 Y64.507 E.01059
G1 X135.95 Y64.631 E.03605
G1 X136.26 Y64.489 E.01069
G1 X137.402 Y64.612 E.03601
G1 X137.713 Y64.47 E.01072
G1 X138.854 Y64.593 E.03598
G1 X139.168 Y64.45 E.01082
G1 X140.308 Y64.573 E.03595
G1 X140.623 Y64.429 E.01086
G1 X141.762 Y64.552 E.03592
G1 X142.079 Y64.407 E.01093
G1 X143.218 Y64.53 E.03592
G1 X143.535 Y64.385 E.01093
G1 X144.673 Y64.508 E.03589
G1 X144.992 Y64.363 E.01099
G1 X146.13 Y64.485 E.03589
G1 X146.449 Y64.34 E.01099
G1 X147.587 Y64.462 E.03589
G1 X147.906 Y64.316 E.011
G1 X149.044 Y64.439 E.03589
G1 X149.364 Y64.293 E.01103
G1 X150.501 Y64.415 E.03585
G1 X150.823 Y64.269 E.01109
G1 X151.959 Y64.391 E.03582
G1 X152.282 Y64.243 E.01114
G1 X153.445 Y64.369 E.03668
G1 X153.713 Y64.247 E.00923
G1 X154.838 Y64.368 E.03548
G1 X155.184 Y64.21 E.01193
G1 X156.328 Y64.334 E.03608
G1 X156.634 Y64.194 E.01055
G1 X157.785 Y64.318 E.0363
G1 X158.078 Y64.184 E.0101
G1 X159.221 Y64.308 E.03605
G1 X159.53 Y64.167 E.01065
G1 X160.683 Y64.291 E.03636
G1 X160.972 Y64.159 E.00996
G1 X162.766 Y64.353 E.05658
G1 X164.89 Y65.981 E.08391
G1 X165.067 Y65.508 E.01583
G1 X165.653 Y64.528 E.0358
G1 X166.404 Y63.668 E.0358
G1 X167.296 Y62.956 E.03579
G1 X168.302 Y62.415 E.03581
G1 X169.388 Y62.062 E.0358
G1 X170.519 Y61.909 E.03578
G1 X171.119 Y61.936 E.01883
M204 S1000
;WIPE_START
G1 F8640
G1 X170.519 Y61.909 E-.13868
G1 X169.388 Y62.062 E-.26353
G1 X168.302 Y62.415 E-.26367
G1 X167.791 Y62.69 E-.13412
;WIPE_END
G1 Z.6 F720
G1 X107.552 Y78.003 F10800
G1 Z.2 F720
G1 E.8 F2100
M204 S800
G1 F1200
G1 X108.465 Y77.245 E.03721
G1 X108.837 Y77.437 E.01313
G1 X109.861 Y77.327 E.03229
G1 X111.556 Y78.204 E.05984
G1 X112.729 Y78.078 E.03699
G1 X112.974 Y78.204 E.00864
G1 X114.842 Y78.003 E.05891
G1 X115.288 Y77.633 E.01817
G1 X115.634 Y77.812 E.01221
G1 X118.369 Y77.594 E.08603
G1 X118.6 Y77.714 E.00816
G1 X118.986 Y77.672 E.01217
G1 X120.013 Y78.204 E.03626
G1 X121.881 Y78.003 E.05891
G1 X122.003 Y77.902 E.00497
G1 X122.472 Y78.145 E.01656
G1 X124.978 Y77.913 E.07891
G1 X125.54 Y78.204 E.01984
G1 X127.409 Y78.003 E.05894
G1 X127.65 Y77.803 E.00982
G1 X128.244 Y78.11 E.02096
G1 X131.672 Y77.783 E.10797
G1 X131.823 Y77.658 E.00615
G1 X132.597 Y78.059 E.02733
G1 X133.848 Y77.924 E.03945
G1 X134.058 Y78.033 E.00742
G1 X135.32 Y77.897 E.0398
G1 X135.523 Y78.002 E.00717
G1 X136.777 Y77.866 E.03955
G1 X136.985 Y77.974 E.00735
G1 X138.239 Y77.839 E.03955
G1 X138.447 Y77.946 E.00733
G1 X139.702 Y77.811 E.03958
G1 X139.909 Y77.918 E.00731
G1 X141.163 Y77.783 E.03955
G1 X141.371 Y77.891 E.00735
G1 X142.638 Y77.754 E.03996
G1 X142.838 Y77.858 E.00707
G1 X144.159 Y77.715 E.04166
G1 X144.328 Y77.802 E.00596
G1 X145.727 Y77.651 E.04412
G1 X146.259 Y77.927 E.01879
G1 X146.384 Y78.153 E.0081
G1 X145.592 Y79.577 E.05109
G1 X145.592 Y81.174 E.05007
G1 X145.721 Y81.407 E.00835
G1 X145.592 Y81.64 E.00835
G1 X145.592 Y83.237 E.05007
G1 X145.93 Y83.844 E.02178
G1 X145.592 Y84.452 E.02181
G1 X145.592 Y86.049 E.05007
G1 X146.34 Y87.394 E.04825
G1 X145.592 Y88.739 E.04825
G1 X145.592 Y90.336 E.05007
G1 X145.766 Y90.649 E.01123
G1 X145.592 Y90.963 E.01126
G1 X145.592 Y114.57 E.74018
G1 X145.278 Y114.309 E.0128
G1 X143.483 Y114.115 E.05661
G1 X142.396 Y114.612 E.03748
G1 X141.803 Y115.043 E.02299
G1 X140.918 Y114.309 E.03605
G1 X139.124 Y114.115 E.05658
G1 X138.037 Y114.612 E.03748
G1 X137.222 Y115.204 E.03158
G1 X136.535 Y115.13 E.02167
G1 X136.25 Y115.26 E.00982
G1 X135.095 Y115.135 E.03643
G1 X134.811 Y115.265 E.00979
G1 X133.656 Y115.14 E.03643
G1 X133.4 Y115.257 E.00883
G1 X132.935 Y115.207 E.01466
G1 X132.419 Y114.779 E.02102
G1 X131.432 Y114.672 E.03113
G1 X130.994 Y114.309 E.01784
G1 X129.2 Y114.115 E.05658
G1 X128.911 Y114.247 E.00996
G1 X127.688 Y114.115 E.03857
G1 X126.601 Y114.612 E.03748
G1 X125.775 Y115.212 E.03201
G1 X125.056 Y115.134 E.02268
G1 X124.693 Y115.3 E.01252
G1 X123.577 Y115.18 E.03519
G1 X123.231 Y115.338 E.01193
G1 X122.044 Y115.21 E.03743
G1 X121.208 Y114.516 E.03407
G1 X119.414 Y114.322 E.05658
G1 X119.095 Y114.468 E.011
G1 X117.957 Y114.345 E.03589
G1 X117.633 Y114.493 E.01117
G1 X116.497 Y114.371 E.03582
G1 X116.157 Y114.526 E.01172
G1 X115.029 Y114.405 E.03557
G1 X114.612 Y114.595 E.01437
G1 X113.522 Y114.478 E.03437
G1 X112.93 Y114.748 E.0204
G1 X111.925 Y114.64 E.03169
G1 X111.638 Y114.771 E.00989
G1 X110.484 Y114.647 E.03639
G1 X110.183 Y114.784 E.01037
G1 X109.036 Y114.661 E.03617
G1 X108.734 Y114.799 E.01041
G1 X107.588 Y114.675 E.03614
G1 X107.299 Y114.806 E.00995
G1 X106.146 Y114.682 E.03636
G1 X105.871 Y114.808 E.00948
G1 X105.27 Y114.309 E.02449
G1 X104.856 Y114.264 E.01306
G1 X104.65 Y113.582 E.02234
G1 X104.21 Y113.217 E.01792
G1 X104.372 Y112.663 E.0181
G1 X103.956 Y111.28 E.04528
G1 X104.102 Y110.782 E.01627
G1 X103.899 Y110.107 E.0221
G1 X104.13 Y109.32 E.02572
G1 X104.042 Y109.028 E.00956
G1 X104.625 Y108.544 E.02376
G1 X105.19 Y106.713 E.06008
G1 X104.977 Y106.006 E.02315
G1 X105.19 Y105.281 E.02369
G1 X104.65 Y103.492 E.05859
G1 X104.176 Y103.098 E.01933
G1 X104.023 Y102.59 E.01663
G1 X104.162 Y102.117 E.01546
G1 X103.946 Y101.403 E.02339
G1 X104.156 Y100.688 E.02337
G1 X104.072 Y100.409 E.00914
G1 X104.625 Y99.95 E.02253
G1 X105.19 Y98.119 E.06008
G1 X104.65 Y96.329 E.05862
G1 X104.1 Y95.873 E.0224
G1 X104.004 Y95.554 E.01045
G1 X104.191 Y94.916 E.02085
G1 X104.102 Y94.622 E.00963
G1 X104.625 Y94.188 E.02131
G1 X105.19 Y92.356 E.06011
G1 X104.971 Y91.633 E.02369
G1 X105.19 Y90.89 E.02429
G1 X104.65 Y89.1 E.05862
G1 X104.271 Y88.785 E.01545
G1 X104.625 Y88.491 E.01443
G1 X105.19 Y86.66 E.06008
G1 X104.65 Y84.87 E.05862
G1 X104.143 Y84.449 E.02066
G1 X104.625 Y84.048 E.01966
G1 X105.19 Y82.217 E.06008
G1 X104.836 Y81.043 E.03845
G1 X105 Y80.482 E.01833
G1 X104.73 Y79.585 E.02937
G1 X105.223 Y77.965 E.05309
G1 X105.684 Y78.204 E.01628
G1 X107.496 Y78.009 E.05714
M204 S1000
;WIPE_START
G1 F8640
G1 X105.684 Y78.204 E-.42081
G1 X105.223 Y77.965 E-.1199
G1 X104.896 Y79.039 E-.25929
;WIPE_END
G1 Z.6 F720
G1 X181.721 Y81.637 F10800
G1 Z.2 F720
G1 E.8 F2100
M204 S800
G1 F1200
G1 X181.721 Y77.621 E.12592
G1 X181.302 Y76.289 E.04378
G1 X181.302 Y82.064 E.18107
G1 X180.883 Y82.064 E.01314
G1 X180.883 Y75.941 E.19198
G1 X180.464 Y75.593 E.01708
G1 X180.464 Y82.064 E.20289
G1 X180.045 Y82.064 E.01314
G1 X180.045 Y75.024 E.22073
G1 X179.626 Y74.676 E.01708
G1 X179.626 Y82.064 E.23165
G1 X179.207 Y82.064 E.01314
G1 X179.207 Y74.328 E.24256
G1 X179.045 Y74.193 E.00661
G1 X178.788 Y74.166 E.0081
G1 X178.788 Y82.064 E.24764
G1 X178.369 Y82.064 E.01314
G1 X178.369 Y74.121 E.24905
G1 X177.95 Y74.075 E.01322
G1 X177.95 Y82.064 E.25049
G1 X177.531 Y82.064 E.01314
G1 X177.531 Y74.03 E.2519
G1 X177.445 Y74.021 E.00271
G1 X177.112 Y74.173 E.01148
G1 X177.112 Y82.064 E.24742
G1 X176.693 Y82.064 E.01314
G1 X176.693 Y71.666 E.32602
M204 S1000
G1 X176.693 Y71.666 F10800
G1 X176.693 Y70.136
M204 S800
G1 F1200
G1 X176.693 Y67.044 E.09695
G1 X176.275 Y65.794 E.04133
G1 X176.275 Y82.064 E.51013
G1 X175.856 Y82.064 E.01314
G1 X175.856 Y65.01 E.53472
G1 X175.437 Y64.433 E.02236
G1 X175.437 Y82.064 E.55281
