; generated by PrusaSlicer 2.7.4+win64 on 2024-08-29 at 03:23:53 UTC


;
;
; 

; external perimeters extrusion width = 0.45mm
; perimeters extrusion width = 0.45mm
; infill extrusion width = 0.45mm
; solid infill extrusion width = 0.45mm
; top infill extrusion width = 0.40mm
; support material extrusion width = 0.35mm
; first layer extrusion width = 0.42mm

; external perimeters extrusion width = 0.45mm
; perimeters extrusion width = 0.45mm
; infill extrusion width = 0.45mm
; solid infill extrusion width = 0.45mm
; top infill extrusion width = 0.40mm
; support material extrusion width = 0.35mm
; first layer extrusion width = 0.42mm

; external perimeters extrusion width = 0.45mm
; perimeters extrusion width = 0.45mm
; infill extrusion width = 0.45mm
; solid infill extrusion width = 0.45mm
; top infill extrusion width = 0.40mm
; support material extrusion width = 0.35mm
; first layer extrusion width = 0.42mm

M73 P0 R112
M73 Q0 S113
M201 X1000 Y1000 Z200 E5000 ; sets maximum accelerations, mm/sec^2
M203 X200 Y200 Z12 E120 ; sets maximum feedrates, mm / sec
M204 S1250 T1250 ; sets acceleration (S) and retract acceleration (R), mm/sec^2
M205 X8.00 Y8.00 Z0.40 E4.50 ; sets the jerk limits, mm/sec
M205 S0 T0 ; sets the minimum extruding and travel feed rate, mm/sec

; printing object lidRear.stl id:0 copy 0
; stop printing object lidRear.stl id:0 copy 0
; printing object lidFront.stl id:1 copy 0
; stop printing object lidFront.stl id:1 copy 0
; printing object bottomCarrier.stl id:2 copy 0
; stop printing object bottomCarrier.stl id:2 copy 0

;TYPE:Custom
M862.3 P "MK3S" ; printer model check
M862.1 P0.4 ; nozzle diameter check
M115 U3.13.3 ; tell printer latest fw version
G90 ; use absolute coordinates
M83 ; extruder relative mode
M104 S215 ; set extruder temp
M140 S60 ; set bed temp
M190 S60 ; wait for bed temp
M109 S215 ; wait for extruder temp
G28 W ; home all without mesh bed level
G80 X68.1111 Y47.1598 W113.781 H115.68 ; mesh bed levelling

G1 Z0.2 F720
G1 Y-3 F1000 ; go outside print area
G92 E0
G1 X60 E9 F1000 ; intro line
G1 X100 E12.5 F1000 ; intro line

G92 E0
M221 S95

; Don't change E values below. Excessive value can damage the printer.
M907 E430 ; set extruder motor current
G21 ; set units to millimeters
G90 ; use absolute coordinates
M83 ; use relative distances for extrusion

M900 K0.05 ; Filament gcode LA 1.5
M900 K30 ; Filament gcode LA 1.0




M107
;LAYER_CHANGE
;Z:0.2
;HEIGHT:0.2
G1 E-.8 F2100
G1 Z.6 F720
G1 X72.623 Y59.676 F10800
G1 Z.2 F720
G1 E.8 F2100
M204 S800
;TYPE:Skirt/Brim
;WIDTH:0.42
G1 F1200
G1 X73.119 Y59.078 E.02436
G1 X83.667 Y49.928 E.43782
G1 X84.812 Y49.382 E.03977
G1 X96.029 Y47.403 E.35713
G1 X96.865 Y47.349 E.02627
G1 X160.07 Y48.498 E1.98208
G1 X161.584 Y49.079 E.05085
G1 X180.884 Y65.821 E.80109
G1 X181.704 Y67.617 E.0619
G1 X181.704 Y143.533 E2.38029
G1 X180.884 Y145.328 E.06188
G1 X161.584 Y162.07 E.80109
G1 X160.027 Y162.652 E.05212
G1 X130.027 Y162.652 E.94063
G1 X128.469 Y162.07 E.05215
G1 X109.139 Y145.301 E.80236
G1 X73.089 Y112.937 E1.519
G1 X72.623 Y112.366 E.02311
G1 X68.853 Y105.897 E.23476
G1 X68.453 Y104.912 E.03333
G1 X68.3 Y103.769 E.03616
G1 X68.3 Y68.273 E1.11295
G1 X68.406 Y67.318 E.03013
G1 X68.752 Y66.338 E.03259
G1 X72.593 Y59.728 E.2397
M204 S1000
;WIPE_START
G1 F8640
G1 X72.623 Y59.676 E-.01386
G1 X73.119 Y59.078 E-.1794
G1 X75.104 Y57.356 E-.60674
;WIPE_END
G1 Z.6 F720
; printing object bottomCarrier.stl id:2 copy 0
G1 X166.857 Y115.265 F10800
G1 Z.2 F720
G1 E.8 F2100
M204 S800
;TYPE:Support material
G1 F1200
G1 X155.926 Y115.265 E.34273
G1 X155.926 Y107.245 E.25146
G1 X166.857 Y107.245 E.34273
G1 X166.857 Y115.208 E.24967
M204 S1000
G1 X166.857 Y115.208 F10800
G1 X166.395 Y115.095
M204 S800
G1 F1200
G1 X166.395 Y107.585 E.23547
G1 X165.976 Y107.585 E.01314
G1 X165.976 Y114.925 E.23014
G1 X165.557 Y114.925 E.01314
G1 X165.557 Y107.585 E.23014
G1 X165.138 Y107.585 E.01314
G1 X165.138 Y114.925 E.23014
G1 X164.719 Y114.925 E.01314
G1 X164.719 Y107.585 E.23014
G1 X164.3 Y107.585 E.01314
G1 X164.3 Y114.925 E.23014
G1 X163.881 Y114.925 E.01314
G1 X163.881 Y107.585 E.23014
G1 X163.462 Y107.585 E.01314
G1 X163.462 Y114.925 E.23014
G1 X163.043 Y114.925 E.01314
G1 X163.043 Y107.585 E.23014
G1 X162.624 Y107.585 E.01314
G1 X162.624 Y114.925 E.23014
G1 X162.205 Y114.925 E.01314
G1 X162.205 Y107.585 E.23014
G1 X161.786 Y107.585 E.01314
G1 X161.786 Y114.925 E.23014
G1 X161.367 Y114.925 E.01314
G1 X161.367 Y107.585 E.23014
G1 X160.948 Y107.585 E.01314
G1 X160.948 Y114.925 E.23014
G1 X160.529 Y114.925 E.01314
G1 X160.529 Y107.585 E.23014
G1 X160.11 Y107.585 E.01314
G1 X160.11 Y114.925 E.23014
G1 X159.691 Y114.925 E.01314
G1 X159.691 Y107.585 E.23014
G1 X159.272 Y107.585 E.01314
G1 X159.272 Y114.925 E.23014
G1 X158.853 Y114.925 E.01314
G1 X158.853 Y107.585 E.23014
G1 X158.434 Y107.585 E.01314
M73 Q0 S112
G1 X158.434 Y114.925 E.23014
G1 X158.015 Y114.925 E.01314
G1 X158.015 Y107.585 E.23014
G1 X157.596 Y107.585 E.01314
G1 X157.596 Y114.925 E.23014
G1 X157.177 Y114.925 E.01314
G1 X157.177 Y107.585 E.23014
G1 X156.758 Y107.585 E.01314
G1 X156.758 Y114.925 E.23014
G1 X156.339 Y114.925 E.01314
G1 X156.339 Y107.415 E.23547
M204 S1000
;WIPE_START
G1 F8640
G1 X156.339 Y110.88 E-.8
;WIPE_END
G1 Z.6 F720
G1 X166.857 Y103.904 F10800
G1 Z.2 F720
G1 E.8 F2100
M204 S800
G1 F1200
G1 X155.926 Y103.904 E.34273
G1 X155.926 Y95.885 E.25143
G1 X166.857 Y95.885 E.34273
G1 X166.857 Y103.847 E.24964
M204 S1000
G1 X166.857 Y103.847 F10800
G1 X166.395 Y103.734
M204 S800
G1 F1200
G1 X166.395 Y96.224 E.23547
G1 X165.976 Y96.224 E.01314
G1 X165.976 Y103.565 E.23017
G1 X165.557 Y103.565 E.01314
G1 X165.557 Y96.224 E.23017
G1 X165.138 Y96.224 E.01314
G1 X165.138 Y103.565 E.23017
G1 X164.719 Y103.565 E.01314
G1 X164.719 Y96.224 E.23017
G1 X164.3 Y96.224 E.01314
G1 X164.3 Y103.565 E.23017
G1 X163.881 Y103.565 E.01314
G1 X163.881 Y96.224 E.23017
G1 X163.462 Y96.224 E.01314
G1 X163.462 Y103.565 E.23017
G1 X163.043 Y103.565 E.01314
G1 X163.043 Y96.224 E.23017
G1 X162.624 Y96.224 E.01314
G1 X162.624 Y103.565 E.23017
G1 X162.205 Y103.565 E.01314
M73 P0 R111
G1 X162.205 Y96.224 E.23017
G1 X161.786 Y96.224 E.01314
G1 X161.786 Y103.565 E.23017
G1 X161.367 Y103.565 E.01314
G1 X161.367 Y96.224 E.23017
G1 X160.948 Y96.224 E.01314
G1 X160.948 Y103.565 E.23017
G1 X160.529 Y103.565 E.01314
G1 X160.529 Y96.224 E.23017
G1 X160.11 Y96.224 E.01314
G1 X160.11 Y103.565 E.23017
G1 X159.691 Y103.565 E.01314
G1 X159.691 Y96.224 E.23017
G1 X159.272 Y96.224 E.01314
G1 X159.272 Y103.565 E.23017
G1 X158.853 Y103.565 E.01314
G1 X158.853 Y96.224 E.23017
G1 X158.434 Y96.224 E.01314
G1 X158.434 Y103.565 E.23017
G1 X158.015 Y103.565 E.01314
G1 X158.015 Y96.224 E.23017
G1 X157.596 Y96.224 E.01314
G1 X157.596 Y103.565 E.23017
G1 X157.177 Y103.565 E.01314
G1 X157.177 Y96.224 E.23017
G1 X156.758 Y96.224 E.01314
G1 X156.758 Y103.565 E.23017
G1 X156.339 Y103.565 E.01314
G1 X156.339 Y96.054 E.2355
M204 S1000
;WIPE_START
G1 F8640
G1 X156.339 Y99.518 E-.8
;WIPE_END
G1 Z.6 F720
G1 X134.128 Y115.265 F10800
G1 Z.2 F720
G1 E.8 F2100
M204 S800
G1 F1200
G1 X123.197 Y115.265 E.34273
G1 X123.197 Y107.245 E.25146
G1 X134.128 Y107.245 E.34273
G1 X134.128 Y115.208 E.24967
M204 S1000
G1 X134.128 Y115.208 F10800
G1 X133.714 Y115.095
M204 S800
G1 F1200
G1 X133.714 Y107.585 E.23547
G1 X133.295 Y107.585 E.01314
G1 X133.295 Y114.925 E.23014
G1 X132.876 Y114.925 E.01314
G1 X132.876 Y107.585 E.23014
G1 X132.457 Y107.585 E.01314
G1 X132.457 Y114.925 E.23014
G1 X132.038 Y114.925 E.01314
G1 X132.038 Y107.585 E.23014
G1 X131.619 Y107.585 E.01314
G1 X131.619 Y114.925 E.23014
G1 X131.201 Y114.925 E.01311
G1 X131.201 Y107.585 E.23014
G1 X130.782 Y107.585 E.01314
G1 X130.782 Y114.925 E.23014
G1 X130.363 Y114.925 E.01314
G1 X130.363 Y107.585 E.23014
G1 X129.944 Y107.585 E.01314
G1 X129.944 Y114.925 E.23014
G1 X129.525 Y114.925 E.01314
G1 X129.525 Y107.585 E.23014
G1 X129.106 Y107.585 E.01314
G1 X129.106 Y114.925 E.23014
G1 X128.687 Y114.925 E.01314
G1 X128.687 Y107.585 E.23014
G1 X128.268 Y107.585 E.01314
G1 X128.268 Y114.925 E.23014
G1 X127.849 Y114.925 E.01314
G1 X127.849 Y107.585 E.23014
G1 X127.43 Y107.585 E.01314
G1 X127.43 Y114.925 E.23014
G1 X127.011 Y114.925 E.01314
G1 X127.011 Y107.585 E.23014
G1 X126.592 Y107.585 E.01314
G1 X126.592 Y114.925 E.23014
G1 X126.173 Y114.925 E.01314
G1 X126.173 Y107.585 E.23014
G1 X125.754 Y107.585 E.01314
G1 X125.754 Y114.925 E.23014
G1 X125.335 Y114.925 E.01314
G1 X125.335 Y107.585 E.23014
G1 X124.916 Y107.585 E.01314
G1 X124.916 Y114.925 E.23014
G1 X124.497 Y114.925 E.01314
G1 X124.497 Y107.585 E.23014
G1 X124.078 Y107.585 E.01314
G1 X124.078 Y114.925 E.23014
G1 X123.659 Y114.925 E.01314
G1 X123.659 Y107.415 E.23547
M204 S1000
;WIPE_START
G1 F8640
G1 X123.659 Y110.88 E-.8
;WIPE_END
G1 Z.6 F720
G1 X134.128 Y103.904 F10800
G1 Z.2 F720
G1 E.8 F2100
M204 S800
G1 F1200
G1 X123.197 Y103.904 E.34273
G1 X123.197 Y95.885 E.25143
G1 X134.128 Y95.885 E.34273
G1 X134.128 Y103.847 E.24964
M204 S1000
G1 X134.128 Y103.847 F10800
G1 X133.714 Y103.734
M204 S800
G1 F1200
G1 X133.714 Y96.224 E.23547
G1 X133.295 Y96.224 E.01314
M73 P1 R111
G1 X133.295 Y103.565 E.23017
M73 Q1 S112
G1 X132.876 Y103.565 E.01314
G1 X132.876 Y96.224 E.23017
G1 X132.457 Y96.224 E.01314
G1 X132.457 Y103.565 E.23017
G1 X132.038 Y103.565 E.01314
G1 X132.038 Y96.224 E.23017
G1 X131.619 Y96.224 E.01314
G1 X131.619 Y103.565 E.23017
G1 X131.201 Y103.565 E.01311
G1 X131.201 Y96.224 E.23017
G1 X130.782 Y96.224 E.01314
G1 X130.782 Y103.565 E.23017
G1 X130.363 Y103.565 E.01314
G1 X130.363 Y96.224 E.23017
G1 X129.944 Y96.224 E.01314
G1 X129.944 Y103.565 E.23017
G1 X129.525 Y103.565 E.01314
G1 X129.525 Y96.224 E.23017
G1 X129.106 Y96.224 E.01314
G1 X129.106 Y103.565 E.23017
G1 X128.687 Y103.565 E.01314
G1 X128.687 Y96.224 E.23017
G1 X128.268 Y96.224 E.01314
G1 X128.268 Y103.565 E.23017
G1 X127.849 Y103.565 E.01314
G1 X127.849 Y96.224 E.23017
G1 X127.43 Y96.224 E.01314
G1 X127.43 Y103.565 E.23017
G1 X127.011 Y103.565 E.01314
G1 X127.011 Y96.224 E.23017
G1 X126.592 Y96.224 E.01314
G1 X126.592 Y103.565 E.23017
G1 X126.173 Y103.565 E.01314
G1 X126.173 Y96.224 E.23017
G1 X125.754 Y96.224 E.01314
G1 X125.754 Y103.565 E.23017
G1 X125.335 Y103.565 E.01314
G1 X125.335 Y96.224 E.23017
G1 X124.916 Y96.224 E.01314
G1 X124.916 Y103.565 E.23017
G1 X124.497 Y103.565 E.01314
G1 X124.497 Y96.224 E.23017
G1 X124.078 Y96.224 E.01314
G1 X124.078 Y103.565 E.23017
G1 X123.659 Y103.565 E.01314
G1 X123.659 Y96.054 E.2355
M204 S1000
;WIPE_START
G1 F8640
G1 X123.659 Y99.518 E-.8
;WIPE_END
G1 Z.6 F720
G1 X168.119 Y95.158 F10800
G1 Z.2 F720
G1 E.8 F2100
M204 S800
;TYPE:Perimeter
;WIDTH:0.419999
G1 F1200
G1 X168.124 Y95.531 E.0117
G1 X168.124 Y115.966 E.64072
G1 X168.056 Y116.234 E.00867
G1 X167.854 Y116.448 E.00923
G1 X167.59 Y116.531 E.00868
G1 X122.495 Y116.532 E1.41392
G1 X122.269 Y116.484 E.00724
G1 X122.059 Y116.326 E.00824
G1 X121.935 Y116.046 E.0096
G1 X121.93 Y95.183 E.65414
G1 X121.997 Y94.915 E.00866
G1 X122.2 Y94.701 E.00925
G1 X122.463 Y94.618 E.00865
G1 X122.951 Y94.618 E.0153
G1 X133.361 Y94.618 E.3264
G1 X133.04 Y94.296 E.01426
G1 X133.04 Y92.541 E.05503
;WIDTH:0.424412
G1 X133.037 Y92.029 E.01624
;WIDTH:0.425916
G1 X133.037 Y91.928 E.00322
G1 X132.833 Y92.504 E.01946
;WIDTH:0.419999
G1 X132.406 Y93.066 E.02213
G1 X131.813 Y93.448 E.02212
G1 X131.125 Y93.604 E.02212
G1 X130.929 Y93.604 E.00615
G1 X130.425 Y93.515 E.01605
G1 X129.798 Y93.192 E.02211
G1 X129.318 Y92.674 E.02214
G1 X129.045 Y92.024 E.0221
G1 X129.011 Y91.319 E.02213
G1 X129.045 Y91.125 E.00618
G1 X129.22 Y90.645 E.01602
G1 X129.318 Y90.475 E.00615
G1 X129.647 Y90.083 E.01605
G1 X130.007 Y89.836 E.01369
G1 X130.423 Y89.634 E.0145
G1 X131.044 Y89.54 E.01969
G1 X131.429 Y89.578 E.01213
G1 X131.813 Y89.701 E.01264
G1 X132.256 Y89.957 E.01604
G1 X132.735 Y90.475 E.02212
G1 X133.008 Y91.125 E.0221
;WIDTH:0.418688
G1 X133.041 Y91.319 E.00615
;WIDTH:0.419999
G1 X133.04 Y85.353 E.18706
G1 X133.106 Y85.088 E.00856
G1 X133.284 Y84.887 E.00842
G1 X133.542 Y84.791 E.00863
G1 X142.248 Y84.788 E.27297
G1 X142.455 Y84.827 E.0066
G1 X142.72 Y85.041 E.01068
G1 X142.798 Y85.221 E.00615
G1 X142.814 Y85.962 E.02324
G1 X142.814 Y94.296 E.26131
G1 X142.544 Y94.618 E.01318
G1 X167.558 Y94.618 E.7843
G1 X167.785 Y94.665 E.00727
G1 X167.995 Y94.823 E.00824
G1 X168.116 Y95.098 E.00942
M204 S1000
G1 X168.116 Y95.098 F10800
G1 X167.747 Y95.183
M204 S800
;TYPE:External perimeter
G1 F1200
G1 X167.747 Y115.966 E.65164
G1 X167.68 Y116.11 E.00498
G1 X167.558 Y116.155 E.00408
G1 X122.493 Y116.155 E1.41298
G1 X122.35 Y116.086 E.00498
G1 X122.307 Y115.966 E.004
G1 X122.307 Y95.183 E.65164
G1 X122.373 Y95.04 E.00494
G1 X122.495 Y94.995 E.00408
G1 X122.951 Y94.995 E.0143
G1 X132.718 Y94.995 E.30624
;WIDTH:0.45323
G1 X133.162 Y94.978 E.01516
;WIDTH:0.48646
G1 X133.605 Y94.961 E.01635
G1 X142.248 Y94.961 E.31876
G1 X142.692 Y94.978 E.01639
;WIDTH:0.45323
G1 X143.135 Y94.995 E.01513
;WIDTH:0.419999
G1 X167.561 Y94.995 E.76586
G1 X167.704 Y95.063 E.00496
G1 X167.726 Y95.127 E.00212
M204 S1000
;WIPE_START
G1 F8640
G1 X167.747 Y95.183 E-.01381
G1 X167.747 Y98.588 E-.78619
;WIPE_END
G1 Z.6 F720
G1 X132.606 Y92.005 F10800
G1 Z.2 F720
G1 E.8 F2100
M204 S800
G1 F1200
G1 X132.479 Y92.375 E.01227
G1 X132.118 Y92.824 E.01806
G1 X131.625 Y93.121 E.01805
G1 X131.059 Y93.233 E.01809
G1 X130.49 Y93.144 E.01806
G1 X129.986 Y92.866 E.01805
G1 X129.607 Y92.432 E.01807
G1 X129.4 Y91.895 E.01804
G1 X129.388 Y91.319 E.01806
G1 X129.575 Y90.774 E.01807
G1 X129.976 Y90.29 E.01971
G1 X130.429 Y90.028 E.01641
G1 X130.97 Y89.919 E.0173
G1 X131.331 Y89.942 E.01134
G1 X131.625 Y90.028 E.0096
G1 X132.067 Y90.283 E.016
G1 X132.446 Y90.717 E.01807
G1 X132.654 Y91.254 E.01806
G1 X132.665 Y91.83 E.01806
G1 X132.625 Y91.948 E.00391
M204 S1000
G1 X132.625 Y91.948 F10800
G1 X133.041 Y91.319
M204 S800
;TYPE:Perimeter
;WIDTH:0.41738
G1 F1200
G1 X133.041 Y91.83 E.01591
;WIDTH:0.425916
G1 X133.037 Y91.928 E.00312
M204 S1000
;WIPE_START
G1 F8640
G1 X133.041 Y91.83 E-.02265
G1 X133.041 Y91.319 E-.11799
;WIPE_END
G1 E-.65936 F2100
G1 Z.6 F720
G1 X142.432 Y85.309 F10800
G1 Z.2 F720
G1 E.8 F2100
M204 S800
;TYPE:External perimeter
;WIDTH:0.419999
G1 F1200
G1 X142.437 Y94.296 E.28178
;WIDTH:0.45491
G1 X142.362 Y94.406 E.00456
;WIDTH:0.489821
G1 X142.287 Y94.516 E.00495
G1 X142.248 Y94.518 E.00145
;WIDTH:0.48646
G1 X133.605 Y94.518 E.31876
G1 X133.511 Y94.407 E.00536
;WIDTH:0.45323
G1 X133.417 Y94.296 E.00496
;WIDTH:0.419999
G1 X133.417 Y89.504 E.15025
G1 X133.417 Y85.353 E.13015
G1 X133.485 Y85.208 E.00502
G1 X133.605 Y85.165 E.004
G1 X142.248 Y85.165 E.27099
G1 X142.349 Y85.194 E.00329
G1 X142.397 Y85.26 E.00256
M204 S1000
;WIPE_START
G1 F8640
G1 X142.432 Y85.309 E-.0139
G1 X142.434 Y88.713 E-.7861
M73 Q1 S111
;WIPE_END
G1 Z.6 F720
G1 X146.313 Y82.664 F10800
G1 Z.2 F720
G1 E.8 F2100
M204 S800
;TYPE:Perimeter
G1 F1200
G1 X146.519 Y82.9 E.00982
G1 X146.605 Y83.041 E.00518
G1 X146.782 Y83.535 E.01645
G1 X146.796 Y84.087 E.01731
G1 X146.732 Y84.363 E.00888
G1 X146.54 Y84.822 E.0156
G1 X146.203 Y85.22 E.01635
G1 X145.728 Y85.513 E.0175
G1 X145.543 Y85.58 E.00617
G1 X144.929 Y85.654 E.01939
G1 X144.326 Y85.513 E.01942
G1 X143.808 Y85.174 E.01941
G1 X143.487 Y84.783 E.01586
G1 X143.292 Y84.28 E.01691
G1 X143.257 Y83.778 E.01578
G1 X143.292 Y83.469 E.00975
G1 X143.486 Y82.968 E.01685
G1 X143.808 Y82.575 E.01593
G1 X143.958 Y82.448 E.00616
G1 X144.418 Y82.193 E.01649
G1 X144.938 Y82.093 E.0166
G1 X145.536 Y82.168 E.0189
G1 X145.728 Y82.236 E.00639
G1 X146.169 Y82.499 E.0161
G1 X146.273 Y82.619 E.00498
M204 S1000
G1 X146.273 Y82.619 F10800
G1 X146.273 Y83.231
M204 S800
;TYPE:External perimeter
G1 F1200
G1 X146.419 Y83.662 E.01427
G1 X146.408 Y84.151 E.01534
G1 X146.23 Y84.607 E.01535
G1 X145.907 Y84.974 E.01533
G1 X145.478 Y85.209 E.01534
G1 X144.994 Y85.283 E.01535
G1 X144.514 Y85.186 E.01535
G1 X144.097 Y84.932 E.01531
G1 X143.791 Y84.55 E.01535
G1 X143.634 Y84.087 E.01533
G1 X143.646 Y83.598 E.01534
G1 X143.824 Y83.142 E.01535
G1 X144.147 Y82.775 E.01533
G1 X144.575 Y82.54 E.01531
