; generated by PrusaSlicer 2.7.4+win64 on 2024-08-29 at 21:49:58 UTC


;
;
; 

; external perimeters extrusion width = 0.45mm
; perimeters extrusion width = 0.45mm
; infill extrusion width = 0.45mm
; solid infill extrusion width = 0.45mm
; top infill extrusion width = 0.40mm
; support material extrusion width = 0.35mm
; first layer extrusion width = 0.42mm

M73 P0 R130
M73 Q0 S131
M201 X1000 Y1000 Z200 E5000 ; sets maximum accelerations, mm/sec^2
M203 X200 Y200 Z12 E120 ; sets maximum feedrates, mm / sec
M204 S1250 T1250 ; sets acceleration (S) and retract acceleration (R), mm/sec^2
M205 X8.00 Y8.00 Z0.40 E4.50 ; sets the jerk limits, mm/sec
M205 S0 T0 ; sets the minimum extruding and travel feed rate, mm/sec

; printing object bottomCarrier_new v2.stl id:0 copy 0
; stop printing object bottomCarrier_new v2.stl id:0 copy 0

;TYPE:Custom
M862.3 P "MK3S" ; printer model check
M862.1 P0.4 ; nozzle diameter check
M115 U3.13.3 ; tell printer latest fw version
G90 ; use absolute coordinates
M83 ; extruder relative mode
M104 S215 ; set extruder temp
M140 S60 ; set bed temp
M190 S60 ; wait for bed temp
M109 S215 ; wait for extruder temp
G28 W ; home all without mesh bed level
G80 X88.1344 Y47.7344 W73.7312 H114.531 ; mesh bed levelling

G1 Z0.2 F720
G1 Y-3 F1000 ; go outside print area
G92 E0
G1 X60 E9 F1000 ; intro line
G1 X100 E12.5 F1000 ; intro line

G92 E0
M221 S95

; Don't change E values below. Excessive value can damage the printer.
M907 E430 ; set extruder motor current
G21 ; set units to millimeters
G90 ; use absolute coordinates
M83 ; use relative distances for extrusion

M900 K0.05 ; Filament gcode LA 1.5
M900 K30 ; Filament gcode LA 1.0




M107
;LAYER_CHANGE
;Z:0.2
;HEIGHT:0.2
G1 E-.8 F2100
G1 Z.6 F720
G1 X89.142 Y65.246 F10800
G1 Z.2 F720
G1 E.8 F2100
M204 S800
;TYPE:Skirt/Brim
;WIDTH:0.42
G1 F1200
G1 X108.442 Y48.504 E.80109
G1 X110 Y47.923 E.05214
G1 X140 Y47.923 E.94063
G1 X141.558 Y48.504 E.05214
G1 X160.858 Y65.246 E.80109
G1 X161.677 Y67.042 E.06189
G1 X161.677 Y142.958 E2.38029
G1 X160.858 Y144.754 E.06189
G1 X141.558 Y161.496 E.80109
G1 X140 Y162.077 E.05214
G1 X110 Y162.077 E.94063
G1 X108.442 Y161.496 E.05214
G1 X89.142 Y144.754 E.80109
G1 X88.323 Y142.958 E.06189
G1 X88.323 Y67.042 E2.38029
G1 X89.117 Y65.301 E.06
M204 S1000
;WIPE_START
G1 F8640
G1 X89.142 Y65.246 E-.01395
G1 X91.714 Y63.015 E-.78605
;WIPE_END
G1 Z.6 F720
; printing object bottomCarrier_new v2.stl id:0 copy 0
G1 X125.134 Y53.502 F10800
G1 Z.2 F720
G1 E.8 F2100
M204 S800
;TYPE:Support material
G1 F1200
G1 X125.447 Y53.742 E.01237
G1 X125.498 Y54.134 E.01239
G1 X125.258 Y54.447 E.01237
G1 X124.866 Y54.498 E.01239
G1 X124.553 Y54.258 E.01237
G1 X124.502 Y53.866 E.01239
G1 X124.742 Y53.553 E.01237
G1 X125.077 Y53.494 E.01067
M204 S1000
G1 X125.077 Y53.494 F10800
G1 X125 Y54.345
M204 S800
G1 F1200
G1 X125 Y53.655 E.02163
M204 S1000
;WIPE_START
G1 F8640
G1 X125 Y54.345 E-.15932
;WIPE_END
G1 E-.64068 F2100
G1 Z.6 F720
G1 X125.134 Y82.802 F10800
G1 Z.2 F720
G1 E.8 F2100
M204 S800
G1 F1200
G1 X125.447 Y83.042 E.01237
G1 X125.498 Y83.434 E.01239
G1 X125.258 Y83.747 E.01237
G1 X124.866 Y83.798 E.01239
G1 X124.553 Y83.558 E.01237
G1 X124.502 Y83.166 E.01239
G1 X124.742 Y82.853 E.01237
G1 X125.077 Y82.794 E.01067
M204 S1000
G1 X125.077 Y82.794 F10800
G1 X125 Y83.645
M204 S800
G1 F1200
G1 X125 Y82.955 E.02163
M204 S1000
;WIPE_START
G1 F8640
G1 X125 Y83.645 E-.15932
;WIPE_END
G1 E-.64068 F2100
G1 Z.6 F720
G1 X100.944 Y73.841 F10800
G1 Z.2 F720
G1 E.8 F2100
M204 S800
G1 F1200
G1 X101.365 Y74.085 E.01526
G1 X101.609 Y74.506 E.01526
G1 X101.645 Y78.219 E.11642
G1 X101.609 Y78.494 E.0087
G1 X101.365 Y78.915 E.01526
G1 X100.944 Y79.159 E.01526
G1 X100.7 Y79.191 E.00772
G1 X100.23 Y79.065 E.01526
G1 X99.885 Y78.72 E.0153
G1 X99.791 Y78.494 E.00767
G1 X99.755 Y74.781 E.11642
G1 X99.791 Y74.506 E.0087
G1 X100.035 Y74.085 E.01526
G1 X100.456 Y73.841 E.01526
G1 X100.887 Y73.834 E.01352
M204 S1000
G1 X100.887 Y73.834 F10800
G1 X101.118 Y78.891
M204 S800
G1 F1200
G1 X101.118 Y74.323 E.14323
G1 X100.699 Y74.152 E.01419
G1 X100.699 Y78.848 E.14724
G1 X100.28 Y78.676 E.0142
G1 X100.28 Y74.11 E.14316
M204 S1000
;WIPE_START
G1 F8640
G1 X100.28 Y77.575 E-.8
;WIPE_END
G1 Z.6 F720
G1 X100.944 Y130.841 F10800
G1 Z.2 F720
G1 E.8 F2100
M204 S800
G1 F1200
G1 X101.365 Y131.085 E.01526
G1 X101.609 Y131.506 E.01526
G1 X101.645 Y135.219 E.11642
G1 X101.609 Y135.494 E.0087
G1 X101.365 Y135.915 E.01526
G1 X100.944 Y136.159 E.01526
G1 X100.7 Y136.191 E.00772
G1 X100.23 Y136.065 E.01526
G1 X99.885 Y135.72 E.0153
G1 X99.791 Y135.494 E.00767
G1 X99.755 Y131.781 E.11642
G1 X99.791 Y131.506 E.0087
G1 X100.035 Y131.085 E.01526
G1 X100.456 Y130.841 E.01526
G1 X100.887 Y130.834 E.01352
M204 S1000
G1 X100.887 Y130.834 F10800
G1 X101.118 Y135.891
M204 S800
G1 F1200
G1 X101.118 Y131.323 E.14323
G1 X100.699 Y131.152 E.01419
G1 X100.699 Y135.848 E.14724
G1 X100.28 Y135.676 E.0142
G1 X100.28 Y131.11 E.14316
M204 S1000
;WIPE_START
G1 F8640
G1 X100.28 Y134.575 E-.8
;WIPE_END
G1 Z.6 F720
G1 X123.961 Y90.101 F10800
G1 Z.2 F720
G1 E.8 F2100
M204 S800
;TYPE:Perimeter
;WIDTH:0.458426
G1 F1200
G1 X123.947 Y90.051 E.00179
;WIDTH:0.419999
G1 X123.906 Y89.587 E.01461
G1 X123.985 Y89.127 E.01463
G1 X124.181 Y88.704 E.01462
G1 X124.48 Y88.347 E.0146
G1 X124.862 Y88.078 E.01465
G1 X125.299 Y87.918 E.01459
G1 X125.708 Y87.88 E.01288
G1 X126.222 Y87.956 E.01629
G1 X126.646 Y88.152 E.01465
G1 X127.003 Y88.451 E.0146
G1 X127.272 Y88.832 E.01462
G1 X127.432 Y89.27 E.01462
G1 X127.474 Y89.734 E.01461
G1 X127.394 Y90.194 E.01464
G1 X127.198 Y90.616 E.01459
G1 X126.899 Y90.974 E.01462
G1 X126.518 Y91.242 E.01461
G1 X126.08 Y91.403 E.01463
G1 X125.616 Y91.445 E.01461
G1 X125.157 Y91.365 E.01461
;WIDTH:0.466045
G1 X124.917 Y91.253 E.00932
;WIDTH:0.512091
G1 X124.678 Y91.141 E.0103
;WIDTH:0.558136
G1 X124.438 Y91.029 E.01135
;WIDTH:0.573705
G1 X124.121 Y90.663 E.02137
G1 X124.077 Y90.51 E.00703
;WIDTH:0.535279
G1 X124.034 Y90.357 E.00651
;WIDTH:0.496852
G1 X123.991 Y90.204 E.006
;WIDTH:0.458426
G1 X123.978 Y90.158 E.00165
M204 S1000
G1 X123.978 Y90.158 F10800
G1 X124.319 Y89.985
M204 S800
;TYPE:External perimeter
;WIDTH:0.419999
G1 F1200
G1 X124.279 Y89.636 E.01101
G1 X124.334 Y89.272 E.01154
G1 X124.481 Y88.934 E.01156
G1 X124.71 Y88.646 E.01154
G1 X125.1 Y88.388 E.01466
G1 X125.348 Y88.292 E.00834
G1 X125.67 Y88.255 E.01016
G1 X126.078 Y88.304 E.01288
G1 X126.416 Y88.451 E.01156
G1 X126.704 Y88.681 E.01156
G1 X126.923 Y88.977 E.01154
G1 X127.058 Y89.319 E.01153
G1 X127.1 Y89.685 E.01155
G1 X127.046 Y90.049 E.01154
G1 X126.899 Y90.387 E.01156
G1 X126.67 Y90.675 E.01154
G1 X126.374 Y90.894 E.01154
G1 X126.031 Y91.029 E.01156
G1 X125.665 Y91.071 E.01155
G1 X125.301 Y91.016 E.01154
G1 X124.963 Y90.87 E.01154
G1 X124.675 Y90.64 E.01156
G1 X124.456 Y90.344 E.01154
G1 X124.337 Y90.042 E.01018
M204 S1000
;WIPE_START
G1 F8640
G1 X124.319 Y89.985 E-.0138
G1 X124.279 Y89.636 E-.08111
G1 X124.334 Y89.272 E-.085
G1 X124.481 Y88.934 E-.08511
G1 X124.71 Y88.646 E-.08496
G1 X125.1 Y88.388 E-.10797
G1 X125.348 Y88.292 E-.0614
G1 X125.67 Y88.255 E-.07484
G1 X126.078 Y88.304 E-.09489
G1 X126.416 Y88.451 E-.08511
G1 X126.503 Y88.521 E-.02581
;WIPE_END
G1 Z.6 F720
G1 X126.716 Y82.838 F10800
G1 Z.2 F720
G1 E.8 F2100
M204 S800
;TYPE:Perimeter
G1 F1200
G1 X126.742 Y82.91 E.0024
G1 X126.784 Y83.374 E.01461
G1 X126.704 Y83.833 E.01461
G1 X126.508 Y84.256 E.01462
G1 X126.209 Y84.614 E.01462
G1 X125.828 Y84.882 E.01461
G1 X125.39 Y85.042 E.01462
G1 X124.926 Y85.084 E.01461
G1 X124.467 Y85.004 E.01461
G1 X124.044 Y84.808 E.01462
G1 X123.664 Y84.481 E.01572
G1 X123.418 Y84.128 E.01349
G1 X123.258 Y83.69 E.01462
G1 X123.216 Y83.226 E.01461
G1 X123.296 Y82.767 E.01461
G1 X123.492 Y82.344 E.01462
G1 X123.791 Y81.986 E.01462
G1 X124.172 Y81.718 E.01461
G1 X124.61 Y81.558 E.01462
G1 X125.074 Y81.516 E.01461
G1 X125.533 Y81.596 E.01461
G1 X125.956 Y81.792 E.01462
G1 X126.314 Y82.091 E.01462
G1 X126.582 Y82.472 E.01461
G1 X126.695 Y82.781 E.01032
M204 S1000
G1 X126.695 Y82.781 F10800
G1 X126.403 Y83.263
M204 S800
;TYPE:External perimeter
G1 F1200
G1 X126.41 Y83.325 E.00196
G1 X126.356 Y83.689 E.01154
G1 X126.209 Y84.026 E.01153
G1 X125.98 Y84.315 E.01156
G1 X125.684 Y84.534 E.01154
G1 X125.341 Y84.669 E.01156
G1 X124.975 Y84.71 E.01155
G1 X124.611 Y84.656 E.01154
G1 X124.274 Y84.509 E.01153
G1 X123.963 Y84.251 E.01267
G1 X123.766 Y83.984 E.0104
G1 X123.631 Y83.641 E.01156
G1 X123.59 Y83.275 E.01155
G1 X123.644 Y82.911 E.01154
G1 X123.791 Y82.574 E.01153
G1 X124.02 Y82.285 E.01156
G1 X124.316 Y82.066 E.01154
G1 X124.659 Y81.931 E.01156
G1 X125.025 Y81.89 E.01155
G1 X125.389 Y81.944 E.01154
G1 X125.726 Y82.091 E.01153
G1 X126.015 Y82.32 E.01156
G1 X126.234 Y82.616 E.01154
G1 X126.369 Y82.959 E.01156
G1 X126.396 Y83.203 E.0077
M204 S1000
;WIPE_START
G1 F8640
G1 X126.403 Y83.263 E-.01395
G1 X126.41 Y83.325 E-.01441
G1 X126.356 Y83.689 E-.08497
G1 X126.209 Y84.026 E-.0849
G1 X125.98 Y84.315 E-.08514
G1 X125.684 Y84.534 E-.08502
G1 X125.341 Y84.669 E-.08511
G1 X124.975 Y84.71 E-.08504
G1 X124.611 Y84.656 E-.08497
G1 X124.274 Y84.509 E-.0849
G1 X123.969 Y84.256 E-.09159
;WIPE_END
G1 Z.6 F720
G1 X138.428 Y92.94 F10800
G1 Z.2 F720
G1 E.8 F2100
M204 S800
;TYPE:Perimeter
G1 F1200
G1 X138.047 Y92.799 E.01274
G1 X137.614 Y92.491 E.01666
G1 X137.275 Y92.081 E.01668
G1 X137.054 Y91.598 E.01665
G1 X136.966 Y91.074 E.01666
G1 X137.016 Y90.545 E.01666
G1 X137.201 Y90.047 E.01666
G1 X137.509 Y89.614 E.01666
G1 X137.919 Y89.275 E.01668
G1 X138.402 Y89.054 E.01665
G1 X138.926 Y88.966 E.01666
G1 X139.455 Y89.016 E.01666
G1 X139.926 Y89.19 E.01574
G1 X140.386 Y89.509 E.01755
G1 X140.725 Y89.919 E.01668
G1 X140.946 Y90.402 E.01665
G1 X141.034 Y90.926 E.01666
G1 X140.984 Y91.455 E.01666
G1 X140.799 Y91.953 E.01666
G1 X140.491 Y92.386 E.01666
G1 X140.081 Y92.725 E.01668
G1 X139.598 Y92.946 E.01665
G1 X139.074 Y93.034 E.01666
G1 X138.545 Y92.984 E.01666
G1 X138.484 Y92.961 E.00204
M204 S1000
G1 X138.484 Y92.961 F10800
G1 X138.568 Y92.601
M204 S800
;TYPE:External perimeter
G1 F1200
G1 X138.547 Y92.597 E.00067
G1 X138.191 Y92.45 E.01208
G1 X137.809 Y92.157 E.01509
G1 X137.55 Y91.809 E.0136
G1 X137.39 Y91.406 E.0136
G1 X137.34 Y90.975 E.0136
G1 X137.403 Y90.547 E.01356
G1 X137.574 Y90.149 E.01358
G1 X137.843 Y89.809 E.01359
G1 X138.191 Y89.55 E.0136
G1 X138.594 Y89.39 E.0136
G1 X139.025 Y89.34 E.0136
G1 X139.453 Y89.403 E.01356
G1 X139.851 Y89.574 E.01358
G1 X140.191 Y89.843 E.01359
G1 X140.45 Y90.191 E.0136
G1 X140.61 Y90.594 E.0136
G1 X140.66 Y91.025 E.0136
G1 X140.597 Y91.453 E.01356
G1 X140.426 Y91.851 E.01358
G1 X140.157 Y92.191 E.01359
G1 X139.809 Y92.45 E.0136
G1 X139.406 Y92.61 E.0136
G1 X138.975 Y92.66 E.0136
G1 X138.627 Y92.609 E.01103
M204 S1000
;WIPE_START
G1 F8640
G1 X138.568 Y92.601 E-.01375
G1 X138.547 Y92.597 E-.00494
G1 X138.191 Y92.45 E-.08893
G1 X137.809 Y92.157 E-.11116
G1 X137.55 Y91.809 E-.10017
G1 X137.39 Y91.406 E-.10012
G1 X137.34 Y90.975 E-.10019
G1 X137.403 Y90.547 E-.09989
G1 X137.574 Y90.149 E-.10002
G1 X137.792 Y89.874 E-.08083
;WIPE_END
G1 Z.6 F720
G1 X138.882 Y104.118 F10800
G1 Z.2 F720
G1 E.8 F2100
M204 S800
;TYPE:Perimeter
;WIDTH:0.417973
G1 F1200
G1 X138.894 Y104.035 E.00262
;WIDTH:0.419999
G1 X139.089 Y103.612 E.0146
G1 X139.388 Y103.254 E.01462
G1 X139.769 Y102.986 E.01461
G1 X140.206 Y102.825 E.0146
G1 X140.615 Y102.787 E.01288
G1 X141.13 Y102.863 E.01632
G1 X141.553 Y103.059 E.01462
G1 X141.911 Y103.358 E.01462
G1 X142.179 Y103.74 E.01463
G1 X142.339 Y104.177 E.01459
G1 X142.381 Y104.642 E.01464
G1 X142.301 Y105.101 E.01461
G1 X142.105 Y105.524 E.01462
G1 X141.806 Y105.881 E.0146
G1 X141.425 Y106.15 E.01462
G1 X140.987 Y106.31 E.01462
G1 X140.523 Y106.352 E.01461
G1 X140.064 Y106.272 E.01461
G1 X139.641 Y106.076 E.01462
G1 X139.283 Y105.777 E.01462
G1 X139.015 Y105.396 E.01461
G1 X138.893 Y105.101 E.01001
;WIDTH:0.419063
G1 X138.822 Y104.568 E.01682
;WIDTH:0.417973
G1 X138.874 Y104.177 E.0123
M204 S1000
G1 X138.874 Y104.177 F10800
G1 X139.236 Y104.211
M204 S800
;TYPE:External perimeter
;WIDTH:0.419999
G1 F1200
G1 X139.241 Y104.179 E.00102
G1 X139.388 Y103.841 E.01156
G1 X139.617 Y103.553 E.01154
G1 X139.913 Y103.334 E.01154
G1 X140.256 Y103.199 E.01156
G1 X140.577 Y103.162 E.01013
G1 X140.985 Y103.212 E.01289
G1 X141.323 Y103.359 E.01156
G1 X141.612 Y103.588 E.01156
G1 X141.831 Y103.884 E.01154
G1 X141.966 Y104.226 E.01153
G1 X142.007 Y104.592 E.01155
G1 X141.953 Y104.956 E.01154
G1 X141.806 Y105.294 E.01156
G1 X141.577 Y105.582 E.01154
G1 X141.281 Y105.801 E.01154
G1 X140.938 Y105.936 E.01156
G1 X140.572 Y105.978 E.01155
G1 X140.208 Y105.924 E.01154
G1 X139.87 Y105.777 E.01156
G1 X139.582 Y105.548 E.01154
G1 X139.363 Y105.252 E.01154
G1 X139.241 Y104.956 E.01004
G1 X139.187 Y104.543 E.01306
G1 X139.227 Y104.27 E.00865
M204 S1000
;WIPE_START
G1 F8640
G1 X139.236 Y104.211 E-.01378
G1 X139.241 Y104.179 E-.00748
G1 X139.388 Y103.841 E-.08511
G1 X139.617 Y103.553 E-.08496
G1 X139.913 Y103.334 E-.08502
G1 X140.256 Y103.199 E-.08511
G1 X140.577 Y103.162 E-.07461
G1 X140.985 Y103.212 E-.09491
G1 X141.323 Y103.359 E-.08511
G1 X141.612 Y103.588 E-.08514
G1 X141.831 Y103.884 E-.08502
G1 X141.853 Y103.939 E-.01375
;WIPE_END
G1 Z.6 F720
G1 X137.532 Y120.394 F10800
G1 Z.2 F720
G1 E.8 F2100
M204 S800
;TYPE:Perimeter
G1 F1200
G1 X137.275 Y120.081 E.0127
G1 X137.054 Y119.598 E.01665
G1 X137.016 Y119.455 E.00464
G1 X136.966 Y118.926 E.01666
G1 X137.054 Y118.402 E.01666
G1 X137.275 Y117.919 E.01665
G1 X137.614 Y117.509 E.01668
G1 X138.047 Y117.201 E.01666
G1 X138.545 Y117.016 E.01666
G1 X139.074 Y116.966 E.01666
G1 X139.598 Y117.054 E.01666
G1 X140.081 Y117.275 E.01665
G1 X140.491 Y117.614 E.01668
G1 X140.79 Y118.027 E.01599
G1 X140.98 Y118.521 E.0166
G1 X141.034 Y119.074 E.01742
G1 X140.954 Y119.576 E.01594
G1 X140.748 Y120.049 E.01618
G1 X140.415 Y120.467 E.01676
G1 X139.983 Y120.785 E.01682
G1 X139.484 Y120.979 E.01679
G1 X138.978 Y121.039 E.01598
G1 X138.482 Y120.972 E.01569
G1 X138.012 Y120.783 E.01588
G1 X137.607 Y120.485 E.01577
G1 X137.57 Y120.44 E.00183
M204 S1000
G1 X137.57 Y120.44 F10800
G1 X137.793 Y120.135
M204 S800
;TYPE:External perimeter
G1 F1200
G1 X137.55 Y119.809 E.01275
G1 X137.39 Y119.406 E.0136
G1 X137.34 Y118.975 E.0136
G1 X137.403 Y118.547 E.01356
G1 X137.574 Y118.149 E.01358
G1 X137.843 Y117.809 E.01359
G1 X138.191 Y117.55 E.0136
G1 X138.594 Y117.39 E.0136
G1 X139.025 Y117.34 E.0136
G1 X139.454 Y117.403 E.0136
G1 X139.851 Y117.574 E.01355
G1 X140.191 Y117.843 E.01359
G1 X140.45 Y118.191 E.0136
G1 X140.61 Y118.594 E.0136
G1 X140.66 Y119.025 E.0136
G1 X140.597 Y119.453 E.01356
G1 X140.426 Y119.851 E.01358
G1 X140.157 Y120.191 E.01359
G1 X139.781 Y120.461 E.01451
G1 X139.372 Y120.615 E.0137
G1 X138.975 Y120.66 E.01253
G1 X138.547 Y120.597 E.01356
G1 X138.149 Y120.426 E.01358
G1 X137.835 Y120.177 E.01257
M204 S1000
;WIPE_START
G1 F8640
G1 X137.793 Y120.135 E-.01371
G1 X137.55 Y119.809 E-.09389
G1 X137.39 Y119.406 E-.10012
G1 X137.34 Y118.975 E-.10019
G1 X137.403 Y118.547 E-.09989
G1 X137.574 Y118.149 E-.10002
G1 X137.843 Y117.809 E-.10011
G1 X138.191 Y117.55 E-.10017
G1 X138.561 Y117.403 E-.0919
;WIPE_END
G1 Z.6 F720
G1 X124.998 Y128.478 F10800
G1 Z.2 F720
G1 E.8 F2100
M204 S800
;TYPE:Perimeter
G1 F1200
G1 X124.926 Y128.484 E.00227
G1 X124.467 Y128.404 E.01461
G1 X124.044 Y128.208 E.01462
G1 X123.686 Y127.909 E.01462
G1 X123.418 Y127.528 E.01461
G1 X123.258 Y127.09 E.01462
G1 X123.216 Y126.626 E.01461
G1 X123.296 Y126.167 E.01461
G1 X123.492 Y125.744 E.01462
G1 X123.791 Y125.386 E.01462
G1 X124.172 Y125.118 E.01461
G1 X124.61 Y124.958 E.01462
G1 X125 Y124.911 E.01232
G1 X125.533 Y124.996 E.01692
G1 X125.956 Y125.192 E.01462
G1 X126.314 Y125.491 E.01462
G1 X126.582 Y125.872 E.01461
G1 X126.742 Y126.31 E.01462
G1 X126.784 Y126.774 E.01461
G1 X126.704 Y127.233 E.01461
G1 X126.508 Y127.656 E.01462
G1 X126.209 Y128.014 E.01462
G1 X125.828 Y128.282 E.01461
G1 X125.39 Y128.442 E.01462
G1 X125.058 Y128.472 E.01045
M204 S1000
G1 X125.058 Y128.472 F10800
G1 X124.94 Y128.105
M204 S800
;TYPE:External perimeter
G1 F1200
