; generated by PrusaSlicer 2.7.4+win64 on 2024-08-13 at 22:57:21 UTC


;
;
; 

; external perimeters extrusion width = 0.45mm
; perimeters extrusion width = 0.45mm
; infill extrusion width = 0.45mm
; solid infill extrusion width = 0.45mm
; top infill extrusion width = 0.40mm
; support material extrusion width = 0.35mm
; first layer extrusion width = 0.42mm

M73 P0 R76
M73 Q0 S77
M201 X1000 Y1000 Z200 E5000 ; sets maximum accelerations, mm/sec^2
M203 X200 Y200 Z12 E120 ; sets maximum feedrates, mm / sec
M204 S1250 T1250 ; sets acceleration (S) and retract acceleration (R), mm/sec^2
M205 X8.00 Y8.00 Z0.40 E4.50 ; sets the jerk limits, mm/sec
M205 S0 T0 ; sets the minimum extruding and travel feed rate, mm/sec

; printing object BottomBoardMetalServo.stl id:0 copy 0
; stop printing object BottomBoardMetalServo.stl id:0 copy 0

;TYPE:Custom
M862.3 P "MK3S" ; printer model check
M862.1 P0.4 ; nozzle diameter check
M115 U3.13.3 ; tell printer latest fw version
G90 ; use absolute coordinates
M83 ; extruder relative mode
M104 S215 ; set extruder temp
M140 S60 ; set bed temp
M190 S60 ; wait for bed temp
M109 S215 ; wait for extruder temp
G28 W ; home all without mesh bed level
G80 X47.4344 Y69.2344 W155.131 H71.5312 ; mesh bed levelling

G1 Z0.2 F720
G1 Y-3 F1000 ; go outside print area
G92 E0
G1 X60 E9 F1000 ; intro line
G1 X100 E12.5 F1000 ; intro line

G92 E0
M221 S95

; Don't change E values below. Excessive value can damage the printer.
M907 E430 ; set extruder motor current
G21 ; set units to millimeters
G90 ; use absolute coordinates
M83 ; use relative distances for extrusion

M900 K0.05 ; Filament gcode LA 1.5
M900 K30 ; Filament gcode LA 1.0




M107
;LAYER_CHANGE
;Z:0.2
;HEIGHT:0.2
G1 E-.8 F2100
G1 Z.6 F720
G1 X49.611 Y70.63 F10800
G1 Z.2 F720
G1 E.8 F2100
M204 S800
;TYPE:Skirt/Brim
;WIDTH:0.42
G1 F1200
G1 X50.239 Y70.19 E.02404
G1 X50.923 Y69.844 E.02403
G1 X52.068 Y69.508 E.03741
G1 X53 Y69.423 E.02934
G1 X197.17 Y69.429 E4.52035
G1 X198.35 Y69.599 E.03738
G1 X199.385 Y69.985 E.03464
G1 X200.046 Y70.373 E.02403
G1 X200.948 Y71.155 E.03743
G1 X201.427 Y71.754 E.02405
G1 X201.956 Y72.723 E.03461
G1 X202.292 Y73.868 E.03741
G1 X202.377 Y74.8 E.02934
G1 X202.371 Y135.37 E1.89913
G1 X202.292 Y136.132 E.02402
G1 X202.106 Y136.876 E.02405
G1 X201.815 Y137.585 E.02403
G1 X201.427 Y138.246 E.02403
G1 X200.948 Y138.845 E.02405
G1 X200.389 Y139.37 E.02405
G1 X199.761 Y139.81 E.02404
G1 X199.077 Y140.156 E.02403
G1 X197.932 Y140.492 E.03741
G1 X197 Y140.577 E.02934
G1 X53 Y140.577 E4.51502
G1 X52.068 Y140.492 E.02934
M73 Q0 S76
G1 X51.324 Y140.306 E.02405
G1 X50.615 Y140.015 E.02403
G1 X49.954 Y139.627 E.02403
G1 X49.355 Y139.148 E.02405
G1 X48.83 Y138.589 E.02405
G1 X48.39 Y137.961 E.02404
G1 X48.044 Y137.277 E.02403
G1 X47.708 Y136.132 E.03741
G1 X47.623 Y135.2 E.02934
G1 X47.629 Y74.63 E1.89913
G1 X47.708 Y73.868 E.02402
G1 X47.894 Y73.124 E.02405
G1 X48.185 Y72.415 E.02403
G1 X48.573 Y71.754 E.02403
G1 X49.052 Y71.155 E.02405
G1 X49.567 Y70.671 E.02216
M204 S1000
;WIPE_START
G1 F8640
G1 X49.611 Y70.63 E-.01389
G1 X50.239 Y70.19 E-.17706
G1 X50.923 Y69.844 E-.17699
G1 X52.068 Y69.508 E-.27553
G1 X52.743 Y69.446 E-.15653
;WIPE_END
G1 Z.6 F720
; printing object BottomBoardMetalServo.stl id:0 copy 0
G1 X130.29 Y126.72 F10800
G1 Z.2 F720
G1 E.8 F2100
M204 S800
;TYPE:Support material
G1 F1200
G1 X131.002 Y127.052 E.02463
G1 X131.341 Y127.456 E.01654
G1 X131.521 Y127.952 E.01654
G1 X131.521 Y128.479 E.01652
G1 X131.341 Y128.974 E.01651
G1 X131.002 Y129.378 E.01654
G1 X130.545 Y129.642 E.01655
G1 X129.763 Y129.71 E.02461
G1 X129.267 Y129.53 E.01654
G1 X128.863 Y129.191 E.01654
G1 X128.531 Y128.479 E.02463
G1 X128.531 Y127.952 E.01652
G1 X128.711 Y127.456 E.01654
G1 X129.05 Y127.052 E.01654
G1 X129.507 Y126.789 E.01653
G1 X130.233 Y126.715 E.02288
M204 S1000
G1 X130.233 Y126.715 F10800
G1 X130.866 Y129.266
M204 S800
G1 F1200
G1 X130.866 Y127.396 E.05863
G1 X130.447 Y127.117 E.01578
G1 X130.447 Y129.313 E.06885
G1 X130.028 Y129.393 E.01337
G1 X130.028 Y127.038 E.07384
G1 X129.609 Y127.116 E.01336
G1 X129.609 Y129.315 E.06895
G1 X129.19 Y129.038 E.01575
G1 X129.19 Y127.162 E.05882
M204 S1000
;WIPE_START
G1 F8640
G1 X129.19 Y129.038 E-.43317
G1 X129.609 Y129.315 E-.11598
G1 X129.609 Y128.228 E-.25085
;WIPE_END
G1 Z.6 F720
G1 X120.237 Y80.29 F10800
G1 Z.2 F720
G1 E.8 F2100
M204 S800
G1 F1200
G1 X120.733 Y80.47 E.01654
G1 X121.137 Y80.809 E.01654
G1 X121.469 Y81.521 E.02463
G1 X121.469 Y82.048 E.01652
G1 X121.137 Y82.761 E.02466
G1 X120.733 Y83.1 E.01654
G1 X120.237 Y83.28 E.01654
G1 X119.71 Y83.28 E.01652
G1 X118.998 Y82.948 E.02463
G1 X118.659 Y82.544 E.01654
G1 X118.479 Y82.048 E.01654
G1 X118.479 Y81.521 E.01652
G1 X118.659 Y81.026 E.01651
G1 X118.998 Y80.622 E.01654
G1 X119.455 Y80.358 E.01655
G1 X120.181 Y80.285 E.02288
M204 S1000
G1 X120.181 Y80.285 F10800
G1 X120.81 Y82.838
M204 S800
G1 F1200
G1 X120.81 Y80.962 E.05882
G1 X120.391 Y80.685 E.01575
G1 X120.391 Y82.884 E.06895
G1 X119.972 Y82.962 E.01336
M73 P0 R75
G1 X119.972 Y80.607 E.07384
G1 X119.553 Y80.687 E.01337
G1 X119.553 Y82.883 E.06885
G1 X119.134 Y82.604 E.01578
G1 X119.134 Y80.734 E.05863
M204 S1000
;WIPE_START
G1 F8640
G1 X119.134 Y82.604 E-.43179
G1 X119.553 Y82.883 E-.11623
G1 X119.553 Y81.792 E-.25198
;WIPE_END
G1 Z.6 F720
G1 X70.237 Y80.312 F10800
G1 Z.2 F720
G1 E.8 F2100
M204 S800
G1 F1200
G1 X70.733 Y80.492 E.01654
G1 X71.137 Y80.831 E.01654
G1 X71.4 Y81.287 E.01651
G1 X71.469 Y82.07 E.02465
G1 X71.288 Y82.566 E.01655
G1 X70.949 Y82.97 E.01654
G1 X70.237 Y83.302 E.02463
G1 X69.71 Y83.302 E.01652
G1 X69.214 Y83.121 E.01655
G1 X68.811 Y82.783 E.01649
G1 X68.478 Y82.07 E.02467
G1 X68.478 Y81.543 E.01652
G1 X68.659 Y81.048 E.01653
G1 X68.998 Y80.644 E.01654
G1 X69.454 Y80.38 E.01652
G1 X70.181 Y80.307 E.02291
M204 S1000
G1 X70.181 Y80.307 F10800
G1 X70.952 Y82.727
M204 S800
G1 F1200
G1 X70.952 Y81.159 E.04916
G1 X70.533 Y80.773 E.01786
G1 X70.533 Y82.84 E.06481
G1 X70.114 Y82.972 E.01377
G1 X70.114 Y80.641 E.07309
G1 X69.974 Y80.629 E.00441
G1 X69.695 Y80.667 E.00883
G1 X69.695 Y82.946 E.07146
G1 X69.276 Y82.75 E.0145
G1 X69.276 Y80.863 E.05917
G1 X69.072 Y81.05 E.00868
G1 X68.857 Y81.441 E.01399
G1 X68.857 Y82.553 E.03487
M204 S1000
;WIPE_START
G1 F8640
G1 X68.857 Y81.441 E-.25676
G1 X69.072 Y81.05 E-.10303
G1 X69.276 Y80.863 E-.0639
G1 X69.276 Y82.493 E-.37631
;WIPE_END
G1 Z.6 F720
G1 X180.29 Y126.698 F10800
G1 Z.2 F720
G1 E.8 F2100
M204 S800
G1 F1200
G1 X181.002 Y127.03 E.02463
G1 X181.341 Y127.434 E.01654
G1 X181.522 Y127.93 E.01655
G1 X181.522 Y128.457 E.01652
G1 X181.341 Y128.952 E.01653
G1 X181.002 Y129.356 E.01654
G1 X180.546 Y129.62 E.01652
G1 X179.763 Y129.688 E.02464
G1 X179.267 Y129.508 E.01654
G1 X178.863 Y129.169 E.01654
G1 X178.6 Y128.713 E.01651
G1 X178.531 Y127.93 E.02465
G1 X178.712 Y127.434 E.01655
G1 X179.051 Y127.03 E.01654
G1 X179.507 Y126.767 E.01651
G1 X180.234 Y126.693 E.02291
M204 S1000
G1 X180.234 Y126.693 F10800
G1 X181.143 Y128.94
M204 S800
G1 F1200
G1 X181.143 Y127.828 E.03487
G1 X180.928 Y127.436 E.01402
G1 X180.724 Y127.25 E.00866
G1 X180.724 Y129.137 E.05917
G1 X180.305 Y129.333 E.0145
G1 X180.305 Y127.054 E.07146
G1 X180.026 Y127.016 E.00883
G1 X179.886 Y127.028 E.00441
G1 X179.886 Y129.359 E.07309
G1 X179.467 Y129.227 E.01377
G1 X179.467 Y127.16 E.06481
G1 X179.048 Y127.546 E.01786
G1 X179.048 Y129.114 E.04916
M204 S1000
;WIPE_START
G1 F8640
G1 X179.048 Y127.546 E-.36206
G1 X179.467 Y127.16 E-.13155
G1 X179.467 Y128.487 E-.30639
;WIPE_END
G1 Z.6 F720
G1 X199.038 Y73.964 F10800
G1 Z.2 F720
G1 E.8 F2100
M204 S800
;TYPE:Perimeter
;WIDTH:0.419999
G1 F1200
G1 X199.155 Y74.331 E.01208
G1 X199.213 Y74.911 E.01828
G1 X199.213 Y135.089 E1.88684
G1 X199.207 Y135.255 E.00521
G1 X199.121 Y135.823 E.01801
G1 X198.86 Y136.395 E.01971
G1 X198.448 Y136.871 E.01974
G1 X197.918 Y137.211 E.01974
G1 X197.469 Y137.355 E.01478
G1 X196.972 Y137.413 E.01569
G1 X53.111 Y137.413 E4.51065
G1 X52.945 Y137.407 E.00521
M73 P1 R75
M73 Q1 S76
G1 X52.377 Y137.321 E.01801
G1 X51.805 Y137.06 E.01971
G1 X51.329 Y136.648 E.01974
G1 X50.989 Y136.118 E.01974
G1 X50.845 Y135.669 E.01478
G1 X50.787 Y135.172 E.01569
G1 X50.787 Y74.911 E1.88944
G1 X50.793 Y74.745 E.00521
G1 X50.879 Y74.177 E.01801
G1 X51.14 Y73.605 E.01971
G1 X51.552 Y73.129 E.01974
G1 X52.082 Y72.789 E.01974
G1 X52.531 Y72.645 E.01478
G1 X53.028 Y72.587 E.01569
G1 X196.889 Y72.588 E4.51065
G1 X197.061 Y72.593 E.0054
G1 X197.623 Y72.679 E.01783
G1 X198.195 Y72.94 E.01971
G1 X198.671 Y73.352 E.01974
G1 X199.011 Y73.882 E.01974
G1 X199.019 Y73.907 E.00082
M204 S1000
G1 X199.019 Y73.907 F10800
G1 X199.395 Y73.85
M204 S800
;TYPE:External perimeter
G1 F1200
G1 X199.523 Y74.251 E.0132
G1 X199.59 Y74.911 E.0208
G1 X199.59 Y135.089 E1.88684
G1 X199.576 Y135.384 E.00926
G1 X199.484 Y135.929 E.01733
G1 X199.266 Y136.438 E.01736
G1 X198.957 Y136.895 E.0173
G1 X198.548 Y137.267 E.01733
G1 X198.075 Y137.555 E.01736
G1 X197.549 Y137.723 E.01731
G1 X196.985 Y137.79 E.01781
G1 X53.111 Y137.79 E4.51106
G1 X52.816 Y137.776 E.00926
G1 X52.271 Y137.684 E.01733
G1 X51.762 Y137.466 E.01736
G1 X51.305 Y137.157 E.0173
G1 X50.933 Y136.748 E.01733
G1 X50.645 Y136.275 E.01736
G1 X50.477 Y135.749 E.01731
G1 X50.41 Y135.185 E.01781
G1 X50.41 Y74.911 E1.88985
G1 X50.424 Y74.616 E.00926
G1 X50.516 Y74.071 E.01733
G1 X50.734 Y73.562 E.01736
G1 X51.043 Y73.105 E.0173
G1 X51.452 Y72.733 E.01733
G1 X51.925 Y72.445 E.01736
G1 X52.451 Y72.277 E.01731
G1 X53.015 Y72.21 E.01781
G1 X196.889 Y72.211 E4.51106
G1 X197.184 Y72.224 E.00926
G1 X197.729 Y72.316 E.01733
G1 X198.238 Y72.534 E.01736
G1 X198.695 Y72.843 E.0173
G1 X199.067 Y73.252 E.01733
G1 X199.355 Y73.725 E.01736
G1 X199.377 Y73.793 E.00224
M204 S1000
;WIPE_START
G1 F8640
G1 X199.395 Y73.85 E-.0138
G1 X199.523 Y74.251 E-.09719
G1 X199.59 Y74.911 E-.15318
G1 X199.59 Y77.232 E-.53583
;WIPE_END
G1 Z.6 F720
G1 X181.692 Y125.975 F10800
G1 Z.2 F720
G1 E.8 F2100
M204 S800
;TYPE:Perimeter
G1 F1200
G1 X182.124 Y126.362 E.01819
G1 X182.463 Y126.843 E.01845
G1 X182.661 Y127.287 E.01524
G1 X182.778 Y127.758 E.01522
G1 X182.812 Y128.243 E.01524
G1 X182.761 Y128.726 E.01523
G1 X182.584 Y129.285 E.01838
G1 X182.414 Y129.629 E.01203
G1 X182.129 Y130.022 E.01522
G1 X181.811 Y130.329 E.01386
G1 X181.377 Y130.63 E.01656
G1 X180.933 Y130.828 E.01524
G1 X180.462 Y130.945 E.01522
G1 X179.977 Y130.979 E.01524
G1 X179.494 Y130.928 E.01523
G1 X179.027 Y130.794 E.01523
G1 X178.591 Y130.581 E.01521
G1 X178.198 Y130.296 E.01522
G1 X177.89 Y129.978 E.01388
G1 X177.589 Y129.544 E.01656
G1 X177.392 Y129.1 E.01523
G1 X177.274 Y128.629 E.01522
G1 X177.241 Y128.144 E.01524
G1 X177.292 Y127.661 E.01523
G1 X177.426 Y127.194 E.01523
G1 X177.639 Y126.757 E.01524
G1 X177.929 Y126.362 E.01536
G1 X178.356 Y125.979 E.01798
G1 X138.992 Y125.987 E1.23423
G1 X138.478 Y125.951 E.01616
M73 Q1 S75
G1 X137.972 Y125.844 E.01622
G1 X137.494 Y125.672 E.01593
G1 X137.011 Y125.42 E.01708
G1 X136.572 Y125.104 E.01696
G1 X136.182 Y124.727 E.01701
G1 X135.846 Y124.294 E.01718
G1 X135.573 Y123.81 E.01742
G1 X135.379 Y123.305 E.01696
G1 X135.258 Y122.779 E.01692
G1 X135.213 Y122.22 E.01758
G1 X135.213 Y88.192 E1.06692
G1 X135.251 Y87.662 E.01666
G1 X135.356 Y87.172 E.01571
G1 X135.539 Y86.664 E.01693
G1 X135.793 Y86.187 E.01694
G1 X136.112 Y85.751 E.01694
G1 X136.49 Y85.365 E.01694
G1 X136.919 Y85.037 E.01693
G1 X137.39 Y84.773 E.01693
G1 X137.895 Y84.579 E.01696
G1 X138.421 Y84.458 E.01692
G1 X138.992 Y84.413 E.01796
G1 X189.008 Y84.413 E1.56821
G1 X189.579 Y84.458 E.01796
G1 X190.105 Y84.579 E.01692
G1 X190.61 Y84.773 E.01696
G1 X191.081 Y85.037 E.01693
G1 X191.51 Y85.365 E.01693
G1 X191.888 Y85.751 E.01694
G1 X192.207 Y86.187 E.01694
G1 X192.461 Y86.664 E.01694
G1 X192.644 Y87.172 E.01693
G1 X192.753 Y87.701 E.01693
G1 X192.787 Y88.192 E.01543
G1 X192.787 Y122.208 E1.06655
G1 X192.746 Y122.756 E.01723
M73 Q2 S75
G1 X192.621 Y123.305 E.01765
G1 X192.427 Y123.81 E.01696
G1 X192.163 Y124.281 E.01693
G1 X191.835 Y124.71 E.01693
G1 X191.449 Y125.088 E.01694
G1 X191.013 Y125.407 E.01694
G1 X190.568 Y125.648 E.01587
M73 P2 R75
G1 X190.028 Y125.844 E.01801
G1 X189.499 Y125.953 E.01693
G1 X189.008 Y125.987 E.01543
G1 X181.752 Y125.976 E.22751
M204 S1000
;WIPE_START
G1 F8640
G1 X181.692 Y125.975 E-.01386
G1 X182.124 Y126.362 E-.13392
G1 X182.463 Y126.843 E-.13588
G1 X182.661 Y127.287 E-.11225
G1 X182.778 Y127.758 E-.11206
G1 X182.812 Y128.243 E-.11226
G1 X182.761 Y128.726 E-.11215
G1 X182.673 Y129.005 E-.06762
;WIPE_END
G1 Z.6 F720
G1 X180.058 Y125.514 F10800
G1 Z.2 F720
G1 E.8 F2100
M204 S800
;TYPE:External perimeter
;WIDTH:0.435856
G1 F1200
G1 X178.643 Y125.597 E.04631
;WIDTH:0.419999
G1 X177.239 Y125.61 E.04402
G1 X138.992 Y125.61 E1.19921
G1 X138.501 Y125.573 E.01544
M73 P2 R74
G1 X138.026 Y125.468 E.01525
G1 X137.571 Y125.296 E.01525
G1 X137.145 Y125.061 E.01525
G1 X136.757 Y124.768 E.01524
G1 X136.377 Y124.374 E.01716
G1 X136.124 Y124.032 E.01334
G1 X135.892 Y123.604 E.01526
G1 X135.724 Y123.148 E.01524
G1 X135.623 Y122.672 E.01526
G1 X135.59 Y122.212 E.01446
G1 X135.59 Y88.192 E1.06667
G1 X135.658 Y87.558 E.01999
G1 X135.839 Y86.939 E.02022
G1 X136.124 Y86.368 E.02001
G1 X136.423 Y85.966 E.01571
G1 X136.777 Y85.614 E.01565
G1 X137.168 Y85.324 E.01526
G1 X137.596 Y85.092 E.01526
G1 X138.052 Y84.924 E.01524
G1 X138.528 Y84.823 E.01526
G1 X138.992 Y84.79 E.01459
G1 X189.008 Y84.79 E1.56821
G1 X189.499 Y84.827 E.01544
G1 X189.974 Y84.932 E.01525
G1 X190.429 Y85.104 E.01525
G1 X190.855 Y85.339 E.01525
G1 X191.243 Y85.632 E.01524
G1 X191.586 Y85.977 E.01525
G1 X191.876 Y86.368 E.01526
G1 X192.108 Y86.796 E.01526
G1 X192.276 Y87.252 E.01524
G1 X192.377 Y87.728 E.01526
G1 X192.41 Y88.192 E.01459
G1 X192.41 Y122.208 E1.06655
G1 X192.373 Y122.699 E.01544
G1 X192.268 Y123.174 E.01525
G1 X192.096 Y123.629 E.01525
G1 X191.861 Y124.055 E.01525
G1 X191.568 Y124.443 E.01524
G1 X191.223 Y124.786 E.01525
G1 X190.832 Y125.076 E.01526
G1 X190.404 Y125.308 E.01526
G1 X189.948 Y125.476 E.01524
G1 X189.472 Y125.577 E.01526
G1 X189.008 Y125.61 E.01459
G1 X182.069 Y125.609 E.21757
G1 X181.399 Y125.59 E.02102
;WIDTH:0.431067
G1 X180.819 Y125.568 E.01873
G1 X180.118 Y125.513 E.02269
M204 S1000
;WIPE_START
G1 F8640
G1 X180.058 Y125.514 E-.01386
G1 X178.643 Y125.597 E-.32729
G1 X177.239 Y125.61 E-.3242
G1 X176.656 Y125.61 E-.13465
;WIPE_END
G1 Z.6 F720
G1 X132.633 Y129.184 F10800
G1 Z.2 F720
G1 E.8 F2100
M204 S800
;TYPE:Perimeter
;WIDTH:0.419999
G1 F1200
G1 X132.618 Y129.234 E.00164
G1 X132.414 Y129.651 E.01456
G1 X132.129 Y130.044 E.01522
G1 X131.779 Y130.381 E.01523
G1 X131.376 Y130.652 E.01523
G1 X130.933 Y130.85 E.01521
G1 X130.461 Y130.967 E.01525
G1 X129.977 Y131.001 E.01521
G1 X129.494 Y130.95 E.01523
G1 X129.027 Y130.816 E.01523
G1 X128.591 Y130.603 E.01521
G1 X128.198 Y130.317 E.01524
G1 X127.861 Y129.968 E.01521
G1 X127.589 Y129.565 E.01524
G1 X127.392 Y129.122 E.0152
G1 X127.274 Y128.65 E.01525
G1 X127.242 Y128.153 E.01562
G1 X127.291 Y127.683 E.01482
G1 X127.49 Y127.078 E.01997
G1 X127.638 Y126.78 E.01043
G1 X127.924 Y126.387 E.01524
G1 X128.273 Y126.049 E.01523
G1 X128.676 Y125.778 E.01523
G1 X129.12 Y125.581 E.01523
G1 X129.591 Y125.463 E.01522
G1 X130.032 Y125.432 E.01386
G1 X130.558 Y125.48 E.01656
G1 X131.025 Y125.614 E.01523
G1 X131.462 Y125.827 E.01524
G1 X131.855 Y126.113 E.01524
G1 X132.192 Y126.462 E.01521
G1 X132.463 Y126.865 E.01523
G1 X132.661 Y127.309 E.01524
G1 X132.778 Y127.78 E.01522
G1 X132.812 Y128.264 E.01521
G1 X132.761 Y128.747 E.01523
G1 X132.65 Y129.127 E.01241
M204 S1000
G1 X132.65 Y129.127 F10800
G1 X132.282 Y129.056
M204 S800
;TYPE:External perimeter
G1 F1200
G1 X132.276 Y129.075 E.00062
G1 X132.105 Y129.434 E.01247
G1 X131.862 Y129.777 E.01318
G1 X131.563 Y130.072 E.01317
G1 X131.217 Y130.311 E.01319
G1 X130.835 Y130.486 E.01317
G1 X130.429 Y130.591 E.01315
G1 X130.01 Y130.625 E.01318
G1 X129.592 Y130.586 E.01316
G1 X129.186 Y130.474 E.01321
G1 X128.807 Y130.294 E.01316
G1 X128.464 Y130.051 E.01318
G1 X128.169 Y129.752 E.01317
G1 X127.931 Y129.406 E.01317
G1 X127.756 Y129.024 E.01317
