; generated by PrusaSlicer 2.8.0+win64 on 2024-08-24 at 19:17:51 UTC


;
;
; 

; external perimeters extrusion width = 0.45mm
; perimeters extrusion width = 0.45mm
; infill extrusion width = 0.45mm
; solid infill extrusion width = 0.45mm
; top infill extrusion width = 0.40mm
; support material extrusion width = 0.35mm
; first layer extrusion width = 0.42mm

; external perimeters extrusion width = 0.45mm
; perimeters extrusion width = 0.45mm
; infill extrusion width = 0.45mm
; solid infill extrusion width = 0.45mm
; top infill extrusion width = 0.40mm
; support material extrusion width = 0.35mm
; first layer extrusion width = 0.42mm

; external perimeters extrusion width = 0.45mm
; perimeters extrusion width = 0.45mm
; infill extrusion width = 0.45mm
; solid infill extrusion width = 0.45mm
; top infill extrusion width = 0.40mm
; support material extrusion width = 0.35mm
; first layer extrusion width = 0.42mm

M73 P0 R46
M73 Q0 S46
M201 X1000 Y1000 Z200 E5000 ; sets maximum accelerations, mm/sec^2
M203 X200 Y200 Z12 E120 ; sets maximum feedrates, mm / sec
M204 S1250 T1250 ; sets acceleration (S) and retract acceleration (R), mm/sec^2
M205 X8.00 Y8.00 Z0.40 E4.50 ; sets the jerk limits, mm/sec
M205 S0 T0 ; sets the minimum extruding and travel feed rate, mm/sec

; printing object 新装载系统_按钮处 v26.stl_3 id:2 copy 0
; stop printing object 新装载系统_按钮处 v26.stl_3 id:2 copy 0
; printing object 新装载系统_按钮处 v26.stl_1 id:0 copy 0
; stop printing object 新装载系统_按钮处 v26.stl_1 id:0 copy 0
; printing object 新装载系统_按钮处 v26.stl_2 id:1 copy 0
; stop printing object 新装载系统_按钮处 v26.stl_2 id:1 copy 0

;TYPE:Custom
M862.3 P "MK3S" ; printer model check
M862.1 P0.4 ; nozzle diameter check
M115 U3.13.3 ; tell printer latest fw version
G90 ; use absolute coordinates
M83 ; extruder relative mode
M104 S215 ; set extruder temp
M140 S60 ; set bed temp
M190 S60 ; wait for bed temp
M109 S215 ; wait for extruder temp
G28 W ; home all without mesh bed level
G80 X97.8479 Y65.3114 W54.3042 H79.3773 ; mesh bed levelling

G1 Z0.2 F720
G1 Y-3 F1000 ; go outside print area
G92 E0
G1 X60 E9 F1000 ; intro line
G1 X100 E12.5 F1000 ; intro line

G92 E0
M221 S95

; Don't change E values below. Excessive value can damage the printer.
M907 E430 ; set extruder motor current
G21 ; set units to millimeters
G90 ; use absolute coordinates
M83 ; use relative distances for extrusion

M900 K0.05 ; Filament gcode LA 1.5
M900 K30 ; Filament gcode LA 1.0




M107
;LAYER_CHANGE
;Z:0.2
;HEIGHT:0.2
G1 E-.8 F2100
G1 Z.6 F720
G1 X108.554 Y85.958 F10800
G1 Z.2 F720
G1 E.8 F2100
M204 S800
;TYPE:Skirt/Brim
;WIDTH:0.42
G1 F1200
G1 X127.759 Y66.164 E.86474
G1 X129.329 Y65.5 E.05345
G1 X139.329 Y65.5 E.31354
G1 X140.578 Y65.891 E.04104
G1 X141.446 Y67.131 E.04746
G1 X151.891 Y106.825 E1.28694
G1 X151.964 Y107.382 E.01761
G1 X151.964 Y117.132 E.3057
G1 X151.63 Y118.293 E.03788
G1 X135.855 Y143.473 E.93164
G1 X134.861 Y144.324 E.04103
G1 X134 Y144.5 E.02755
G1 X116 Y144.5 E.56438
G1 X114.752 Y144.109 E.04101
G1 X114.145 Y143.473 E.02757
G1 X98.37 Y118.293 E.93164
G1 X98.036 Y117.132 E.03788
G1 X98.036 Y107.382 E.3057
G1 X98.266 Y106.407 E.03141
G1 X108.166 Y86.507 E.6969
G1 X108.52 Y86.007 E.01921
M204 S1000
;WIPE_START
G1 F8640
G1 X108.554 Y85.958 E-.01377
G1 X110.925 Y83.514 E-.78623
;WIPE_END
G1 Z.6 F720
; printing object 新装载系统_按钮处 v26.stl_2 id:1 copy 0
G1 X133.209 Y139.191 F10800
G1 Z.2 F720
G1 E.8 F2100
M204 S800
;TYPE:External perimeter
;WIDTH:0.440178
G1 F1200
G1 X133.229 Y139.229 E.00142
G1 X133.297 Y139.785 E.0185
G1 X133.229 Y140.395 E.02027
G1 X133.033 Y140.751 E.01342
;WIDTH:0.419999
G1 X132.809 Y140.981 E.01007
;WIDTH:0.467753
G1 X132.529 Y141.152 E.01159
;WIDTH:0.515507
G1 X132.249 Y141.323 E.01289
;WIDTH:0.522311
G1 X131.848 Y141.373 E.01611
G1 X131.504 Y141.319 E.01388
;WIDTH:0.505233
G1 X131.227 Y141.162 E.01224
;WIDTH:0.462616
G1 X130.95 Y141.005 E.01111
;WIDTH:0.419999
G1 X130.681 Y140.737 E.01191
G1 X130.505 Y140.448 E.01061
G1 X130.398 Y140.127 E.01061
G1 X130.365 Y139.79 E.01062
G1 X130.407 Y139.455 E.01059
G1 X130.524 Y139.137 E.01062
G1 X130.707 Y138.853 E.01059
G1 X130.95 Y138.618 E.0106
;WIDTH:0.468052
G1 X131.226 Y138.458 E.01128
;WIDTH:0.516104
G1 X131.503 Y138.299 E.01257
;WIDTH:0.523757
G1 X131.862 Y138.253 E.01447
G1 X132.246 Y138.307 E.0155
;WIDTH:0.501041
G1 X132.522 Y138.467 E.01215
;WIDTH:0.46052
G1 X132.799 Y138.627 E.01111
;WIDTH:0.42159
G1 X133.095 Y138.973 E.01434
;WIDTH:0.440178
G1 X133.181 Y139.137 E.00612
M204 S1000
;WIPE_START
G1 F8640
G1 X133.209 Y139.191 E-.01405
G1 X133.229 Y139.229 E-.00992
G1 X133.297 Y139.785 E-.12934
G1 X133.229 Y140.395 E-.14172
G1 X133.033 Y140.751 E-.09384
G1 X132.809 Y140.981 E-.07413
G1 X132.529 Y141.152 E-.07576
G1 X132.249 Y141.323 E-.07576
G1 X131.848 Y141.373 E-.09331
G1 X131.504 Y141.319 E-.0804
G1 X131.46 Y141.294 E-.01177
;WIPE_END
G1 Z.6 F720
G1 X116.776 Y140.122 F10800
G1 Z.2 F720
G1 E.8 F2100
M204 S800
;WIDTH:0.424066
G1 F1200
G1 X116.766 Y140.087 E.00115
G1 X116.766 Y139.536 E.01746
G1 X116.882 Y139.167 E.01226
;WIDTH:0.420057
G1 X117.061 Y138.894 E.01024
G1 X117.301 Y138.669 E.01032
G1 X117.591 Y138.507 E.01042
G1 X117.937 Y138.417 E.01121
G1 X118.229 Y138.405 E.00916
G1 X118.55 Y138.467 E.01025
G1 X118.849 Y138.601 E.01027
G1 X119.109 Y138.801 E.01029
G1 X119.315 Y139.055 E.01026
G1 X119.458 Y139.35 E.01028
G1 X119.528 Y139.812 E.01465
G1 X119.458 Y140.273 E.01462
G1 X119.291 Y140.605 E.01165
G1 X119.077 Y140.852 E.01025
G1 X118.811 Y141.044 E.01029
;WIDTH:0.468935
G1 X118.524 Y141.155 E.0109
;WIDTH:0.51787
G1 X118.237 Y141.266 E.01215
;WIDTH:0.545407
G1 X118.196 Y141.281 E.00182
;WIDTH:0.572944
G1 X118.155 Y141.296 E.00192
;WIDTH:0.580494
G1 X117.897 Y141.284 E.01154
G1 X117.748 Y141.202 E.0076
;WIDTH:0.540371
G1 X117.599 Y141.119 E.00705
;WIDTH:0.500247
G1 X117.45 Y141.037 E.00647
;WIDTH:0.460123
G1 X117.301 Y140.954 E.00592
;WIDTH:0.419999
G1 X116.99 Y140.626 E.01417
;WIDTH:0.421328
G1 X116.861 Y140.412 E.00786
;WIDTH:0.424066
G1 X116.793 Y140.179 E.00769
M204 S1000
;WIPE_START
G1 F8640
G1 X116.776 Y140.122 E-.01373
G1 X116.766 Y140.087 E-.0084
G1 X116.766 Y139.536 E-.12723
G1 X116.882 Y139.167 E-.08931
G1 X117.061 Y138.894 E-.07538
G1 X117.301 Y138.669 E-.07596
G1 X117.591 Y138.507 E-.0767
G1 X117.937 Y138.417 E-.08255
G1 X118.229 Y138.405 E-.06748
G1 X118.55 Y138.467 E-.07549
G1 X118.849 Y138.601 E-.07566
G1 X118.959 Y138.686 E-.03211
;WIPE_END
G1 Z.6 F720
G1 X116.77 Y138.68 F10800
G1 Z.2 F720
G1 E.8 F2100
M204 S800
;TYPE:Perimeter
;WIDTH:0.392893
G1 F1200
G1 X116.772 Y138.085 E.01731
G1 X117.854 Y138.073 E.03149
;WIDTH:0.391217
G1 X117.496 Y138.157 E.01065
;WIDTH:0.392893
G1 X117.118 Y138.355 E.01242
G1 X116.814 Y138.639 E.01211
M204 S1000
;WIPE_START
G1 F8640
G1 X116.77 Y138.68 E-.01389
G1 X116.772 Y138.085 E-.13739
G1 X117.854 Y138.073 E-.24985
G1 X117.496 Y138.157 E-.08491
G1 X117.118 Y138.355 E-.09853
G1 X116.814 Y138.639 E-.09606
;WIPE_END
G1 E-.11937 F2100
G1 Z.6 F720
G1 X117.854 Y138.073 F10800
G1 Z.2 F720
G1 E.8 F2100
M204 S800
;WIDTH:0.404172
G1 F1200
G1 X118.573 Y138.091 E.0216
M204 S1000
;WIPE_START
G1 F8640
G1 X117.854 Y138.073 E-.16607
;WIPE_END
G1 E-.63393 F2100
G1 Z.6 F720
G1 X116.77 Y140.943 F10800
G1 Z.2 F720
G1 E.8 F2100
M204 S800
;WIDTH:0.392893
G1 F1200
G1 X117.01 Y141.187 E.00996
G1 X117.363 Y141.411 E.01217
G1 X117.732 Y141.538 E.01136
G1 X116.772 Y141.538 E.02794
G1 X116.771 Y141.003 E.01557
M204 S1000
;WIPE_START
G1 F8640
G1 X116.77 Y140.943 E-.01386
G1 X117.01 Y141.187 E-.07903
G1 X117.363 Y141.411 E-.09653
G1 X117.732 Y141.538 E-.09011
G1 X116.772 Y141.538 E-.22167
G1 X116.771 Y141.003 E-.12353
;WIPE_END
G1 E-.17527 F2100
G1 Z.6 F720
G1 X133.259 Y141.017 F10800
G1 Z.2 F720
G1 E.8 F2100
M204 S800
;WIDTH:0.359153
G1 F1200
G1 X133.251 Y141.555 E.01415
G1 X133.096 Y141.555 E.00408
;WIDTH:0.365424
G1 X132.531 Y141.548 E.01515
G1 X132.63 Y141.512 E.00282
G1 X133.006 Y141.267 E.01203
;WIDTH:0.359153
G1 X133.216 Y141.059 E.00777
M204 S1000
;WIPE_START
G1 F8640
G1 X133.259 Y141.017 E-.01388
G1 X133.251 Y141.555 E-.12424
G1 X133.096 Y141.555 E-.03579
G1 X132.531 Y141.548 E-.13047
G1 X132.63 Y141.512 E-.02432
G1 X133.006 Y141.267 E-.10362
G1 X133.216 Y141.059 E-.06825
;WIPE_END
G1 E-.29943 F2100
G1 Z.6 F720
G1 X133.261 Y138.61 F10800
G1 Z.2 F720
G1 E.8 F2100
M204 S800
;WIDTH:0.356413
G1 F1200
G1 X133.087 Y138.422 E.00668
G1 X132.741 Y138.176 E.01107
G1 X132.481 Y138.067 E.00735
G1 X133.253 Y138.067 E.02012
G1 X133.26 Y138.55 E.01259
M204 S1000
;WIPE_START
G1 F8640
M73 P0 R45
G1 X133.261 Y138.61 E-.01386
G1 X133.087 Y138.422 E-.05915
G1 X132.741 Y138.176 E-.09803
G1 X132.481 Y138.067 E-.0651
G1 X133.253 Y138.067 E-.17826
G1 X133.26 Y138.55 E-.11154
;WIPE_END
G1 E-.27406 F2100
G1 Z.6 F720
G1 X131.076 Y138.105 F10800
G1 Z.2 F720
G1 E.8 F2100
M204 S800
;WIDTH:0.419999
G1 F1200
G1 X130.749 Y138.298 E.01191
G1 X130.441 Y138.587 E.01324
G1 X130.204 Y138.937 E.01325
G1 X130.051 Y139.33 E.01322
G1 X129.99 Y139.748 E.01324
G1 X130.023 Y140.169 E.01324
G1 X130.149 Y140.572 E.01324
G1 X130.362 Y140.937 E.01325
G1 X130.65 Y141.246 E.01324
G1 X131.088 Y141.524 E.01627
G1 X118.573 Y141.532 E.3924
G1 X118.961 Y141.39 E.01295
G1 X119.302 Y141.155 E.01298
G1 X119.58 Y140.847 E.01301
G1 X119.78 Y140.484 E.01299
G1 X119.89 Y140.084 E.01301
G1 X119.905 Y139.67 E.01299
G1 X119.825 Y139.263 E.01301
G1 X119.652 Y138.886 E.01301
G1 X119.398 Y138.558 E.01301
G1 X118.961 Y138.233 E.01708
G1 X118.573 Y138.091 E.01295
G1 X131.041 Y138.099 E.39092
M204 S1000
;WIPE_START
G1 F8640
G1 X131.076 Y138.105 E-.0082
G1 X130.749 Y138.298 E-.08768
G1 X130.441 Y138.587 E-.09752
G1 X130.204 Y138.937 E-.0976
G1 X130.051 Y139.33 E-.09738
G1 X129.99 Y139.748 E-.09754
G1 X130.023 Y140.169 E-.09751
G1 X130.149 Y140.572 E-.0975
G1 X130.362 Y140.937 E-.09758
G1 X130.426 Y141.005 E-.02149
;WIPE_END
G1 Z.6 F720
G1 X133.593 Y137.722 F10800
G1 Z.2 F720
G1 E.8 F2100
M204 S800
;TYPE:External perimeter
G1 F1200
G1 X133.602 Y138.349 E.01966
;WIDTH:0.432976
G1 X133.618 Y139.046 E.02261
;WIDTH:0.440178
G1 X133.672 Y139.877 E.02751
;WIDTH:0.419999
G1 X133.608 Y140.854 E.0307
G1 X133.593 Y141.902 E.03286
G1 X132.788 Y141.902 E.02524
;WIDTH:0.459787
G1 X132.601 Y141.882 E.00652
;WIDTH:0.499575
G1 X132.413 Y141.862 E.00718
;WIDTH:0.539362
G1 X132.226 Y141.842 E.00776
G1 X131.525 Y141.842 E.02894
;WIDTH:0.538908
G1 X131.389 Y141.862 E.00567
;WIDTH:0.499272
G1 X131.253 Y141.882 E.00522
;WIDTH:0.459636
G1 X131.116 Y141.902 E.0048
;WIDTH:0.419999
G1 X118.704 Y141.902 E.38917
;WIDTH:0.468934
G1 X118.496 Y141.877 E.00742
;WIDTH:0.51787
G1 X118.289 Y141.853 E.00823
;WIDTH:0.549182
G1 X118.085 Y141.837 E.00861
;WIDTH:0.580494
G1 X117.881 Y141.821 E.00915
G1 X117.778 Y141.841 E.00469
;WIDTH:0.540371
G1 X117.676 Y141.861 E.0043
;WIDTH:0.500247
G1 X117.573 Y141.881 E.00399
;WIDTH:0.460123
G1 X117.47 Y141.902 E.00365
;WIDTH:0.419999
G1 X116.409 Y141.902 E.03327
G1 X116.4 Y140.604 E.0407
;WIDTH:0.424066
G1 X116.385 Y140.094 E.01617
;WIDTH:0.431223
G1 X116.406 Y138.812 E.0414
;WIDTH:0.419999
G1 X116.409 Y137.722 E.03418
G1 X130.988 Y137.722 E.45711
;WIDTH:0.459635
G1 X131.167 Y137.741 E.00624
;WIDTH:0.499271
G1 X131.346 Y137.761 E.00683
;WIDTH:0.538906
G1 X131.525 Y137.781 E.00743
G1 X132.214 Y137.781 E.02842
;WIDTH:0.538705
G1 X132.355 Y137.761 E.00587
M73 Q1 S46
;WIDTH:0.499137
G1 X132.495 Y137.741 E.00536
;WIDTH:0.459568
G1 X132.636 Y137.722 E.00493
;WIDTH:0.419999
G1 X133.533 Y137.722 E.02812
M204 S1000
;WIPE_START
G1 F8640
G1 X133.593 Y137.722 E-.01385
G1 X133.602 Y138.349 E-.14479
G1 X133.618 Y139.046 E-.16098
G1 X133.672 Y139.877 E-.19228
G1 X133.608 Y140.854 E-.22608
G1 X133.604 Y141.122 E-.06202
;WIPE_END
G1 Z.6 F720
G1 X129.75 Y138.268 F10800
G1 Z.2 F720
M73 P1 R45
G1 E.8 F2100
M204 S800
;TYPE:Solid infill
;WIDTH:0.433137
G1 F1200
G1 X130.043 Y138.561 E.01344
G1 X129.842 Y138.912 E.01312
G1 X129.368 Y138.438 E.02175
G1 X128.816 Y138.438 E.01791
G1 X129.709 Y139.331 E.04098
G1 X129.687 Y139.403 E.00244
G1 X129.647 Y139.821 E.01362
G1 X128.264 Y138.438 E.06346
G1 X127.712 Y138.438 E.01791
G1 X129.772 Y140.497 E.0945
G1 X129.832 Y140.695 E.00671
G1 X130.08 Y141.127 E.01616
G1 X130.133 Y141.185 E.00255
G1 X129.908 Y141.185 E.0073
G1 X127.161 Y138.438 E.12605
G1 X126.609 Y138.438 E.01791
G1 X129.356 Y141.185 E.12605
G1 X128.804 Y141.185 E.01791
G1 X126.057 Y138.438 E.12605
G1 X125.505 Y138.438 E.01791
G1 X128.252 Y141.185 E.12605
G1 X127.7 Y141.185 E.01791
G1 X124.953 Y138.438 E.12605
G1 X124.401 Y138.438 E.01791
G1 X127.148 Y141.185 E.12605
G1 X126.597 Y141.185 E.01788
G1 X123.849 Y138.438 E.12607
G1 X123.298 Y138.438 E.01788
G1 X126.045 Y141.185 E.12605
G1 X125.493 Y141.185 E.01791
G1 X122.746 Y138.438 E.12605
G1 X122.194 Y138.438 E.01791
G1 X124.941 Y141.185 E.12605
G1 X124.389 Y141.185 E.01791
G1 X121.642 Y138.438 E.12605
G1 X121.09 Y138.438 E.01791
G1 X123.837 Y141.185 E.12605
G1 X123.285 Y141.185 E.01791
G1 X120.538 Y138.438 E.12605
G1 X119.987 Y138.438 E.01788
G1 X122.734 Y141.185 E.12605
G1 X122.182 Y141.185 E.01791
G1 X120.141 Y139.145 E.09363
G1 X120.222 Y139.469 E.01084
G1 X120.245 Y139.8 E.01077
G1 X121.63 Y141.185 E.06355
G1 X121.078 Y141.185 E.01791
G1 X120.189 Y140.296 E.04079
G1 X120.153 Y140.447 E.00504
G1 X120.048 Y140.706 E.00907
G1 X120.526 Y141.185 E.02196
G1 X119.974 Y141.185 E.01791
G1 X119.724 Y140.935 E.01147
M204 S1000
;WIPE_START
G1 F8640
G1 X119.974 Y141.185 E-.08164
G1 X120.526 Y141.185 E-.12746
G1 X120.048 Y140.706 E-.15625
G1 X120.153 Y140.447 E-.06453
G1 X120.189 Y140.296 E-.03584
G1 X121.078 Y141.185 E-.2903
G1 X121.268 Y141.185 E-.04398
;WIPE_END
G1 Z.6 F720
; stop printing object 新装载系统_按钮处 v26.stl_2 id:1 copy 0
; printing object 新装载系统_按钮处 v26.stl_1 id:0 copy 0
G1 X119.684 Y120.996 F10800
G1 Z.2 F720
G1 E.8 F2100
M204 S800
;TYPE:Support material
;WIDTH:0.42
G1 F1200
G1 X119.825 Y121.078 E.00511
G1 X119.825 Y123.185 E.06606
G1 X118 Y124.239 E.06608
G1 X116.175 Y123.185 E.06608
G1 X116.175 Y121.078 E.06606
G1 X118 Y120.024 E.06608
G1 X119.635 Y120.968 E.0592
M204 S1000
G1 X119.635 Y120.968 F10800
G1 X119.134 Y123.388
M204 S800
G1 F1200
G1 X119.134 Y121.071 E.07265
G1 X118.715 Y120.829 E.01517
G1 X118.715 Y123.434 E.08168
G1 X118.296 Y123.676 E.01517
G1 X118.296 Y120.587 E.09685
G1 X118 Y120.416 E.01072
G1 X117.877 Y120.487 E.00445
G1 X117.877 Y123.777 E.10316
G1 X117.458 Y123.535 E.01517
G1 X117.458 Y120.728 E.08801
G1 X117.039 Y120.97 E.01517
G1 X117.039 Y123.293 E.07284
G1 X116.62 Y123.051 E.01517
G1 X116.62 Y121.016 E.06381
M204 S1000
;WIPE_START
G1 F8640
G1 X116.62 Y123.051 E-.46989
G1 X117.039 Y123.293 E-.11173
G1 X117.039 Y122.347 E-.21838
;WIPE_END
G1 Z.6 F720
G1 X116.747 Y105.296 F10800
G1 Z.2 F720
G1 E.8 F2100
M204 S800
G1 F1200
G1 X116.888 Y105.378 E.00511
G1 X116.888 Y107.485 E.06606
G1 X115.062 Y108.539 E.06611
G1 X113.237 Y107.485 E.06608
G1 X113.237 Y105.378 E.06606
G1 X115.062 Y104.324 E.06608
G1 X116.698 Y105.268 E.05922
M204 S1000
G1 X116.698 Y105.268 F10800
G1 X116.201 Y107.686
M204 S800
G1 F1200
G1 X116.201 Y105.373 E.07252
G1 X115.782 Y105.131 E.01517
G1 X115.782 Y107.732 E.08155
G1 X115.364 Y107.974 E.01514
G1 X115.364 Y104.89 E.0967
G1 X115.062 Y104.716 E.01093
G1 X114.945 Y104.784 E.00424
G1 X114.945 Y108.079 E.10331
G1 X114.526 Y107.837 E.01517
G1 X114.526 Y105.026 E.08814
G1 X114.107 Y105.268 E.01517
G1 X114.107 Y107.595 E.07296
G1 X113.688 Y107.354 E.01516
G1 X113.688 Y105.314 E.06396
M204 S1000
;WIPE_START
G1 F8640
G1 X113.688 Y107.354 E-.47104
G1 X114.107 Y107.595 E-.11161
G1 X114.107 Y106.654 E-.21735
;WIPE_END
G1 Z.6 F720
G1 X105.657 Y109.276 F10800
G1 Z.2 F720
G1 E.8 F2100
M204 S800
G1 F1200
G1 X106.74 Y109.675 E.03619
G1 X107.594 Y110.451 E.03618
G1 X108.095 Y111.491 E.03619
G1 X108.169 Y112.643 E.03619
G1 X107.806 Y113.738 E.03617
G1 X107.057 Y114.617 E.03621
G1 X106.034 Y115.151 E.03618
G1 X104.885 Y115.262 E.03619
G1 X103.779 Y114.933 E.03618
G1 X102.876 Y114.214 E.03619
G1 X102.31 Y113.208 E.03619
G1 X102.162 Y112.063 E.0362
G1 X102.455 Y110.947 E.03618
G1 X103.145 Y110.022 E.03618
G1 X104.132 Y109.423 E.0362
G1 X104.885 Y109.251 E.02422
G1 X105.601 Y109.271 E.02246
