; generated by PrusaSlicer 2.7.4+win64 on 2024-08-27 at 02:11:26 UTC


;
;
; 

; external perimeters extrusion width = 0.45mm
; perimeters extrusion width = 0.45mm
; infill extrusion width = 0.45mm
; solid infill extrusion width = 0.45mm
; top infill extrusion width = 0.40mm
; support material extrusion width = 0.35mm
; first layer extrusion width = 0.42mm

M73 P0 R15
M73 Q0 S16
M201 X1000 Y1000 Z200 E5000 ; sets maximum accelerations, mm/sec^2
M203 X200 Y200 Z12 E120 ; sets maximum feedrates, mm / sec
M204 S1250 T1250 ; sets acceleration (S) and retract acceleration (R), mm/sec^2
M205 X8.00 Y8.00 Z0.40 E4.50 ; sets the jerk limits, mm/sec
M205 S0 T0 ; sets the minimum extruding and travel feed rate, mm/sec

; printing object doubleWinch.stl id:0 copy 0
; stop printing object doubleWinch.stl id:0 copy 0

;TYPE:Custom
M862.3 P "MK3S" ; printer model check
M862.1 P0.4 ; nozzle diameter check
M115 U3.13.3 ; tell printer latest fw version
G90 ; use absolute coordinates
M83 ; extruder relative mode
M104 S215 ; set extruder temp
M140 S60 ; set bed temp
M190 S60 ; wait for bed temp
M109 S215 ; wait for extruder temp
G28 W ; home all without mesh bed level
G80 X114.5 Y90.6078 W21.0006 H31.8137 ; mesh bed levelling

G1 Z0.2 F720
G1 Y-3 F1000 ; go outside print area
G92 E0
G1 X60 E9 F1000 ; intro line
G1 X100 E12.5 F1000 ; intro line
M73 Q0 S15

G92 E0
M221 S95

; Don't change E values below. Excessive value can damage the printer.
M907 E430 ; set extruder motor current
G21 ; set units to millimeters
G90 ; use absolute coordinates
M83 ; use relative distances for extrusion

M900 K0.05 ; Filament gcode LA 1.5
M900 K30 ; Filament gcode LA 1.0




M107
;LAYER_CHANGE
;Z:0.2
;HEIGHT:0.2
G1 E-.8 F2100
G1 Z.6 F720
G1 X118.51 Y93.675 F10800
G1 Z.2 F720
G1 E.8 F2100
M204 S800
;TYPE:Skirt/Brim
;WIDTH:0.42
G1 F1200
G1 X119.681 Y92.596 E.04993
G1 X121.028 Y91.748 E.04991
G1 X122.387 Y91.194 E.04602
G1 X123.673 Y90.896 E.04139
G1 X125.262 Y90.799 E.04991
G1 X126.451 Y90.916 E.03746
G1 X127.872 Y91.28 E.04599
G1 X129.083 Y91.806 E.0414
G1 X130.118 Y92.448 E.03819
G1 X131.216 Y93.385 E.04526
G1 X132.072 Y94.39 E.04139
G1 X132.834 Y95.643 E.04598
G1 X133.293 Y96.747 E.03749
G1 X133.61 Y97.968 E.03955
G1 X135.312 Y107.549 E.30511
G1 X135.312 Y119.479 E.37406
G1 X134.919 Y120.896 E.04611
G1 X133.853 Y121.909 E.04611
M73 Q1 S15
G1 X132.558 Y122.233 E.04186
G1 X117.442 Y122.233 E.47395
G1 X116.025 Y121.84 E.04611
M73 P1 R15
G1 X115.012 Y120.774 E.04611
G1 X114.688 Y119.479 E.04186
G1 X114.688 Y107.549 E.37406
G1 X116.487 Y97.512 E.31972
G1 X116.996 Y96.004 E.0499
G1 X117.701 Y94.717 E.04601
G1 X118.473 Y93.722 E.03949
M204 S1000
G1 X118.473 Y93.722 F10800
G1 X118.771 Y93.954
M204 S800
G1 F1200
G1 X118.802 Y93.915 E.00156
G1 X119.906 Y92.899 E.04704
G1 X121.194 Y92.087 E.04774
G1 X122.505 Y91.552 E.0444
G1 X123.724 Y91.27 E.03923
G1 X125.245 Y91.176 E.04778
G1 X126.383 Y91.287 E.03585
G1 X127.754 Y91.638 E.04437
G1 X128.806 Y92.087 E.03586
G1 X129.875 Y92.737 E.03923
G1 X130.952 Y93.655 E.04437
G1 X131.699 Y94.52 E.03584
G1 X132.374 Y95.574 E.03924
G1 X132.938 Y96.873 E.0444
G1 X133.239 Y98.036 E.03767
G1 X134.935 Y107.549 E.30298
G1 X134.935 Y119.479 E.37406
G1 X134.543 Y120.786 E.04278
G1 X133.497 Y121.662 E.04278
G1 X132.558 Y121.856 E.03006
G1 X117.442 Y121.856 E.47395
G1 X116.135 Y121.464 E.04278
G1 X115.259 Y120.419 E.04275
G1 X115.065 Y119.479 E.03009
G1 X115.065 Y107.549 E.37406
G1 X116.852 Y97.606 E.31675
G1 X117.295 Y96.261 E.0444
G1 X118.018 Y94.92 E.04777
G1 X118.734 Y94.001 E.03653
M204 S1000
;WIPE_START
G1 F8640
G1 X118.771 Y93.954 E-.01381
G1 X118.802 Y93.915 E-.0115
G1 X119.906 Y92.899 E-.34644
G1 X121.194 Y92.087 E-.35157
G1 X121.502 Y91.962 E-.07668
;WIPE_END
G1 Z.6 F720
; printing object doubleWinch.stl id:0 copy 0
G1 X132.558 Y119.479 F10800
G1 Z.2 F720
G1 E.8 F2100
M204 S800
;TYPE:Support material
G1 F1200
G1 X117.442 Y119.479 E.47395
G1 X117.442 Y107.549 E.37406
G1 X118.52 Y108.627 E.0478
G1 X118.52 Y110.748 E.0665
G1 X118.801 Y111.029 E.01246
G1 X120.258 Y111.047 E.04569
G1 X120.638 Y111.284 E.01404
G1 X120.854 Y111.62 E.01252
G1 X120.983 Y112.302 E.02176
G1 X120.986 Y116.648 E.13627
G1 X121.267 Y116.929 E.01246
G1 X128.665 Y116.929 E.23196
G1 X128.946 Y116.648 E.01246
M73 P2 R15
M73 Q2 S15
G1 X128.946 Y112.459 E.13134
G1 X129.062 Y111.869 E.01885
G1 X129.39 Y111.377 E.01854
G1 X129.881 Y111.047 E.01855
G1 X131.199 Y111.029 E.04133
G1 X131.48 Y110.748 E.01246
G1 X131.48 Y108.627 E.0665
G1 X132.558 Y107.549 E.0478
G1 X132.558 Y119.422 E.37227
M204 S1000
G1 X132.558 Y119.422 F10800
G1 X132.123 Y119.309
M204 S800
G1 F1200
G1 X132.123 Y108.464 E.34004
G1 X131.819 Y108.767 E.01346
G1 X131.819 Y110.888 E.0665
G1 X131.704 Y111.004 E.00512
G1 X131.704 Y119.139 E.25507
G1 X131.285 Y119.139 E.01314
G1 X131.285 Y111.368 E.24365
G1 X130.866 Y111.368 E.01314
G1 X130.866 Y119.139 E.24365
G1 X130.447 Y119.139 E.01314
G1 X130.447 Y111.368 E.24365
G1 X130.028 Y111.368 E.01314
G1 X130.028 Y119.139 E.24365
G1 X129.609 Y119.139 E.01314
G1 X129.609 Y111.64 E.23513
G1 X129.376 Y111.999 E.01342
G1 X129.29 Y112.357 E.01154
G1 X129.286 Y116.789 E.13896
G1 X129.19 Y116.885 E.00426
G1 X129.19 Y119.139 E.07067
G1 X128.771 Y119.139 E.01314
G1 X128.771 Y117.269 E.05863
G1 X128.352 Y117.269 E.01314
G1 X128.352 Y119.139 E.05863
G1 X127.933 Y119.139 E.01314
G1 X127.933 Y117.269 E.05863
G1 X127.514 Y117.269 E.01314
G1 X127.514 Y119.139 E.05863
G1 X127.095 Y119.139 E.01314
G1 X127.095 Y117.269 E.05863
G1 X126.676 Y117.269 E.01314
G1 X126.676 Y119.139 E.05863
G1 X126.257 Y119.139 E.01314
G1 X126.257 Y117.269 E.05863
G1 X125.838 Y117.269 E.01314
G1 X125.838 Y119.139 E.05863
G1 X125.419 Y119.139 E.01314
G1 X125.419 Y117.269 E.05863
G1 X125 Y117.269 E.01314
G1 X125 Y119.139 E.05863
G1 X124.581 Y119.139 E.01314
G1 X124.581 Y117.269 E.05863
G1 X124.162 Y117.269 E.01314
G1 X124.162 Y119.139 E.05863
G1 X123.743 Y119.139 E.01314
G1 X123.743 Y117.269 E.05863
G1 X123.324 Y117.269 E.01314
G1 X123.324 Y119.139 E.05863
G1 X122.905 Y119.139 E.01314
G1 X122.905 Y117.269 E.05863
G1 X122.486 Y117.269 E.01314
G1 X122.486 Y119.139 E.05863
G1 X122.067 Y119.139 E.01314
G1 X122.067 Y117.269 E.05863
G1 X121.648 Y117.269 E.01314
G1 X121.648 Y119.139 E.05863
G1 X121.229 Y119.139 E.01314
G1 X121.229 Y117.269 E.05863
G1 X121.127 Y117.269 E.0032
G1 X120.81 Y116.952 E.01406
G1 X120.81 Y119.139 E.06857
G1 X120.391 Y119.139 E.01314
G1 X120.391 Y111.517 E.23898
G1 X120.147 Y111.368 E.00896
G1 X119.972 Y111.368 E.00549
G1 X119.972 Y119.139 E.24365
G1 X119.553 Y119.139 E.01314
G1 X119.553 Y111.368 E.24365
G1 X119.134 Y111.368 E.01314
G1 X119.134 Y119.139 E.24365
G1 X118.715 Y119.139 E.01314
G1 X118.715 Y111.368 E.24365
G1 X118.296 Y111.004 E.0174
M73 P3 R15
M73 Q3 S15
G1 X118.296 Y119.139 E.25507
G1 X117.877 Y119.139 E.01314
G1 X117.877 Y108.224 E.34223
M204 S1000
;WIPE_START
G1 F8640
G1 X117.877 Y111.689 E-.8
;WIPE_END
G1 Z.6 F720
G1 X126.46 Y105.117 F10800
G1 Z.2 F720
G1 E.8 F2100
M204 S800
G1 F1200
G1 X126.525 Y106.862 E.05475
G1 X125.046 Y107.79 E.05475
G1 X123.503 Y106.973 E.05474
G1 X123.439 Y105.229 E.05472
G1 X124.917 Y104.301 E.05472
G1 X126.41 Y105.091 E.05296
M204 S1000
G1 X126.41 Y105.091 F10800
G1 X125.838 Y107.093
M204 S800
G1 F1200
G1 X125.838 Y105.172 E.06023
G1 X125.419 Y104.95 E.01487
G1 X125.419 Y107.155 E.06914
G1 X125 Y107.381 E.01493
G1 X125 Y104.728 E.08318
G1 X124.932 Y104.692 E.00241
G1 X124.581 Y104.912 E.01299
G1 X124.581 Y107.16 E.07048
G1 X124.162 Y106.938 E.01487
G1 X124.162 Y104.975 E.06155
M204 S1000
;WIPE_START
G1 F8640
G1 X124.162 Y106.938 E-.45326
G1 X124.581 Y107.16 E-.10949
G1 X124.581 Y106.133 E-.23725
;WIPE_END
G1 Z.6 F720
G1 X125.036 Y113.986 F10800
G1 Z.2 F720
G1 E.8 F2100
M204 S800
G1 F1200
G1 X125.374 Y114.181 E.01223
G1 X125.48 Y114.557 E.01225
G1 X125.294 Y114.901 E.01226
G1 X124.921 Y115.018 E.01226
G1 X124.573 Y114.841 E.01224
G1 X124.446 Y114.472 E.01224
G1 X124.613 Y114.118 E.01227
G1 X124.979 Y113.981 E.01225
M204 S1000
G1 X124.979 Y113.981 F10800
G1 X125 Y114.847
M204 S800
G1 F1200
G1 X125 Y114.153 E.02176
M204 S1000
;WIPE_START
G1 F8640
G1 X125 Y114.847 E-.16025
;WIPE_END
G1 E-.63975 F2100
G1 Z.6 F720
G1 X128.267 Y110.752 F10800
G1 Z.2 F720
G1 E.8 F2100
M204 S800
;TYPE:Perimeter
;WIDTH:0.419999
G1 F1200
G1 X128.112 Y110.959 E.00811
G1 X127.868 Y111.448 E.01713
G1 X127.731 Y111.936 E.01589
G1 X127.679 Y112.445 E.01604
G1 X127.679 Y115.664 E.10093
G1 X126.268 Y115.677 E.04424
G1 X126.51 Y115.366 E.01236
G1 X126.686 Y114.959 E.0139
G1 X126.743 Y114.4 E.01762
G1 X126.672 Y113.98 E.01336
G1 X126.517 Y113.619 E.01232
G1 X126.286 Y113.301 E.01232
G1 X126.053 Y113.091 E.00983
G1 X125.648 Y112.851 E.01476
G1 X125.085 Y112.723 E.0181
G1 X124.681 Y112.737 E.01267
G1 X124.304 Y112.841 E.01226
G1 X123.831 Y113.126 E.01731
G1 X123.534 Y113.432 E.01337
G1 X123.277 Y113.927 E.01749
G1 X123.186 Y114.34 E.01326
G1 X123.204 Y114.799 E.0144
G1 X123.367 Y115.273 E.01572
G1 X123.671 Y115.678 E.01588
G1 X122.253 Y115.664 E.04446
G1 X122.246 Y112.206 E.10842
G1 X122.185 Y111.692 E.01623
G1 X122.087 Y111.334 E.01164
G1 X121.853 Y110.799 E.01831
G1 X121.579 Y110.437 E.01423
G1 X121.289 Y110.176 E.01223
G1 X120.846 Y109.921 E.01603
G1 X120.313 Y109.762 E.01744
G1 X119.787 Y109.762 E.01649
G1 X119.787 Y99.571 E.31953
G1 X119.838 Y98.833 E.02319
G1 X119.939 Y98.314 E.01658
G1 X120.1 Y97.786 E.01731
G1 X120.298 Y97.311 E.01614
G1 X120.545 Y96.854 E.01629
G1 X120.92 Y96.309 E.02074
G1 X121.273 Y95.906 E.0168
G1 X121.668 Y95.544 E.0168
G1 X122.165 Y95.181 E.0193
G1 X122.708 Y94.872 E.01959
G1 X123.198 Y94.661 E.01673
G1 X123.708 Y94.499 E.01678
G1 X124.234 Y94.396 E.01681
G1 X124.912 Y94.343 E.02132
G1 X125.531 Y94.366 E.01942
G1 X126.054 Y94.445 E.01658
G1 X126.745 Y94.638 E.0225
G1 X127.255 Y94.86 E.01744
G1 X127.756 Y95.128 E.01781
G1 X128.191 Y95.428 E.01657
G1 X128.659 Y95.845 E.01965
G1 X128.996 Y96.222 E.01585
G1 X129.327 Y96.653 E.01704
G1 X129.641 Y97.184 E.01934
G1 X129.849 Y97.67 E.01658
G1 X130.014 Y98.171 E.01654
G1 X130.136 Y98.696 E.0169
G1 X130.207 Y99.394 E.022
G1 X130.213 Y109.762 E.32508
G1 X129.803 Y109.762 E.01286
G1 X129.587 Y109.805 E.00691
G1 X129.138 Y110.003 E.01539
G1 X128.705 Y110.293 E.01634
G1 X128.374 Y110.61 E.01437
G1 X128.303 Y110.704 E.00369
M204 S1000
G1 X128.303 Y110.704 F10800
G1 X128.565 Y110.98
M204 S800
;TYPE:External perimeter
G1 F1200
G1 X128.418 Y111.18 E.00778
G1 X128.231 Y111.55 E.013
G1 X128.094 Y112.038 E.01589
G1 X128.056 Y112.445 E.01282
G1 X128.056 Y116.04 E.11272
G1 X126.456 Y116.045 E.05017
;WIDTH:0.423103
G1 X125.941 Y116.071 E.0163
;WIDTH:0.435099
G1 X125.441 Y116.125 E.0164
G1 X124.79 Y116.148 E.02124
;WIDTH:0.422889
G1 X123.978 Y116.07 E.02577
G1 X123.467 Y116.045 E.01616
;WIDTH:0.419999
G1 X121.876 Y116.04 E.04988
G1 X121.871 Y112.25 E.11883
G1 X121.811 Y111.736 E.01623
G1 X121.726 Y111.442 E.0096
G1 X121.518 Y110.971 E.01614
G1 X121.284 Y110.673 E.01188
G1 X121.065 Y110.48 E.00915
G1 X120.747 Y110.289 E.01163
G1 X120.313 Y110.139 E.0144
G1 X119.41 Y110.139 E.02831
G1 X119.41 Y99.558 E.33176
G1 X119.463 Y98.785 E.02429
G1 X119.554 Y98.287 E.01587
G1 X119.692 Y97.797 E.01596
G1 X119.873 Y97.322 E.01594
G1 X120.097 Y96.865 E.01596
G1 X120.361 Y96.43 E.01595
G1 X120.664 Y96.021 E.01596
G1 X121.003 Y95.642 E.01594
G1 X121.375 Y95.294 E.01597
G1 X121.777 Y94.982 E.01596
G1 X122.205 Y94.708 E.01593
G1 X122.657 Y94.474 E.01596
G1 X123.128 Y94.282 E.01595
G1 X123.615 Y94.134 E.01596
G1 X124.113 Y94.03 E.01595
G1 X124.618 Y93.972 E.01594
G1 X125.13 Y93.961 E.01606
G1 X125.635 Y93.995 E.01587
G1 X126.135 Y94.076 E.01588
M73 Q4 S15
G1 X126.872 Y94.282 E.02399
G1 X127.574 Y94.587 E.024
G1 X128.012 Y94.84 E.01586
G1 X128.426 Y95.132 E.01588
G1 X128.91 Y95.564 E.02034
G1 X129.316 Y96.017 E.01907
G1 X129.64 Y96.442 E.01676
M73 P4 R15
G1 X129.972 Y97.003 E.02044
G1 X130.198 Y97.528 E.01792
G1 X130.38 Y98.078 E.01816
G1 X130.51 Y98.653 E.01848
G1 X130.584 Y99.394 E.02335
G1 X130.59 Y110.139 E.3369
G1 X129.803 Y110.139 E.02468
G1 X129.348 Y110.316 E.01531
G1 X128.915 Y110.606 E.01634
G1 X128.641 Y110.876 E.01206
G1 X128.601 Y110.931 E.00213
M204 S1000
;WIPE_START
G1 F8640
G1 X128.565 Y110.98 E-.01404
G1 X128.418 Y111.18 E-.05731
G1 X128.231 Y111.55 E-.09573
G1 X128.094 Y112.038 E-.11704
G1 X128.056 Y112.445 E-.09439
G1 X128.056 Y114.27 E-.42149
;WIPE_END
G1 Z.6 F720
G1 X126.811 Y101.318 F10800
G1 Z.2 F720
G1 E.8 F2100
M204 S800
;TYPE:Perimeter
G1 F1200
G1 X126.778 Y101.357 E.0016
G1 X126.452 Y101.628 E.01329
G1 X126.063 Y101.849 E.01403
G1 X125.481 Y102.039 E.0192
G1 X124.947 Y102.079 E.01679
G1 X124.613 Y102.053 E.0105
G1 X124.023 Y101.889 E.0192
G1 X123.628 Y101.679 E.01403
G1 X123.163 Y101.298 E.01885
G1 X122.891 Y100.957 E.01368
G1 X122.679 Y100.565 E.01397
G1 X122.51 Y100.032 E.01753
G1 X122.464 Y99.555 E.01503
G1 X122.534 Y98.981 E.01813
G1 X122.731 Y98.417 E.01873
G1 X123.07 Y97.907 E.0192
G1 X123.539 Y97.479 E.01991
G1 X123.985 Y97.224 E.01611
G1 X124.437 Y97.078 E.01489
G1 X124.972 Y97.012 E.0169
G1 X125.469 Y97.057 E.01565
G1 X125.874 Y97.168 E.01317
G1 X126.297 Y97.374 E.01475
G1 X126.726 Y97.69 E.01671
G1 X127.059 Y98.072 E.01589
G1 X127.335 Y98.557 E.0175
G1 X127.483 Y99.043 E.01593
G1 X127.532 Y99.46 E.01316
G1 X127.494 Y100.016 E.01747
G1 X127.349 Y100.498 E.01578
G1 X127.055 Y101.035 E.0192
G1 X126.85 Y101.273 E.00985
M204 S1000
G1 X126.85 Y101.273 F10800
G1 X126.388 Y101.194
M204 S800
;TYPE:External perimeter
G1 F1200
G1 X126.257 Y101.305 E.00538
G1 X125.939 Y101.493 E.01158
G1 X125.434 Y101.665 E.01673
G1 X124.962 Y101.703 E.01485
G1 X124.524 Y101.641 E.01387
G1 X124.19 Y101.551 E.01085
G1 X123.862 Y101.383 E.01155
G1 X123.448 Y101.052 E.01662
G1 X123.218 Y100.769 E.01143
G1 X123.037 Y100.448 E.01155
G1 X122.881 Y99.966 E.01588
G1 X122.841 Y99.578 E.01223
G1 X122.901 Y99.068 E.0161
G1 X123.079 Y98.563 E.01679
G1 X123.38 Y98.122 E.01674
G1 X123.786 Y97.764 E.01697
G1 X124.268 Y97.524 E.01688
G1 X124.607 Y97.437 E.01097
G1 X124.999 Y97.39 E.01238
G1 X125.376 Y97.422 E.01186
G1 X125.724 Y97.514 E.01129
G1 X126.076 Y97.68 E.0122
G1 X126.49 Y97.986 E.01614
G1 X126.816 Y98.405 E.01665
G1 X126.99 Y98.711 E.01104
G1 X127.11 Y99.098 E.0127
G1 X127.156 Y99.437 E.01073
G1 X127.123 Y99.951 E.01615
G1 X127.015 Y100.323 E.01215
G1 X126.764 Y100.794 E.01673
G1 X126.532 Y101.071 E.01133
G1 X126.433 Y101.155 E.00407
M204 S1000
;WIPE_START
G1 F8640
G1 X126.388 Y101.194 E-.01375
G1 X126.257 Y101.305 E-.03965
G1 X125.939 Y101.493 E-.0853
G1 X125.434 Y101.665 E-.12318
G1 X124.962 Y101.703 E-.10934
G1 X124.524 Y101.641 E-.10214
G1 X124.19 Y101.551 E-.07987
G1 X123.862 Y101.383 E-.08509
G1 X123.448 Y101.052 E-.12239
G1 X123.341 Y100.92 E-.03929
;WIPE_END
G1 Z.6 F720
G1 X124.663 Y102.985 F10800
G1 Z.2 F720
G1 E.8 F2100
M204 S800
;TYPE:Perimeter
G1 F1200
G1 X124.813 Y102.931 E.005
G1 X125.067 Y102.955 E.008
G1 X127.412 Y104.187 E.08306
G1 X127.552 Y104.292 E.00549
G1 X127.663 Y104.457 E.00624
G1 X127.712 Y104.666 E.00673
G1 X127.806 Y107.22 E.08013
G1 X127.771 Y107.437 E.00689
G1 X127.65 Y107.631 E.00717
G1 X127.181 Y107.946 E.01771
G1 X125.377 Y109.078 E.06678
G1 X125.114 Y109.164 E.00868
G1 X124.835 Y109.111 E.0089
G1 X124.683 Y109.031 E.00539
G1 X122.553 Y107.904 E.07556
G1 X122.355 Y107.73 E.00826
G1 X122.252 Y107.425 E.01009
G1 X122.158 Y104.871 E.08013
G1 X122.19 Y104.661 E.00666
G1 X122.289 Y104.488 E.00625
G1 X122.729 Y104.178 E.01688
G1 X124.587 Y103.012 E.06878
G1 X124.607 Y103.005 E.00066
M204 S1000
G1 X124.607 Y103.005 F10800
G1 X124.787 Y103.332
M204 S800
;TYPE:External perimeter
G1 F1200
G1 X124.947 Y103.312 E.00506
G1 X127.235 Y104.52 E.08112
G1 X127.319 Y104.61 E.00386
G1 X127.335 Y104.68 E.00225
G1 X127.429 Y107.234 E.08013
G1 X127.377 Y107.371 E.00459
G1 X125.176 Y108.759 E.08159
G1 X125.013 Y108.777 E.00514
G1 X124.859 Y108.698 E.00543
G1 X122.729 Y107.571 E.07556
G1 X122.632 Y107.437 E.00519
G1 X122.534 Y104.857 E.08095
G1 X122.578 Y104.729 E.00424
G1 X123.299 Y104.265 E.02688
G1 X124.736 Y103.363 E.0532
M204 S1000
;WIPE_START
G1 F8640
G1 X124.787 Y103.332 E-.01378
G1 X124.947 Y103.312 E-.03723
