; generated by PrusaSlicer 2.8.0+win64 on 2024-09-03 at 15:58:42 UTC


;
;
; 

; external perimeters extrusion width = 0.45mm
; perimeters extrusion width = 0.45mm
; infill extrusion width = 0.45mm
; solid infill extrusion width = 0.45mm
; top infill extrusion width = 0.40mm
; support material extrusion width = 0.35mm
; first layer extrusion width = 0.42mm

; external perimeters extrusion width = 0.45mm
; perimeters extrusion width = 0.45mm
; infill extrusion width = 0.45mm
; solid infill extrusion width = 0.45mm
; top infill extrusion width = 0.40mm
; support material extrusion width = 0.35mm
; first layer extrusion width = 0.42mm

; external perimeters extrusion width = 0.45mm
; perimeters extrusion width = 0.45mm
; infill extrusion width = 0.45mm
; solid infill extrusion width = 0.45mm
; top infill extrusion width = 0.40mm
; support material extrusion width = 0.35mm
; first layer extrusion width = 0.42mm

; external perimeters extrusion width = 0.45mm
; perimeters extrusion width = 0.45mm
; infill extrusion width = 0.45mm
; solid infill extrusion width = 0.45mm
; top infill extrusion width = 0.40mm
; support material extrusion width = 0.35mm
; first layer extrusion width = 0.42mm

M73 P0 R34
M73 Q0 S35
M201 X1000 Y1000 Z200 E5000 ; sets maximum accelerations, mm/sec^2
M203 X200 Y200 Z12 E120 ; sets maximum feedrates, mm / sec
M204 S1250 T1250 ; sets acceleration (S) and retract acceleration (R), mm/sec^2
M205 X8.00 Y8.00 Z0.40 E4.50 ; sets the jerk limits, mm/sec
M205 S0 T0 ; sets the minimum extruding and travel feed rate, mm/sec

; printing object 新装载系统_摩擦力测试固定脚 v2.stl id:2 copy 0
; stop printing object 新装载系统_摩擦力测试固定脚 v2.stl id:2 copy 0
; printing object 新装载系统_摩擦力测试固定脚 v2.stl id:1 copy 0
; stop printing object 新装载系统_摩擦力测试固定脚 v2.stl id:1 copy 0
; printing object 新装载系统_摩擦力测试固定脚 v2.stl id:0 copy 0
; stop printing object 新装载系统_摩擦力测试固定脚 v2.stl id:0 copy 0
; printing object 新装载系统_摩擦力测试固定脚 v2.stl id:3 copy 0
; stop printing object 新装载系统_摩擦力测试固定脚 v2.stl id:3 copy 0

;TYPE:Custom
M862.3 P "MK3S" ; printer model check
M862.1 P0.4 ; nozzle diameter check
M115 U3.13.3 ; tell printer latest fw version
G90 ; use absolute coordinates
M83 ; extruder relative mode
M104 S215 ; set extruder temp
M140 S60 ; set bed temp
M190 S60 ; wait for bed temp
M109 S215 ; wait for extruder temp
G28 W ; home all without mesh bed level
G80 X93.5892 Y67.5341 W59.1335 H74.9318 ; mesh bed levelling

G1 Z0.2 F720
G1 Y-3 F1000 ; go outside print area
G92 E0
G1 X60 E9 F1000 ; intro line
G1 X100 E12.5 F1000 ; intro line

G92 E0
M221 S95

; Don't change E values below. Excessive value can damage the printer.
M907 E430 ; set extruder motor current
G21 ; set units to millimeters
G90 ; use absolute coordinates
M83 ; use relative distances for extrusion

M900 K0.05 ; Filament gcode LA 1.5
M900 K30 ; Filament gcode LA 1.0




M107
;LAYER_CHANGE
;Z:0.2
;HEIGHT:0.2
G1 E-.8 F2100
G1 Z.6 F720
G1 X94.169 Y68.663 F10800
G1 Z.2 F720
G1 E.8 F2100
M204 S800
;TYPE:Skirt/Brim
;WIDTH:0.42
G1 F1200
G1 X95.202 Y67.861 E.041
G1 X95.966 Y67.723 E.02434
G1 X149.415 Y67.723 E1.67586
G1 X150.664 Y68.113 E.04103
G1 X151.599 Y69.768 E.0596
G1 X152.534 Y84.314 E.45702
G1 X151.599 Y99.012 E.46178
G1 X151.356 Y99.88 E.02826
G1 X129.882 Y141.1 E1.45729
G1 X128.959 Y142.026 E.04099
G1 X127.941 Y142.277 E.03287
G1 X117.44 Y142.277 E.32925
G1 X116.192 Y141.887 E.041
M73 Q0 S34
G1 X115.499 Y141.1 E.03288
G1 X94.025 Y99.88 E1.45729
G1 X93.778 Y98.869 E.03263
G1 X93.778 Y69.911 E.90796
G1 X94.151 Y68.72 E.03913
M204 S1000
;WIPE_START
G1 F8640
G1 X94.169 Y68.663 E-.0138
G1 X95.202 Y67.861 E-.30197
G1 X95.966 Y67.723 E-.17926
G1 X97.287 Y67.723 E-.30497
;WIPE_END
G1 Z.6 F720
; printing object 新装载系统_摩擦力测试固定脚 v2.stl id:3 copy 0
G1 X127.941 Y140.089 F10800
G1 Z.2 F720
G1 E.8 F2100
M204 S800
;TYPE:Support material
G1 F1200
G1 X123.012 Y140.089 E.15455
G1 X123.261 Y139.84 E.01104
G1 X124.322 Y139.84 E.03327
G1 X124.603 Y139.559 E.01246
G1 X124.603 Y133.063 E.20368
G1 X125.33 Y132.684 E.02571
G1 X126.43 Y131.895 E.04244
G1 X127.941 Y131.895 E.04738
G1 X127.941 Y140.032 E.25513
M204 S1000
G1 X127.941 Y140.032 F10800
M73 Q1 S34
G1 X127.512 Y139.919
M204 S800
G1 F1200
G1 X127.512 Y132.234 E.24096
G1 X127.093 Y132.234 E.01314
M73 P1 R34
G1 X127.093 Y139.749 E.23563
G1 X126.674 Y139.749 E.01314
G1 X126.674 Y132.234 E.23563
G1 X126.555 Y132.234 E.00373
G1 X126.255 Y132.467 E.01191
G1 X126.255 Y139.749 E.22832
G1 X125.836 Y139.749 E.01314
G1 X125.836 Y132.762 E.21907
G1 X125.417 Y133.023 E.01548
G1 X125.417 Y139.749 E.21089
G1 X124.998 Y139.749 E.01314
G1 X124.998 Y133.059 E.20976
M204 S1000
;WIPE_START
G1 F8640
G1 X124.998 Y136.524 E-.8
;WIPE_END
G1 Z.6 F720
G1 X120.643 Y139.559 F10800
G1 Z.2 F720
G1 E.8 F2100
M204 S800
G1 F1200
G1 X120.924 Y139.84 E.01246
G1 X121.985 Y139.84 E.03327
G1 X122.234 Y140.089 E.01104
G1 X117.44 Y140.089 E.15031
G1 X117.44 Y131.895 E.25692
G1 X120.643 Y131.895 E.10043
G1 X120.643 Y139.502 E.23851
M204 S1000
G1 X120.643 Y139.502 F10800
G1 X119.97 Y139.919
M204 S800
G1 F1200
G1 X119.97 Y132.234 E.24096
G1 X119.551 Y132.234 E.01314
G1 X119.551 Y139.749 E.23563
G1 X119.132 Y139.749 E.01314
G1 X119.132 Y132.234 E.23563
G1 X118.713 Y132.234 E.01314
G1 X118.713 Y139.749 E.23563
G1 X118.294 Y139.749 E.01314
G1 X118.294 Y132.234 E.23563
G1 X117.875 Y132.234 E.01314
G1 X117.875 Y139.919 E.24096
M204 S1000
;WIPE_START
G1 F8640
G1 X117.875 Y136.454 E-.8
;WIPE_END
G1 Z.6 F720
G1 X127.941 Y119.325 F10800
G1 Z.2 F720
G1 E.8 F2100
M204 S800
G1 F1200
G1 X126.43 Y119.325 E.04738
G1 X125.33 Y118.536 E.04244
G1 X124.603 Y118.157 E.02571
G1 X124.603 Y111.661 E.20368
G1 X124.322 Y111.38 E.01246
G1 X123.261 Y111.38 E.03327
G1 X123.012 Y111.131 E.01104
G1 X127.941 Y111.131 E.15455
G1 X127.941 Y119.269 E.25516
M204 S1000
G1 X127.941 Y119.269 F10800
G1 X127.512 Y119.155
M204 S800
G1 F1200
G1 X127.512 Y111.471 E.24093
G1 X127.093 Y111.471 E.01314
G1 X127.093 Y118.986 E.23563
G1 X126.674 Y118.986 E.01314
G1 X126.674 Y111.471 E.23563
G1 X126.255 Y111.471 E.01314
G1 X126.255 Y118.753 E.22832
G1 X125.836 Y118.458 E.01607
G1 X125.836 Y111.471 E.21907
G1 X125.417 Y111.471 E.01314
G1 X125.417 Y118.197 E.21089
G1 X124.998 Y117.967 E.01499
G1 X124.998 Y111.301 E.20901
M204 S1000
;WIPE_START
G1 F8640
G1 X124.998 Y114.766 E-.8
;WIPE_END
G1 Z.6 F720
G1 X121.985 Y111.38 F10800
G1 Z.2 F720
G1 E.8 F2100
M204 S800
G1 F1200
G1 X120.924 Y111.38 E.03327
G1 X120.643 Y111.661 E.01246
G1 X120.643 Y119.325 E.2403
G1 X117.44 Y119.325 E.10043
G1 X117.44 Y111.131 E.25692
G1 X122.234 Y111.131 E.15031
G1 X122.025 Y111.34 E.00927
M204 S1000
;WIPE_START
G1 F8640
G1 X122.234 Y111.131 E-.06825
G1 X119.065 Y111.131 E-.73175
;WIPE_END
G1 Z.6 F720
G1 X119.97 Y119.155 F10800
G1 Z.2 F720
G1 E.8 F2100
M204 S800
G1 F1200
G1 X119.97 Y111.471 E.24093
G1 X119.551 Y111.471 E.01314
G1 X119.551 Y118.986 E.23563
G1 X119.132 Y118.986 E.01314
G1 X119.132 Y111.471 E.23563
G1 X118.713 Y111.471 E.01314
G1 X118.713 Y118.986 E.23563
G1 X118.294 Y118.986 E.01314
G1 X118.294 Y111.471 E.23563
G1 X117.875 Y111.471 E.01314
G1 X117.875 Y119.155 E.24093
M204 S1000
;WIPE_START
G1 F8640
G1 X117.875 Y115.69 E-.8
;WIPE_END
G1 Z.6 F720
G1 X123.433 Y132.322 F10800
G1 Z.2 F720
G1 E.8 F2100
M204 S800
;TYPE:Perimeter
;WIDTH:0.419999
G1 F1200
G1 X123.336 Y132.614 E.00965
G1 X123.336 Y138.573 E.18684
G1 X121.91 Y138.573 E.04471
G1 X121.91 Y131.083 E.23484
G1 X122.044 Y131.069 E.00422
G1 X123.061 Y130.795 E.03302
G1 X123.848 Y130.428 E.02723
G1 X124.719 Y129.818 E.03334
G1 X125.331 Y129.206 E.02714
G1 X125.941 Y128.335 E.03334
G1 X126.307 Y127.549 E.02719
G1 X126.583 Y126.523 E.03331
G1 X126.658 Y125.659 E.02719
G1 X126.565 Y124.6 E.03333
G1 X126.341 Y123.763 E.02717
G1 X125.892 Y122.8 E.03331
G1 X125.395 Y122.09 E.02717
G1 X124.609 Y121.314 E.03463
G1 X123.848 Y120.792 E.02893
G1 X123.061 Y120.425 E.02723
G1 X122.542 Y120.277 E.01692
G1 X121.91 Y120.137 E.0203
G1 X121.91 Y112.647 E.23484
G1 X123.336 Y112.647 E.04471
G1 X123.336 Y118.606 E.18684
G1 X123.448 Y118.944 E.01116
G1 X123.667 Y119.121 E.00883
G1 X124.276 Y119.403 E.02104
G1 X124.728 Y119.656 E.01624
G1 X125.446 Y120.153 E.02738
G1 X125.831 Y120.481 E.01586
G1 X126.19 Y120.836 E.01583
G1 X126.545 Y121.246 E.017
G1 X127.037 Y121.937 E.0266
G1 X127.289 Y122.376 E.01587
G1 X127.506 Y122.832 E.01583
G1 X127.709 Y123.361 E.01777
G1 X127.931 Y124.155 E.02585
G1 X128.019 Y124.652 E.01583
G1 X128.07 Y125.155 E.01585
G1 X128.083 Y125.541 E.01211
G1 X128.07 Y126.065 E.01643
G1 X128.019 Y126.568 E.01585
G1 X127.931 Y127.065 E.01583
G1 X127.69 Y127.919 E.02782
G1 X127.506 Y128.388 E.0158
G1 X127.289 Y128.844 E.01583
G1 X127.037 Y129.283 E.01587
G1 X126.545 Y129.974 E.0266
G1 X126.19 Y130.384 E.017
G1 X125.831 Y130.739 E.01583
G1 X125.446 Y131.067 E.01586
G1 X124.697 Y131.584 E.02854
G1 X124.254 Y131.828 E.01586
G1 X123.667 Y132.099 E.02027
G1 X123.457 Y132.269 E.00847
M204 S1000
G1 X123.457 Y132.269 F10800
G1 X123.759 Y132.525
M204 S800
;TYPE:External perimeter
G1 F1200
G1 X123.713 Y132.614 E.00314
G1 X123.713 Y138.95 E.19866
G1 X121.533 Y138.95 E.06835
G1 X121.533 Y130.742 E.25736
G1 X122.035 Y130.688 E.01583
M73 Q2 S34
G1 X122.903 Y130.453 E.0282
G1 X123.688 Y130.086 E.02717
M73 P2 R34
G1 X124.452 Y129.552 E.02923
G1 X125.065 Y128.939 E.02718
G1 X125.599 Y128.176 E.0292
G1 X125.966 Y127.39 E.0272
G1 X126.207 Y126.49 E.02921
G1 X126.282 Y125.626 E.02719
G1 X126.201 Y124.698 E.02921
G1 X125.977 Y123.861 E.02717
G1 X125.583 Y123.016 E.02923
G1 X125.086 Y122.306 E.02717
G1 X124.427 Y121.647 E.02922
G1 X123.717 Y121.15 E.02717
G1 X122.872 Y120.756 E.02923
G1 X122.035 Y120.532 E.02717
G1 X121.533 Y120.478 E.01583
G1 X121.533 Y112.27 E.25736
G1 X123.713 Y112.27 E.06835
G1 X123.713 Y118.606 E.19866
G1 X123.75 Y118.719 E.00373
G1 X123.825 Y118.778 E.00299
G1 X124.457 Y119.073 E.02187
G1 X124.9 Y119.318 E.01587
G1 X125.325 Y119.594 E.01589
G1 X125.73 Y119.898 E.01588
G1 X126.113 Y120.229 E.01587
G1 X126.472 Y120.586 E.01587
G1 X126.809 Y120.97 E.01602
G1 X127.113 Y121.37 E.01575
G1 X127.391 Y121.793 E.01587
G1 X127.639 Y122.234 E.01586
G1 X127.856 Y122.692 E.01589
G1 X128.041 Y123.163 E.01587
G1 X128.194 Y123.646 E.01589
G1 X128.312 Y124.138 E.01586
G1 X128.397 Y124.638 E.0159
G1 X128.447 Y125.142 E.01588
G1 X128.461 Y125.648 E.01587
G1 X128.441 Y126.154 E.01588
G1 X128.386 Y126.657 E.01587
G1 X128.297 Y127.156 E.01589
G1 X128.173 Y127.647 E.01588
G1 X128.016 Y128.128 E.01586
G1 X127.826 Y128.597 E.01587
G1 X127.604 Y129.053 E.0159
G1 X127.351 Y129.491 E.01586
G1 X127.069 Y129.912 E.01589
G1 X126.758 Y130.311 E.01586
G1 X126.42 Y130.689 E.0159
G1 X126.057 Y131.042 E.01588
G1 X125.671 Y131.369 E.01586
G1 X125.263 Y131.669 E.01588
G1 X124.835 Y131.94 E.01588
G1 X124.39 Y132.181 E.01587
G1 X123.794 Y132.459 E.02062
G1 X123.787 Y132.472 E.00046
M204 S1000
;WIPE_START
G1 F8640
G1 X123.759 Y132.525 E-.01384
G1 X123.713 Y132.614 E-.02313
G1 X123.713 Y135.919 E-.76303
;WIPE_END
G1 Z.6 F720
G1 X127.024 Y122.254 F10800
G1 Z.2 F720
G1 E.8 F2100
M204 S800
;TYPE:Solid infill
;WIDTH:0.421198
G1 F1200
G1 X124.477 Y119.707 E.1133
M204 S1000
;WIPE_START
G1 F8640
G1 X126.927 Y122.157 E-.8
;WIPE_END
G1 Z.6 F720
G1 X123.166 Y113.582 F10800
G1 Z.2 F720
G1 E.8 F2100
M204 S800
G1 F1200
G1 X122.571 Y112.986 E.02649
G1 X122.249 Y112.986 E.01013
G1 X122.249 Y113.2 E.00673
G1 X122.996 Y113.947 E.03323
G1 X122.996 Y114.482 E.01683
G1 X122.249 Y113.735 E.03323
G1 X122.249 Y114.27 E.01683
G1 X122.996 Y115.017 E.03323
G1 X122.996 Y115.552 E.01683
G1 X122.249 Y114.805 E.03323
G1 X122.249 Y115.34 E.01683
G1 X122.996 Y116.087 E.03323
G1 X122.996 Y116.622 E.01683
G1 X122.249 Y115.875 E.03323
G1 X122.249 Y116.41 E.01683
G1 X122.996 Y117.157 E.03323
G1 X122.996 Y117.692 E.01683
G1 X122.249 Y116.945 E.03323
G1 X122.249 Y117.479 E.0168
G1 X123.166 Y118.396 E.04079
M204 S1000
;WIPE_START
G1 F8640
G1 X122.249 Y117.479 E-.29944
G1 X122.249 Y116.945 E-.1233
G1 X122.996 Y117.692 E-.24393
G1 X122.996 Y117.157 E-.12353
G1 X122.966 Y117.127 E-.0098
;WIPE_END
G1 Z.6 F720
G1 X122.08 Y117.845 F10800
G1 Z.2 F720
G1 E.8 F2100
M204 S800
G1 F1200
G1 X127.19 Y122.955 E.22731
G1 X127.355 Y123.369 E.01402
G1 X127.489 Y123.789 E.01387
G1 X122.249 Y118.549 E.23309
G1 X122.249 Y119.084 E.01683
G1 X123.368 Y120.203 E.04978
G1 X123.069 Y120.067 E.01033
G1 X122.566 Y119.936 E.01635
G1 X122.08 Y119.45 E.02162
M204 S1000
;WIPE_START
G1 F8640
G1 X122.566 Y119.936 E-.1587
G1 X123.069 Y120.067 E-.12002
G1 X123.368 Y120.203 E-.07585
G1 X122.249 Y119.084 E-.3654
G1 X122.249 Y118.738 E-.08003
;WIPE_END
G1 Z.6 F720
G1 X126.191 Y123.026 F10800
G1 Z.2 F720
G1 E.8 F2100
M204 S800
G1 F1200
G1 X127.645 Y124.48 E.06468
G1 X127.724 Y125.094 E.01947
G1 X126.799 Y124.168 E.04117
G1 X126.911 Y124.591 E.01376
G1 X126.933 Y124.838 E.0078
G1 X127.744 Y125.649 E.03608
G1 X127.72 Y126.16 E.01609
G1 X126.984 Y125.424 E.03274
G1 X127 Y125.61 E.00587
G1 X126.971 Y125.946 E.01061
G1 X127.663 Y126.637 E.03076
G1 X127.576 Y127.086 E.01439
G1 X126.928 Y126.438 E.02882
G1 X126.911 Y126.629 E.00603
G1 X126.842 Y126.887 E.0084
G1 X127.465 Y127.51 E.02771
G1 X127.331 Y127.911 E.0133
G1 X126.73 Y127.31 E.02673
G1 X126.651 Y127.606 E.00964
G1 X126.6 Y127.715 E.00379
G1 X127.178 Y128.292 E.02569
G1 X127.004 Y128.653 E.01261
G1 X126.431 Y128.08 E.02549
G1 X126.261 Y128.446 E.01269
G1 X126.812 Y128.996 E.02449
G1 X126.603 Y129.323 E.01221
G1 X126.054 Y128.774 E.02442
G1 X125.833 Y129.088 E.01208
G1 X126.379 Y129.633 E.02427
G1 X126.139 Y129.929 E.01199
G1 X125.613 Y129.402 E.02342
G1 X125.345 Y129.67 E.01192
G1 X125.885 Y130.21 E.02402
G1 X125.616 Y130.475 E.01188
G1 X125.077 Y129.937 E.02395
G1 X124.906 Y130.107 E.00758
G1 X124.793 Y130.187 E.00435
G1 X125.328 Y130.723 E.02382
G1 X125.254 Y130.787 E.00308
G1 X125.026 Y130.956 E.00893
G1 X124.478 Y130.407 E.0244
G1 X124.163 Y130.627 E.01209
G1 X124.709 Y131.173 E.02429
G1 X124.376 Y131.375 E.01225
G1 X123.816 Y130.815 E.02491
G1 X123.451 Y130.985 E.01266
G1 X124.026 Y131.56 E.02558
G1 X123.661 Y131.731 E.01268
G1 X123.078 Y131.148 E.02593
G1 X122.655 Y131.259 E.01376
G1 X123.329 Y131.933 E.02998
G1 X123.166 Y132.078 E.00686
G1 X123.109 Y132.249 E.00567
G1 X122.249 Y131.389 E.03826
G1 X122.249 Y131.924 E.01683
G1 X122.996 Y132.671 E.03323
G1 X122.996 Y133.206 E.01683
G1 X122.249 Y132.459 E.03323
G1 X122.249 Y132.993 E.0168
G1 X122.996 Y133.741 E.03325
G1 X122.996 Y134.276 E.01683
G1 X122.249 Y133.528 E.03325
G1 X122.249 Y134.063 E.01683
G1 X122.996 Y134.811 E.03325
G1 X122.996 Y135.345 E.0168
G1 X122.249 Y134.598 E.03323
G1 X122.249 Y135.133 E.01683
G1 X122.996 Y135.88 E.03323
G1 X122.996 Y136.415 E.01683
G1 X122.249 Y135.668 E.03323
G1 X122.249 Y136.203 E.01683
G1 X122.996 Y136.95 E.03323
G1 X122.996 Y137.485 E.01683
G1 X122.249 Y136.738 E.03323
G1 X122.249 Y137.273 E.01683
G1 X122.996 Y138.02 E.03323
G1 X122.996 Y138.234 E.00673
G1 X122.675 Y138.234 E.0101
G1 X122.08 Y137.638 E.02649
M204 S1000
;WIPE_START
G1 F8640
G1 X122.675 Y138.234 E-.19446
G1 X122.996 Y138.234 E-.07412
G1 X122.996 Y138.02 E-.04941
G1 X122.249 Y137.273 E-.24393
G1 X122.249 Y136.738 E-.12353
G1 X122.6 Y137.089 E-.11455
;WIPE_END
G1 Z.6 F720
; stop printing object 新装载系统_摩擦力测试固定脚 v2.stl id:3 copy 0
; printing object 新装载系统_摩擦力测试固定脚 v2.stl id:0 copy 0
G1 X106.467 Y98.869 F10800
G1 Z.2 F720
G1 E.8 F2100
M204 S800
;TYPE:Support material
;WIDTH:0.42
G1 F1200
G1 X101.538 Y98.869 E.15455
G1 X101.787 Y98.62 E.01104
G1 X102.848 Y98.62 E.03327
G1 X103.129 Y98.339 E.01246
G1 X103.129 Y91.843 E.20368
G1 X103.856 Y91.464 E.02571
G1 X104.955 Y90.675 E.04242
G1 X106.467 Y90.675 E.04741
G1 X106.467 Y98.812 E.25513
M204 S1000
G1 X106.467 Y98.812 F10800
G1 X106.038 Y98.699
M204 S800
G1 F1200
G1 X106.038 Y91.014 E.24096
G1 X105.619 Y91.014 E.01314
G1 X105.619 Y98.529 E.23563
G1 X105.2 Y98.529 E.01314
G1 X105.2 Y91.014 E.23563
G1 X105.081 Y91.014 E.00373
G1 X104.781 Y91.247 E.01191
G1 X104.781 Y98.529 E.22832
G1 X104.362 Y98.529 E.01314
M73 P2 R33
G1 X104.362 Y91.542 E.21907
G1 X103.943 Y91.803 E.01548
G1 X103.943 Y98.529 E.21089
G1 X103.524 Y98.529 E.01314
G1 X103.524 Y91.839 E.20976
M204 S1000
;WIPE_START
