; generated by PrusaSlicer 2.8.0+win64 on 2024-08-11 at 03:27:30 UTC


;
;
; 

; external perimeters extrusion width = 0.45mm
; perimeters extrusion width = 0.45mm
; infill extrusion width = 0.45mm
; solid infill extrusion width = 0.45mm
; top infill extrusion width = 0.40mm
; support material extrusion width = 0.35mm
; first layer extrusion width = 0.42mm

; external perimeters extrusion width = 0.45mm
; perimeters extrusion width = 0.45mm
; infill extrusion width = 0.45mm
; solid infill extrusion width = 0.45mm
; top infill extrusion width = 0.40mm
; support material extrusion width = 0.35mm
; first layer extrusion width = 0.42mm

M73 P0 R99
M73 Q0 S100
M201 X1000 Y1000 Z200 E5000 ; sets maximum accelerations, mm/sec^2
M203 X200 Y200 Z12 E120 ; sets maximum feedrates, mm / sec
M204 S1250 T1250 ; sets acceleration (S) and retract acceleration (R), mm/sec^2
M205 X8.00 Y8.00 Z0.40 E4.50 ; sets the jerk limits, mm/sec
M205 S0 T0 ; sets the minimum extruding and travel feed rate, mm/sec

; printing object 新装载系统_前面板挡板 v3.stl_2 id:1 copy 0
; stop printing object 新装载系统_前面板挡板 v3.stl_2 id:1 copy 0
; printing object 新装载系统_前面板挡板 v3.stl_1 id:0 copy 0
; stop printing object 新装载系统_前面板挡板 v3.stl_1 id:0 copy 0

;TYPE:Custom
M862.3 P "MK3S" ; printer model check
M862.1 P0.4 ; nozzle diameter check
M115 U3.13.3 ; tell printer latest fw version
G90 ; use absolute coordinates
M83 ; extruder relative mode
M104 S215 ; set extruder temp
M140 S60 ; set bed temp
M190 S60 ; wait for bed temp
M109 S215 ; wait for extruder temp
G28 W ; home all without mesh bed level
G80 X78.9723 Y62.7082 W90.9476 H78.9446 ; mesh bed levelling

G1 Z0.2 F720
G1 Y-3 F1000 ; go outside print area
G92 E0
G1 X60 E9 F1000 ; intro line
G1 X100 E12.5 F1000 ; intro line
M73 P0 R98

G92 E0
M221 S95

; Don't change E values below. Excessive value can damage the printer.
M907 E430 ; set extruder motor current
G21 ; set units to millimeters
G90 ; use absolute coordinates
M83 ; use relative distances for extrusion

M900 K0.05 ; Filament gcode LA 1.5
M900 K30 ; Filament gcode LA 1.0




M107
;LAYER_CHANGE
;Z:0.2
;HEIGHT:0.2
G1 E-.8 F2100
G1 Z.6 F720
G1 X81.03 Y66.165 F10800
G1 Z.2 F720
G1 E.8 F2100
M204 S800
;TYPE:Skirt/Brim
;WIDTH:0.42
G1 F1200
G1 X81.942 Y65.19 E.04186
G1 X82.835 Y64.47 E.03597
G1 X84.314 Y63.645 E.0531
G1 X86.013 Y63.092 E.05602
G1 X87.63 Y62.897 E.05107
G1 X156.586 Y65.232 E2.16331
G1 X157.871 Y65.306 E.04036
G1 X159.502 Y65.68 E.05247
G1 X160.978 Y66.338 E.05067
G1 X162.254 Y67.217 E.04858
G1 X163.479 Y68.456 E.05463
G1 X168.646 Y74.662 E.2532
G1 X169.059 Y75.426 E.02723
G1 X169.609 Y77.238 E.05937
G1 X169.703 Y77.835 E.01895
G1 X169.731 Y82.221 E.13752
G1 X169.504 Y84.126 E.06015
G1 X156.918 Y135.009 E1.64348
G1 X156.431 Y136.869 E.06028
G1 X156.137 Y137.614 E.02511
G1 X155.719 Y138.284 E.02476
G1 X154.611 Y139.501 E.0516
G1 X153.533 Y140.428 E.04458
G1 X152.862 Y140.811 E.02422
G1 X151.379 Y141.338 E.04935
G1 X150.628 Y141.464 E.02388
G1 X133.646 Y141.324 E.53248
G1 X99.453 Y138.975 E1.07462
G1 X97.706 Y138.699 E.05546
G1 X96.816 Y138.34 E.03009
G1 X95.614 Y137.51 E.0458
G1 X95.111 Y137.028 E.02184
G1 X94.118 Y135.664 E.0529
G1 X93.581 Y134.642 E.0362
G1 X93.227 Y133.569 E.03543
G1 X82.037 Y88.556 E1.45431
G1 X80.699 Y82.908 E.18199
G1 X79.201 Y72.432 E.33181
G1 X79.161 Y70.997 E.04501
G1 X79.331 Y69.761 E.03912
G1 X79.555 Y68.873 E.02871
G1 X80.148 Y67.498 E.04695
G1 X80.997 Y66.215 E.04824
M204 S1000
;WIPE_START
G1 F8640
G1 X81.03 Y66.165 E-.01383
G1 X81.942 Y65.19 E-.30827
G1 X82.835 Y64.47 E-.26487
G1 X83.641 Y64.021 E-.21303
;WIPE_END
G1 Z.6 F720
; printing object 新装载系统_前面板挡板 v3.stl_1 id:0 copy 0
G1 X157.744 Y67.491 F10800
G1 Z.2 F720
G1 E.8 F2100
M204 S800
;TYPE:Support material
G1 F1200
G1 X158.963 Y67.801 E.03944
G1 X160.037 Y68.313 E.03731
G1 X160.97 Y68.989 E.03613
G1 X161.798 Y69.857 E.03761
G1 X162.425 Y70.816 E.03593
G1 X162.788 Y71.677 E.0293
G1 X162.959 Y72.849 E.03714
G1 X163.613 Y73.235 E.02381
G1 X164.442 Y74.14 E.03848
G1 X164.755 Y74.793 E.0227
G1 X165.493 Y74.862 E.02324
G1 X166.965 Y76.062 E.05955
G1 X167.515 Y77.874 E.05937
G1 X167.3 Y78.59 E.02344
G1 X167.542 Y79.388 E.02615
G1 X167.33 Y80.104 E.02341
G1 X167.542 Y80.805 E.02296
G1 X167.33 Y81.521 E.02341
G1 X167.543 Y82.222 E.02297
G1 X167.254 Y83.196 E.03186
G1 X167.379 Y83.6 E.01326
G1 X166.809 Y85.452 E.06076
G1 X166.566 Y85.652 E.00987
G1 X166.464 Y86.003 E.01146
G1 X165.421 Y86.947 E.04411
G1 X165.57 Y87.477 E.01726
G1 X165.678 Y88.614 E.03581
G1 X165.581 Y89.752 E.03581
G1 X165.282 Y90.855 E.03583
G1 X164.79 Y91.888 E.03588
G1 X164.121 Y92.817 E.03589
G1 X163.296 Y93.611 E.0359
G1 X162.341 Y94.245 E.03594
G1 X161.288 Y94.697 E.03593
G1 X160.17 Y94.954 E.03597
G1 X159.025 Y95.006 E.03594
G1 X157.889 Y94.852 E.03594
G1 X156.799 Y94.496 E.03595
G1 X155.79 Y93.951 E.03596
G1 X155.42 Y93.655 E.01486
G1 X155.246 Y94.191 E.01767
G1 X154.909 Y94.469 E.0137
G1 X154.567 Y95.547 E.03546
G1 X154.273 Y95.79 E.01196
G1 X154.516 Y96.588 E.02616
G1 X154.287 Y97.353 E.02504
G1 X154.516 Y98.104 E.02462
G1 X154.287 Y98.87 E.02507
G1 X154.516 Y99.621 E.02462
G1 X154.287 Y100.386 E.02504
G1 X154.516 Y101.138 E.02465
G1 X154.287 Y101.903 E.02504
G1 X154.517 Y102.654 E.02463
G1 X154.287 Y103.42 E.02508
G1 X154.517 Y104.171 E.02463
G1 X154.287 Y104.936 E.02505
G1 X154.517 Y105.688 E.02466
G1 X154.288 Y106.453 E.02504
G1 X154.517 Y107.204 E.02462
G1 X154.288 Y107.97 E.02507
G1 X154.517 Y108.721 E.02462
G1 X154.288 Y109.486 E.02504
G1 X154.517 Y110.238 E.02465
G1 X154.288 Y111.003 E.02504
G1 X154.517 Y111.754 E.02462
G1 X154.288 Y112.52 E.02507
G1 X154.517 Y113.271 E.02462
G1 X154.288 Y114.036 E.02504
G1 X154.517 Y114.788 E.02465
G1 X154.288 Y115.553 E.02504
G1 X154.517 Y116.304 E.02462
G1 X154.288 Y117.07 E.02507
G1 X154.517 Y117.821 E.02462
G1 X154.288 Y118.586 E.02504
G1 X154.517 Y119.338 E.02465
G1 X154.288 Y120.103 E.02504
G1 X154.517 Y120.854 E.02462
G1 X154.288 Y121.62 E.02507
G1 X154.517 Y122.371 E.02462
G1 X154.288 Y123.136 E.02504
G1 X154.517 Y123.888 E.02465
G1 X154.288 Y124.653 E.02504
G1 X154.517 Y125.404 E.02462
G1 X154.288 Y126.17 E.02507
G1 X154.517 Y126.921 E.02462
G1 X154.288 Y127.686 E.02504
G1 X154.518 Y128.438 E.02466
G1 X154.288 Y129.203 E.02505
G1 X154.518 Y129.954 E.02463
G1 X154.289 Y130.72 E.02507
G1 X154.518 Y131.471 E.02462
G1 X154.289 Y132.236 E.02504
G1 X154.518 Y132.987 E.02462
G1 X154.464 Y133.168 E.00592
G1 X154.796 Y134.475 E.04228
G1 X154.396 Y136.065 E.05141
G1 X154.245 Y136.23 E.00701
G1 X154.101 Y136.81 E.01874
G1 X152.993 Y138.027 E.0516
G1 X152.754 Y138.11 E.00793
G1 X152.129 Y138.749 E.02803
G1 X150.646 Y139.276 E.04935
G1 X148.644 Y138.986 E.06343
G1 X147.418 Y139.135 E.03872
G1 X147.127 Y138.986 E.01025
G1 X145.901 Y139.135 E.03872
G1 X145.61 Y138.986 E.01025
G1 X144.385 Y139.135 E.03869
G1 X144.093 Y138.986 E.01028
G1 X142.868 Y139.135 E.03869
G1 X142.461 Y138.927 E.01433
G1 X140.748 Y139.135 E.0541
G1 X140.475 Y138.996 E.00961
G1 X139.331 Y139.135 E.03613
G1 X139.059 Y138.996 E.00958
G1 X137.914 Y139.135 E.03616
G1 X137.642 Y138.996 E.00958
G1 X136.498 Y139.135 E.03613
G1 X136.226 Y138.996 E.00958
G1 X135.081 Y139.135 E.03616
G1 X134.809 Y138.996 E.00958
G1 X133.664 Y139.135 E.03616
G1 X133.128 Y138.861 E.01887
G1 X132.565 Y139.037 E.01849
G1 X131.012 Y138.816 E.04918
G1 X129.687 Y137.836 E.05167
G1 X129.497 Y137.427 E.01414
G1 X129.017 Y136.888 E.02263
G1 X128.475 Y135.746 E.03963
G1 X128.477 Y135.402 E.01079
G1 X128.278 Y134.981 E.0146
G1 X128.278 Y133.545 E.04502
G1 X128.621 Y132.819 E.02518
G1 X128.621 Y77.166 E1.74496
G1 X129.538 Y75.622 E.05631
G1 X131.066 Y74.874 E.05334
G1 X131.976 Y74.89 E.02854
G1 X133.081 Y75.062 E.03506
G1 X134.467 Y76.224 E.05671
G1 X134.861 Y77.537 E.04298
G1 X132.707 Y77.537 E.06754
G1 X132.425 Y77.818 E.01248
G1 X132.433 Y134.365 E1.77299
G1 X132.821 Y134.995 E.0232
G1 X133.477 Y135.242 E.02198
G1 X149.746 Y135.199 E.5101
G1 X150.179 Y134.995 E.01501
G1 X150.411 Y134.692 E.01197
G1 X150.588 Y134.222 E.01575
G1 X150.575 Y94.799 E1.23608
G1 X155.928 Y84.091 E.37536
G1 X162.563 Y84.088 E.20804
G1 X163.057 Y83.94 E.01617
G1 X163.423 Y83.574 E.01623
G1 X163.571 Y83.079 E.0162
G1 X163.575 Y77.818 E.16496
G1 X163.293 Y77.537 E.01248
G1 X151.649 Y77.537 E.36509
G1 X151.101 Y76.654 E.03258
G1 X150.677 Y75.581 E.03617
G1 X150.451 Y74.44 E.03647
G1 X150.432 Y73.24 E.03763
G1 X150.673 Y72.03 E.03868
G1 X151.072 Y71.033 E.03367
G1 X151.644 Y70.089 E.03461
G1 X152.644 Y69.017 E.04597
G1 X153.289 Y68.51 E.02572
G1 X154.283 Y67.962 E.03559
G1 X155.386 Y67.588 E.03652
G1 X156.512 Y67.42 E.0357
G1 X157.688 Y67.488 E.03693
M204 S1000
;WIPE_START
G1 F8640
G1 X156.512 Y67.42 E-.272
G1 X155.386 Y67.588 E-.26287
G1 X154.298 Y67.957 E-.26513
;WIPE_END
G1 Z.6 F720
G1 X166.854 Y84.766 F10800
G1 Z.2 F720
G1 E.8 F2100
M204 S800
G1 F1200
G1 X166.854 Y76.866 E.2477
G1 X166.67 Y76.26 E.01986
G1 X166.435 Y76.069 E.0095
G1 X166.435 Y85.321 E.29009
G1 X166.27 Y85.457 E.0067
G1 X166.166 Y85.811 E.01157
G1 X166.016 Y85.94 E.0062
G1 X166.016 Y75.727 E.32022
G1 X165.597 Y75.385 E.01696
G1 X165.597 Y86.524 E.34926
M204 S1000
G1 X165.178 Y90.59 F10800
M204 S800
G1 F1200
G1 X165.178 Y75.173 E.48339
G1 X164.759 Y75.134 E.01319
G1 X164.759 Y91.164 E.50261
G1 X164.34 Y91.932 E.02743
G1 X164.34 Y74.713 E.53989
G1 X164.158 Y74.332 E.01324
G1 X163.921 Y74.073 E.01101
G1 X163.921 Y92.513 E.57817
G1 X163.502 Y92.941 E.01878
G1 X163.502 Y83.975 E.28112
G1 X163.083 Y84.317 E.01696
G1 X163.083 Y93.344 E.28304
G1 X162.664 Y93.623 E.01578
G1 X162.664 Y84.415 E.28871
G1 X162.245 Y84.433 E.01315
G1 X162.245 Y93.901 E.29686
G1 X162.179 Y93.945 E.00249
G1 X161.826 Y94.097 E.01205
G1 X161.826 Y84.435 E.30295
G1 X161.407 Y84.438 E.01314
G1 X161.407 Y94.277 E.30849
G1 X160.988 Y94.418 E.01386
G1 X160.988 Y84.441 E.31282
G1 X160.569 Y84.444 E.01314
G1 X160.569 Y94.514 E.31574
G1 X160.15 Y94.61 E.01348
G1 X160.15 Y84.447 E.31865
G1 X159.731 Y84.447 E.01314
G1 X159.731 Y94.634 E.31941
G1 X159.312 Y94.653 E.01315
G1 X159.312 Y84.445 E.32006
G1 X158.893 Y84.443 E.01314
G1 X158.893 Y94.646 E.31991
G1 X158.474 Y94.589 E.01326
G1 X158.474 Y84.442 E.31815
G1 X158.055 Y84.44 E.01314
G1 X158.055 Y94.532 E.31643
G1 X157.636 Y94.412 E.01367
G1 X157.636 Y84.438 E.31273
G1 X157.217 Y84.436 E.01314
G1 X157.217 Y94.276 E.30853
M73 Q0 S99
G1 X156.799 Y94.11 E.0141
G1 X156.799 Y84.435 E.30335
G1 X156.38 Y84.433 E.01314
G1 X156.38 Y93.884 E.29633
G1 X155.961 Y93.653 E.015
G1 X155.961 Y84.792 E.27783
G1 X155.542 Y85.64 E.02966
G1 X155.542 Y93.317 E.24071
G1 X155.249 Y93.082 E.01178
G1 X155.123 Y93.471 E.01282
G1 X155.123 Y86.488 E.21895
G1 X154.704 Y87.336 E.02966
G1 X154.704 Y94.199 E.21518
G1 X154.612 Y94.274 E.00372
G1 X154.285 Y95.318 E.0343
G1 X154.285 Y88.161 E.2244
G1 X153.866 Y88.983 E.02893
G1 X153.866 Y136.35 E1.48516
G1 X153.793 Y136.645 E.00953
M73 P1 R98
M73 Q1 S99
G1 X153.447 Y137.025 E.01611
G1 X153.447 Y89.813 E1.4803
G1 X153.028 Y90.651 E.02938
M73 P1 R97
G1 X153.028 Y137.485 E1.46845
G1 X152.8 Y137.735 E.01061
G1 X152.609 Y137.801 E.00634
G1 X152.609 Y91.489 E1.45208
G1 X152.19 Y92.327 E.02938
G1 X152.19 Y138.207 E1.43854
G1 X151.943 Y138.455 E.01097
G1 X151.771 Y138.516 E.00572
G1 X151.771 Y93.165 E1.42195
G1 X151.352 Y94.003 E.02938
G1 X151.352 Y138.665 E1.40035
G1 X150.933 Y138.814 E.01394
G1 X150.933 Y94.841 E1.37874
G1 X150.932 Y134.221 E1.23473
G1 X150.895 Y134.465 E.00774
G1 X150.514 Y135.118 E.0237
G1 X150.514 Y138.911 E.11893
G1 X150.095 Y138.845 E.0133
G1 X150.095 Y135.428 E.10714
G1 X149.676 Y135.562 E.01379
G1 X149.676 Y138.779 E.10087
G1 X149.257 Y138.713 E.0133
G1 X149.257 Y135.581 E.0982
G1 X148.838 Y135.581 E.01314
G1 X148.838 Y138.68 E.09717
G1 X148.419 Y138.672 E.01314
G1 X148.419 Y135.581 E.09692
G1 X148 Y135.581 E.01314
G1 X148 Y138.723 E.09852
G1 X147.581 Y138.774 E.01323
G1 X147.581 Y135.581 E.10011
G1 X147.162 Y135.581 E.01314
G1 X147.162 Y138.64 E.09591
G1 X146.743 Y138.691 E.01323
G1 X146.743 Y135.581 E.09751
G1 X146.324 Y135.581 E.01314
G1 X146.324 Y138.742 E.09911
G1 X145.963 Y138.786 E.0114
G1 X145.905 Y138.756 E.00205
G1 X145.905 Y135.581 E.09955
G1 X145.486 Y135.581 E.01314
G1 X145.486 Y138.659 E.09651
G1 X145.067 Y138.71 E.01323
G1 X145.067 Y135.581 E.09811
G1 X144.648 Y135.581 E.01314
G1 X144.648 Y138.761 E.09971
G1 X144.447 Y138.786 E.00635
G1 X144.229 Y138.674 E.00768
G1 X144.229 Y135.581 E.09698
G1 X143.81 Y135.581 E.01314
G1 X143.81 Y138.679 E.09714
G1 X143.391 Y138.73 E.01323
G1 X143.391 Y135.581 E.09873
G1 X142.972 Y135.581 E.01314
G1 X142.93 Y138.786 E.1005
G1 X142.553 Y138.593 E.01328
G1 X142.553 Y135.581 E.09444
G1 X142.134 Y135.581 E.01314
G1 X142.134 Y138.625 E.09544
G1 X141.715 Y138.676 E.01323
G1 X141.715 Y135.581 E.09704
G1 X141.296 Y135.581 E.01314
G1 X141.296 Y138.727 E.09864
G1 X140.877 Y138.777 E.01323
G1 X140.877 Y135.581 E.10021
G1 X140.458 Y135.581 E.01314
G1 X140.458 Y138.656 E.09641
G1 X140.039 Y138.707 E.01323
G1 X140.039 Y135.581 E.09801
G1 X139.62 Y135.581 E.01314
G1 X139.62 Y138.758 E.09961
G1 X139.393 Y138.786 E.00717
G1 X139.201 Y138.688 E.00676
G1 X139.201 Y135.581 E.09742
G1 X138.782 Y135.581 E.01314
G1 X138.782 Y138.688 E.09742
G1 X138.364 Y138.739 E.0132
G1 X138.364 Y135.581 E.09902
G1 X137.945 Y135.581 E.01314
G1 X137.945 Y138.769 E.09996
G1 X137.704 Y138.646 E.00848
G1 X137.526 Y138.668 E.00562
G1 X137.526 Y135.581 E.09679
G1 X137.107 Y135.581 E.01314
G1 X137.107 Y138.719 E.09839
G1 X136.688 Y138.77 E.01323
G1 X136.688 Y135.581 E.09999
G1 X136.269 Y135.581 E.01314
G1 X136.269 Y138.649 E.09619
G1 X135.85 Y138.7 E.01323
G1 X135.85 Y135.581 E.09779
G1 X135.431 Y135.581 E.01314
G1 X135.431 Y138.751 E.09939
G1 X135.143 Y138.786 E.0091
G1 X135.012 Y138.718 E.00463
G1 X135.012 Y135.581 E.09836
G1 X134.593 Y135.581 E.01314
G1 X134.593 Y138.68 E.09717
G1 X134.174 Y138.731 E.01323
G1 X134.174 Y135.581 E.09877
G1 X133.755 Y135.581 E.01314
G1 X133.726 Y138.786 E.10049
G1 X133.336 Y138.586 E.01374
G1 X133.336 Y135.564 E.09475
G1 X132.917 Y135.432 E.01377
G1 X132.917 Y138.571 E.09842
G1 X132.498 Y138.685 E.01362
G1 X132.498 Y134.859 E.11996
M204 S1000
;WIPE_START
G1 F8640
G1 X132.498 Y138.324 E-.8
;WIPE_END
G1 Z.6 F720
G1 X163.502 Y77.506 F10800
G1 Z.2 F720
G1 E.8 F2100
M204 S800
G1 F1200
G1 X163.502 Y73.616 E.12197
G1 X163.083 Y73.316 E.01616
G1 X163.083 Y77.198 E.12172
G1 X162.664 Y77.198 E.01314
G1 X162.664 Y73.067 E.12952
G1 X162.46 Y71.774 E.04104
G1 X162.245 Y71.263 E.01738
G1 X162.245 Y77.198 E.18609
G1 X161.826 Y77.198 E.01314
G1 X161.826 Y70.52 E.20938
G1 X161.407 Y69.936 E.02254
G1 X161.407 Y77.198 E.22769
G1 X160.988 Y77.198 E.01314
G1 X160.988 Y69.494 E.24155
G1 X160.569 Y69.118 E.01765
G1 X160.569 Y77.198 E.25334
G1 X160.15 Y77.198 E.01314
G1 X160.15 Y68.815 E.26284
G1 X159.731 Y68.544 E.01565
G1 X159.731 Y77.198 E.27134
G1 X159.312 Y77.198 E.01314
G1 X159.312 Y68.344 E.27761
G1 X158.893 Y68.144 E.01456
G1 X158.893 Y77.198 E.28388
G1 X158.474 Y77.198 E.01314
G1 X158.474 Y68.027 E.28755
G1 X158.055 Y67.92 E.01356
G1 X158.055 Y77.198 E.29091
G1 X157.636 Y77.198 E.01314
G1 X157.636 Y67.825 E.29388
G1 X157.217 Y67.8 E.01316
G1 X157.217 Y77.198 E.29467
G1 X156.799 Y77.198 E.01311
G1 X156.799 Y67.776 E.29542
G1 X156.38 Y67.783 E.01314
G1 X156.38 Y77.198 E.2952
G1 X155.961 Y77.198 E.01314
G1 X155.961 Y67.845 E.29326
G1 X155.542 Y67.908 E.01329
G1 X155.542 Y77.198 E.29128
G1 X155.123 Y77.198 E.01314
G1 X155.123 Y68.036 E.28727
G1 X154.704 Y68.178 E.01387
G1 X154.704 Y77.198 E.28282
G1 X154.285 Y77.198 E.01314
G1 X154.285 Y68.348 E.27749
G1 X153.866 Y68.58 E.01502
G1 X153.866 Y77.198 E.27021
G1 X153.447 Y77.198 E.01314
G1 X153.447 Y68.818 E.26275
G1 X153.028 Y69.147 E.0167
G1 X153.028 Y77.198 E.25243
G1 X152.609 Y77.198 E.01314
G1 X152.609 Y69.504 E.24124
G1 X152.19 Y69.979 E.01986
G1 X152.19 Y77.198 E.22635
G1 X151.837 Y77.198 E.01107
G1 X151.771 Y77.09 E.00397
G1 X151.771 Y70.535 E.20553
G1 X151.352 Y71.248 E.02593
G1 X151.352 Y76.366 E.16047
G1 X150.933 Y75.129 E.04095
G1 X150.933 Y71.837 E.10322
M204 S1000
;WIPE_START
G1 F8640
G1 X150.933 Y75.129 E-.76013
G1 X150.988 Y75.292 E-.03987
;WIPE_END
