; generated by PrusaSlicer 2.7.4+win64 on 2024-09-06 at 18:32:45 UTC


;
;
; 

; external perimeters extrusion width = 0.45mm
; perimeters extrusion width = 0.45mm
; infill extrusion width = 0.45mm
; solid infill extrusion width = 0.45mm
; top infill extrusion width = 0.40mm
; support material extrusion width = 0.35mm
; first layer extrusion width = 0.42mm

; external perimeters extrusion width = 0.45mm
; perimeters extrusion width = 0.45mm
; infill extrusion width = 0.45mm
; solid infill extrusion width = 0.45mm
; top infill extrusion width = 0.40mm
; support material extrusion width = 0.35mm
; first layer extrusion width = 0.42mm

M73 P0 R34
M73 Q0 S35
M201 X1000 Y1000 Z200 E5000 ; sets maximum accelerations, mm/sec^2
M203 X200 Y200 Z12 E120 ; sets maximum feedrates, mm / sec
M204 S1250 T1250 ; sets acceleration (S) and retract acceleration (R), mm/sec^2
M205 X8.00 Y8.00 Z0.40 E4.50 ; sets the jerk limits, mm/sec
M205 S0 T0 ; sets the minimum extruding and travel feed rate, mm/sec

; printing object hamMER_board.stl id:0 copy 0
; stop printing object hamMER_board.stl id:0 copy 0
; printing object hamMER_board.stl id:1 copy 0
; stop printing object hamMER_board.stl id:1 copy 0

;TYPE:Custom
M862.3 P "MK3S" ; printer model check
M862.1 P0.4 ; nozzle diameter check
M115 U3.13.3 ; tell printer latest fw version
G90 ; use absolute coordinates
M83 ; extruder relative mode
M104 S215 ; set extruder temp
M140 S60 ; set bed temp
M190 S60 ; wait for bed temp
M109 S215 ; wait for extruder temp
G28 W ; home all without mesh bed level
G80 X106.434 Y69.4344 W37.1312 H71.1312 ; mesh bed levelling

G1 Z0.2 F720
G1 Y-3 F1000 ; go outside print area
G92 E0
G1 X60 E9 F1000 ; intro line
G1 X100 E12.5 F1000 ; intro line

G92 E0
M221 S95

; Don't change E values below. Excessive value can damage the printer.
M907 E430 ; set extruder motor current
G21 ; set units to millimeters
G90 ; use absolute coordinates
M83 ; use relative distances for extrusion

M900 K0.05 ; Filament gcode LA 1.5
M900 K30 ; Filament gcode LA 1.0




M107
;LAYER_CHANGE
;Z:0.2
;HEIGHT:0.2
G1 E-.8 F2100
M73 Q0 S34
G1 Z.6 F720
G1 X107.799 Y73.005 F10800
G1 Z.2 F720
G1 E.8 F2100
M204 S800
;TYPE:Skirt/Brim
;WIDTH:0.42
G1 F1200
G1 X108.394 Y72.206 E.03124
G1 X108.999 Y71.578 E.02734
G1 X109.889 Y70.875 E.03556
G1 X110.751 Y70.378 E.0312
G1 X111.556 Y70.041 E.02736
G1 X112.651 Y69.748 E.03554
G1 X114 Y69.623 E.04248
G1 X134.9 Y69.623 E.6553
G1 X136.788 Y69.666 E.05921
G1 X138.049 Y69.914 E.0403
G1 X139.249 Y70.377 E.04033
G1 X140.46 Y71.125 E.04463
G1 X141.413 Y71.989 E.04033
G1 X142.353 Y73.252 E.04936
G1 X142.955 Y74.542 E.04463
G1 X143.318 Y76.075 E.0494
G1 X143.377 Y77 E.02906
G1 X143.377 Y133 E1.75584
G1 X143.276 Y134.213 E.03816
G1 X143.046 Y135.182 E.03123
G1 X142.745 Y135.985 E.02689
G1 X142.201 Y136.995 E.03597
G1 X141.606 Y137.794 E.03124
G1 X140.794 Y138.606 E.03601
G1 X139.995 Y139.201 E.03124
G1 X139.249 Y139.623 E.02687
G1 X138.182 Y140.046 E.03599
G1 X137.213 Y140.276 E.03123
G1 X136 Y140.377 E.03816
G1 X114 Y140.377 E.68979
G1 X112.787 Y140.276 E.03816
G1 X111.818 Y140.046 E.03123
G1 X110.751 Y139.623 E.03599
G1 X109.889 Y139.125 E.03121
G1 X108.989 Y138.413 E.03598
G1 X108.125 Y137.46 E.04033
G1 X107.578 Y136.628 E.03122
G1 X107.092 Y135.588 E.03599
G1 X106.807 Y134.634 E.03122
G1 X106.64 Y133.498 E.036
G1 X106.623 Y77 E1.77146
G1 X106.724 Y75.787 E.03816
G1 X106.954 Y74.818 E.03123
G1 X107.255 Y74.015 E.02689
G1 X107.771 Y73.057 E.03412
M204 S1000
;WIPE_START
G1 F8640
G1 X107.799 Y73.005 E-.01364
G1 X108.394 Y72.206 E-.23003
G1 X108.999 Y71.578 E-.20135
G1 X109.889 Y70.875 E-.26188
G1 X110.238 Y70.673 E-.0931
;WIPE_END
G1 Z.6 F720
; printing object hamMER_board.stl id:0 copy 0
G1 X131.132 Y126.374 F10800
G1 Z.2 F720
G1 E.8 F2100
M204 S800
;TYPE:Support material
G1 F1200
G1 X131.625 Y126.523 E.01615
G1 X132.023 Y126.85 E.01615
G1 X132.265 Y127.304 E.01613
G1 X132.316 Y127.816 E.01613
G1 X132.166 Y128.309 E.01616
G1 X131.84 Y128.707 E.01613
G1 X131.386 Y128.95 E.01615
G1 X130.873 Y129 E.01616
G1 X130.381 Y128.851 E.01612
G1 X129.983 Y128.524 E.01615
G1 X129.74 Y128.07 E.01615
G1 X129.69 Y127.558 E.01613
G1 X129.839 Y127.065 E.01615
G1 X130.166 Y126.667 E.01615
G1 X130.62 Y126.424 E.01615
G1 X131.076 Y126.371 E.01439
M204 S1000
G1 X131.076 Y126.371 F10800
G1 X131.704 Y128.597
M204 S800
G1 F1200
G1 X131.704 Y127.003 E.04998
G1 X131.624 Y126.93 E.0034
G1 X131.285 Y126.749 E.01205
G1 X131.285 Y128.625 E.05882
G1 X131.099 Y128.662 E.00595
G1 X130.866 Y128.656 E.00731
G1 X130.866 Y126.718 E.06076
G1 X130.447 Y126.881 E.0141
G1 X130.447 Y128.493 E.05054
G1 X130.188 Y128.231 E.01155
G1 X130.065 Y127.971 E.00902
G1 X130.028 Y127.08 E.02796
M204 S1000
;WIPE_START
G1 F8640
G1 X130.065 Y127.971 E-.20591
G1 X130.188 Y128.231 E-.06641
G1 X130.447 Y128.493 E-.08507
G1 X130.447 Y126.881 E-.37222
G1 X130.731 Y126.771 E-.07039
;WIPE_END
G1 Z.6 F720
G1 X109.992 Y134.272 F10800
G1 Z.2 F720
G1 E.8 F2100
M204 S800
;TYPE:Perimeter
;WIDTH:0.419999
G1 F1200
G1 X109.963 Y134.2 E.00243
G1 X109.827 Y133.52 E.02174
G1 X109.787 Y132.989 E.0167
G1 X109.795 Y112.969 E.62771
G1 X109.851 Y112.276 E.0218
M73 Q1 S34
G1 X110.041 Y111.567 E.02301
G1 X110.244 Y111.13 E.01511
G1 X110.505 Y110.663 E.01677
G1 X110.931 Y110.116 E.02174
G1 X111.318 Y109.772 E.01623
G1 X111.881 Y109.361 E.02186
G1 X112.553 Y109.046 E.02327
M73 P1 R34
G1 X113.277 Y108.851 E.02351
G1 X113.755 Y108.795 E.01509
G1 X136.229 Y108.795 E.70466
G1 X136.748 Y108.871 E.01645
G1 X137.425 Y109.037 E.02186
G1 X138.106 Y109.353 E.02354
G1 X138.729 Y109.801 E.02406
G1 X139.216 Y110.281 E.02144
G1 X139.652 Y110.902 E.02379
G1 X139.867 Y111.331 E.01505
G1 X140.084 Y111.997 E.02196
G1 X140.184 Y112.699 E.02223
G1 X140.213 Y113.225 E.01652
G1 X140.205 Y132.972 E.61915
G1 X140.176 Y133.492 E.01633
G1 X140.084 Y133.998 E.01613
G1 X139.87 Y134.661 E.02184
G1 X139.626 Y135.113 E.01611
G1 X139.231 Y135.701 E.02221
G1 X138.706 Y136.226 E.02328
G1 X138.318 Y136.498 E.01486
G1 X137.859 Y136.771 E.01674
G1 X137.208 Y137.035 E.02203
G1 X136.494 Y137.176 E.02282
G1 X135.989 Y137.213 E.01588
G1 X113.763 Y137.205 E.69688
G1 X113.255 Y137.13 E.0161
G1 X112.567 Y136.96 E.02222
G1 X111.894 Y136.646 E.02329
G1 X111.3 Y136.23 E.02274
G1 X110.958 Y135.89 E.01512
G1 X110.607 Y135.483 E.01685
G1 X110.244 Y134.904 E.02143
G1 X110.014 Y134.328 E.01945
M204 S1000
G1 X110.014 Y134.328 F10800
G1 X109.642 Y134.412
M204 S800
;TYPE:External perimeter
G1 F1200
G1 X109.603 Y134.314 E.00331
G1 X109.453 Y133.564 E.02398
G1 X109.41 Y132.994 E.01792
G1 X109.418 Y112.733 E.63527
G1 X109.48 Y112.205 E.01667
G1 X109.685 Y111.438 E.02489
G1 X110.027 Y110.703 E.02542
G1 X110.318 Y110.26 E.01662
G1 X110.66 Y109.852 E.01669
G1 X111.262 Y109.317 E.02525
G1 X111.696 Y109.031 E.0163
G1 X112.423 Y108.691 E.02516
G1 X113.206 Y108.48 E.02543
G1 X113.733 Y108.418 E.01664
G1 X136.256 Y108.418 E.70619
G1 X137.061 Y108.535 E.02551
G1 X137.559 Y108.684 E.0163
G1 X138.29 Y109.023 E.02526
G1 X138.741 Y109.318 E.0169
G1 X139.15 Y109.662 E.01676
G1 X139.508 Y110.042 E.01637
G1 X139.976 Y110.708 E.02552
G1 X140.214 Y111.182 E.01663
G1 X140.397 Y111.684 E.01675
G1 X140.518 Y112.192 E.01637
G1 X140.59 Y113.225 E.03247
G1 X140.582 Y133.267 E.6284
G1 X140.521 Y133.789 E.01648
G1 X140.397 Y134.316 E.01697
G1 X140.215 Y134.816 E.01668
G1 X139.833 Y135.524 E.02522
G1 X139.517 Y135.948 E.01658
G1 X138.95 Y136.516 E.02516
G1 X138.534 Y136.807 E.01592
G1 X138.029 Y137.108 E.01843
G1 X137.556 Y137.31 E.01613
G1 X137.05 Y137.46 E.01655
G1 X136.502 Y137.554 E.01743
G1 X135.994 Y137.59 E.01597
G1 X113.736 Y137.582 E.69788
G1 X112.939 Y137.465 E.02526
G1 X112.433 Y137.313 E.01657
G1 X111.705 Y136.974 E.02518
G1 X111.057 Y136.521 E.02479
G1 X110.483 Y135.948 E.02543
G1 X110.165 Y135.522 E.01667
G1 X109.904 Y135.069 E.01639
G1 X109.664 Y134.467 E.02032
M204 S1000
;WIPE_START
G1 F8640
G1 X109.642 Y134.412 E-.01368
G1 X109.603 Y134.314 E-.02435
G1 X109.453 Y133.564 E-.17661
G1 X109.41 Y132.994 E-.13199
G1 X109.411 Y131.031 E-.45337
;WIPE_END
G1 Z.6 F720
G1 X130.255 Y125.218 F10800
G1 Z.2 F720
G1 E.8 F2100
M204 S800
;TYPE:Perimeter
G1 F1200
G1 X130.309 Y125.197 E.00182
G1 X130.823 Y125.108 E.01636
G1 X131.311 Y125.12 E.01531
G1 X131.806 Y125.23 E.0159
G1 X132.27 Y125.434 E.01589
G1 X132.685 Y125.724 E.01587
G1 X133.036 Y126.09 E.0159
G1 X133.308 Y126.517 E.01587
G1 X133.492 Y126.99 E.01591
G1 X133.58 Y127.489 E.01589
G1 X133.57 Y127.995 E.01587
G1 X133.46 Y128.49 E.0159
G1 X133.256 Y128.954 E.01589
G1 X132.966 Y129.37 E.0159
G1 X132.6 Y129.72 E.01588
G1 X132.172 Y129.993 E.01592
G1 X131.7 Y130.176 E.01587
G1 X131.201 Y130.265 E.01589
G1 X130.694 Y130.254 E.0159
G1 X130.199 Y130.144 E.0159
G1 X129.735 Y129.94 E.01589
G1 X129.32 Y129.65 E.01587
G1 X128.97 Y129.284 E.01588
G1 X128.697 Y128.856 E.01592
G1 X128.513 Y128.384 E.01588
G1 X128.425 Y127.885 E.01589
G1 X128.436 Y127.378 E.0159
G1 X128.545 Y126.884 E.01586
G1 X128.749 Y126.42 E.01589
G1 X129.04 Y126.004 E.01592
G1 X129.406 Y125.654 E.01588
G1 X129.833 Y125.381 E.01589
G1 X130.199 Y125.239 E.01231
M204 S1000
G1 X130.199 Y125.239 F10800
G1 X130.589 Y125.529
M204 S800
;TYPE:External perimeter
G1 F1200
G1 X130.824 Y125.485 E.0075
G1 X131.238 Y125.49 E.01298
G1 X131.662 Y125.578 E.01358
G1 X132.061 Y125.747 E.01359
G1 X132.419 Y125.991 E.01358
G1 X132.722 Y126.3 E.01357
G1 X132.96 Y126.662 E.01358
G1 X133.122 Y127.063 E.01356
G1 X133.203 Y127.489 E.0136
G1 X133.2 Y127.922 E.01358
G1 X133.112 Y128.346 E.01358
G1 X132.943 Y128.745 E.01359
G1 X132.699 Y129.103 E.01358
G1 X132.39 Y129.407 E.01359
G1 X132.028 Y129.644 E.01357
G1 X131.626 Y129.807 E.0136
G1 X131.201 Y129.888 E.01357
G1 X130.768 Y129.884 E.01358
G1 X130.344 Y129.796 E.01358
G1 X129.945 Y129.627 E.01359
G1 X129.587 Y129.383 E.01358
G1 X129.283 Y129.074 E.01359
G1 X129.046 Y128.712 E.01357
G1 X128.883 Y128.311 E.01357
G1 X128.802 Y127.885 E.0136
G1 X128.806 Y127.452 E.01358
G1 X128.894 Y127.028 E.01358
G1 X129.063 Y126.629 E.01359
G1 X129.307 Y126.271 E.01358
G1 X129.615 Y125.967 E.01357
G1 X129.978 Y125.73 E.01359
G1 X130.38 Y125.567 E.0136
G1 X130.53 Y125.54 E.00478
M204 S1000
;WIPE_START
G1 F8640
G1 X130.589 Y125.529 E-.01386
G1 X130.824 Y125.485 E-.05521
G1 X131.238 Y125.49 E-.0956
G1 X131.662 Y125.578 E-.09999
G1 X132.061 Y125.747 E-.10005
G1 X132.419 Y125.991 E-.10004
G1 X132.722 Y126.3 E-.09993
G1 X132.96 Y126.662 E-.10003
G1 X133.122 Y127.063 E-.09986
G1 X133.151 Y127.214 E-.03543
;WIPE_END
G1 Z.6 F720
G1 X139.549 Y111.076 F10800
G1 Z.2 F720
G1 E.8 F2100
M204 S800
;TYPE:Solid infill
;WIDTH:0.420932
G1 F1200
G1 X138.655 Y110.182 E.03974
G1 X138.312 Y109.894 E.01408
G1 X137.941 Y109.651 E.01394
G1 X137.289 Y109.351 E.02256
G1 X139.641 Y111.703 E.10455
G1 X139.709 Y111.89 E.00625
G1 X139.818 Y112.414 E.01682
G1 X136.595 Y109.191 E.14327
G1 X136.204 Y109.134 E.01242
G1 X136.004 Y109.134 E.00629
G1 X139.87 Y113.001 E.17187
G1 X139.873 Y113.539 E.01691
G1 X135.469 Y109.134 E.19579
G1 X134.934 Y109.134 E.01682
G1 X139.873 Y114.073 E.21955
G1 X139.873 Y114.607 E.01678
G1 X134.4 Y109.134 E.24328
G1 X133.865 Y109.134 E.01682
G1 X139.873 Y115.142 E.26706
G1 X139.872 Y115.676 E.01678
G1 X133.331 Y109.134 E.29078
G1 X132.796 Y109.134 E.01682
G1 X139.872 Y116.211 E.31456
G1 X139.872 Y116.745 E.01678
G1 X132.262 Y109.134 E.3383
G1 X131.727 Y109.134 E.01682
G1 X139.872 Y117.279 E.36206
G1 X139.872 Y117.814 E.01682
G1 X131.192 Y109.134 E.38584
G1 X130.658 Y109.134 E.01678
G1 X139.871 Y118.348 E.40955
G1 X139.871 Y118.882 E.01678
G1 X130.123 Y109.134 E.43331
G1 X129.589 Y109.134 E.01678
G1 X139.871 Y119.417 E.45707
G1 X139.871 Y119.951 E.01678
G1 X129.054 Y109.134 E.48083
G1 X128.519 Y109.134 E.01682
M73 P2 R34
M73 Q2 S34
G1 X139.871 Y120.486 E.50461
G1 X139.87 Y121.02 E.01678
G1 X127.985 Y109.134 E.52833
G1 X127.45 Y109.135 E.01682
G1 X139.87 Y121.554 E.55206
G1 X139.87 Y122.089 E.01682
G1 X126.916 Y109.135 E.57582
G1 X126.381 Y109.135 E.01682
G1 X139.87 Y122.623 E.59958
G1 X139.869 Y123.157 E.01678
G1 X125.847 Y109.135 E.6233
G1 X125.312 Y109.135 E.01682
G1 X139.869 Y123.692 E.64708
G1 X139.869 Y124.226 E.01678
G1 X124.777 Y109.135 E.67084
G1 X124.243 Y109.135 E.01678
G1 X139.869 Y124.761 E.6946
G1 X139.869 Y125.295 E.01678
G1 X123.708 Y109.135 E.71836
G1 X123.174 Y109.135 E.01678
G1 X139.868 Y125.829 E.74207
G1 X139.868 Y126.364 E.01682
G1 X122.639 Y109.135 E.76585
G1 X122.104 Y109.135 E.01682
M73 P2 R33
G1 X139.868 Y126.898 E.78961
G1 X139.868 Y127.432 E.01678
G1 X121.57 Y109.135 E.81335
G1 X121.035 Y109.135 E.01682
G1 X139.868 Y127.967 E.83713
G1 X139.867 Y128.501 E.01678
G1 X120.501 Y109.135 E.86084
G1 X119.966 Y109.135 E.01682
G1 X139.867 Y129.036 E.88463
G1 X139.867 Y129.57 E.01678
G1 X119.432 Y109.135 E.90836
G1 X118.897 Y109.135 E.01682
M73 P3 R33
M73 Q3 S34
G1 X139.867 Y130.104 E.93212
G1 X139.866 Y130.639 E.01682
M73 Q3 S33
G1 X118.362 Y109.135 E.95588
G1 X117.828 Y109.135 E.01678
G1 X139.866 Y131.173 E.97962
G1 X139.866 Y131.707 E.01678
G1 X117.293 Y109.135 E1.00338
G1 X116.759 Y109.135 E.01678
G1 X139.866 Y132.242 E1.02714
G1 X139.866 Y132.776 E.01678
G1 X133.718 Y126.628 E.27329
G1 X133.545 Y126.24 E.01335
G1 X133.213 Y125.772 E.01804
G1 X132.797 Y125.377 E.01803
G1 X132.313 Y125.072 E.01798
G1 X132.059 Y124.969 E.00862
G1 X116.224 Y109.135 E.70386
G1 X115.689 Y109.135 E.01682
G1 X131.338 Y124.783 E.6956
G1 X130.793 Y124.772 E.01713
G1 X115.155 Y109.135 E.69511
G1 X114.62 Y109.135 E.01682
G1 X130.336 Y124.85 E.69857
G1 X130.155 Y124.885 E.00579
G1 X129.929 Y124.978 E.00768
G1 X114.086 Y109.135 E.70424
G1 X113.775 Y109.135 E.00978
G1 X113.575 Y109.158 E.00633
G1 X129.562 Y125.146 E.71067
G1 X129.242 Y125.36 E.0121
G1 X113.125 Y109.243 E.71642
G1 X112.704 Y109.357 E.01371
G1 X128.958 Y125.61 E.72249
G1 X128.757 Y125.81 E.00891
G1 X128.702 Y125.89 E.00305
G1 X112.335 Y109.523 E.72753
G1 X111.98 Y109.702 E.0125
G1 X128.486 Y126.208 E.73371
G1 X128.434 Y126.284 E.00289
G1 X128.313 Y126.57 E.00976
G1 X111.663 Y109.919 E.74014
G1 X111.38 Y110.171 E.01191
M73 P4 R33
M73 Q4 S33
G1 X128.176 Y126.967 E.7466
G1 X128.089 Y127.415 E.01434
G1 X111.108 Y110.433 E.75485
G1 X110.894 Y110.688 E.01046
G1 X110.868 Y110.728 E.0015
G1 X128.299 Y128.16 E.77485
M204 S1000
;WIPE_START
G1 F8640
G1 X125.849 Y125.71 E-.8
;WIPE_END
G1 Z.6 F720
G1 X133.688 Y127.133 F10800
G1 Z.2 F720
G1 E.8 F2100
M204 S800
G1 F1200
G1 X139.856 Y133.302 E.2742
G1 X139.79 Y133.769 E.01482
G1 X133.92 Y127.899 E.26093
G1 X133.841 Y128.356 E.01458
G1 X139.679 Y134.193 E.25948
G1 X139.529 Y134.578 E.01299
G1 X133.709 Y128.758 E.25871
G1 X133.618 Y128.997 E.00804
G1 X133.539 Y129.122 E.00465
G1 X139.342 Y134.925 E.25795
G1 X139.227 Y135.138 E.00761
G1 X139.139 Y135.257 E.00465
G1 X133.332 Y129.45 E.25813
G1 X133.077 Y129.73 E.0119
G1 X138.9 Y135.552 E.25882
G1 X138.632 Y135.82 E.01191
G1 X132.797 Y129.984 E.2594
G1 X132.483 Y130.205 E.01207
G1 X138.344 Y136.065 E.26051
G1 X138.029 Y136.286 E.01209
G1 X132.12 Y130.376 E.26269
G1 X131.926 Y130.462 E.00667
G1 X131.718 Y130.509 E.0067
G1 X137.687 Y136.478 E.26533
G1 X137.534 Y136.555 E.00538
G1 X137.311 Y136.636 E.00746
G1 X131.268 Y130.594 E.2686
G1 X130.734 Y130.594 E.01678
G1 X136.899 Y136.759 E.27404
G1 X136.672 Y136.813 E.00733
G1 X136.445 Y136.84 E.00719
G1 X130.041 Y130.435 E.28469
G1 X129.693 Y130.302 E.01171
G1 X129.208 Y129.997 E.01801
G1 X128.792 Y129.602 E.01803
G1 X128.42 Y129.066 E.02051
G1 X128.244 Y128.638 E.01455
G1 X110.656 Y111.051 E.78179
G1 X110.486 Y111.415 E.01263
G1 X135.944 Y136.874 E1.13166
G1 X135.409 Y136.873 E.01682
G1 X110.331 Y111.795 E1.11475
G1 X110.218 Y112.217 E.01373
G1 X134.875 Y136.873 E1.09601
G1 X134.34 Y136.873 E.01682
G1 X110.146 Y112.679 E1.07546
G1 X110.134 Y113.202 E.01644
G1 X133.805 Y136.873 E1.05221
G1 X133.27 Y136.873 E.01682
M73 P5 R33
M73 Q5 S33
G1 X110.134 Y113.737 E1.02843
G1 X110.134 Y114.271 E.01678
G1 X132.735 Y136.872 E1.00464
G1 X132.201 Y136.872 E.01678
G1 X110.134 Y114.805 E.98091
G1 X110.134 Y115.34 E.01682
G1 X131.666 Y136.872 E.95713
G1 X131.131 Y136.872 E.01682
G1 X110.133 Y115.874 E.93339
G1 X110.133 Y116.408 E.01678
