; generated by PrusaSlicer 2.7.4+win64 on 2024-07-24 at 18:00:27 UTC


;
;
; 

; external perimeters extrusion width = 0.45mm
; perimeters extrusion width = 0.45mm
; infill extrusion width = 0.45mm
; solid infill extrusion width = 0.45mm
; top infill extrusion width = 0.40mm
; first layer extrusion width = 0.42mm

M73 P0 R6
M73 Q0 S6
M201 X1000 Y1000 Z200 E5000 ; sets maximum accelerations, mm/sec^2
M203 X200 Y200 Z12 E120 ; sets maximum feedrates, mm / sec
M204 S1250 T1250 ; sets acceleration (S) and retract acceleration (R), mm/sec^2
M205 X8.00 Y8.00 Z0.40 E4.50 ; sets the jerk limits, mm/sec
M205 S0 T0 ; sets the minimum extruding and travel feed rate, mm/sec

; printing object HBVCameraHolder.stl id:0 copy 0
; stop printing object HBVCameraHolder.stl id:0 copy 0

;TYPE:Custom
M862.3 P "MK3S" ; printer model check
M862.1 P0.4 ; nozzle diameter check
M115 U3.13.3 ; tell printer latest fw version
G90 ; use absolute coordinates
M83 ; extruder relative mode
M104 S215 ; set extruder temp
M140 S60 ; set bed temp
M190 S60 ; wait for bed temp
M109 S215 ; wait for extruder temp
G28 W ; home all without mesh bed level
G80 X107.294 Y87.7574 W35.4122 H34.4853 ; mesh bed levelling

G1 Z0.2 F720
G1 Y-3 F1000 ; go outside print area
G92 E0
G1 X60 E9 F1000 ; intro line
G1 X100 E12.5 F1000 ; intro line
M73 P1 R6

G92 E0
M221 S95

; Don't change E values below. Excessive value can damage the printer.
M907 E430 ; set extruder motor current
G21 ; set units to millimeters
G90 ; use absolute coordinates
M83 ; use relative distances for extrusion

M900 K0.05 ; Filament gcode LA 1.5
M900 K30 ; Filament gcode LA 1.0




M107
;LAYER_CHANGE
;Z:0.2
;HEIGHT:0.2
G1 E-.8 F2100
M73 Q1 S6
G1 Z.6 F720
G1 X108.709 Y89.667 F10800
G1 Z.2 F720
G1 E.8 F2100
M204 S800
;TYPE:Skirt/Brim
;WIDTH:0.42
G1 F1200
G1 X109.442 Y88.979 E.03152
G1 X110.315 Y88.442 E.03214
G1 X111.195 Y88.115 E.02944
G1 X112.188 Y87.956 E.03153
G1 X137.62 Y87.948 E.7974
G1 X138.476 Y88.04 E.02699
M73 P2 R6
M73 Q2 S6
G1 X139.286 Y88.271 E.02641
G1 X140.057 Y88.641 E.02681
G1 X140.874 Y89.242 E.0318
G1 X141.529 Y89.962 E.03052
G1 X141.969 Y90.67 E.02614
G1 X142.296 Y91.472 E.02716
G1 X142.477 Y92.301 E.02661
G1 X142.516 Y117.232 E.78169
G1 X142.413 Y118.074 E.0266
G1 X142.169 Y118.888 E.02664
G1 X141.792 Y119.648 E.0266
G1 X141.291 Y120.333 E.02661
G1 X140.558 Y121.021 E.03152
G1 X139.604 Y121.597 E.03494
G1 X138.652 Y121.922 E.03154
G1 X137.522 Y122.054 E.03567
G1 X112.202 Y122.045 E.79389
G1 X111.524 Y121.96 E.02142
M73 P3 R6
M73 Q3 S6
G1 X110.714 Y121.729 E.02641
G1 X109.943 Y121.359 E.02681
G1 X109.256 Y120.872 E.0264
G1 X108.471 Y120.038 E.03591
G1 X107.969 Y119.203 E.03055
G1 X107.6 Y118.134 E.03546
G1 X107.483 Y117.151 E.03104
G1 X107.484 Y92.768 E.76451
G1 X107.587 Y91.926 E.0266
G1 X107.831 Y91.112 E.02664
G1 X108.208 Y90.352 E.0266
G1 X108.673 Y89.715 E.02473
M204 S1000
G1 X108.673 Y89.715 F10800
G1 X108.977 Y89.937
M204 S800
G1 F1200
G1 X108.995 Y89.912 E.00097
G1 X109.666 Y89.282 E.02886
G1 X110.485 Y88.779 E.03014
G1 X111.295 Y88.479 E.02708
G1 X112.204 Y88.332 E.02887
G1 X137.605 Y88.325 E.79643
G1 X138.385 Y88.407 E.02459
G1 X139.306 Y88.685 E.03016
G1 X140.064 Y89.089 E.02693
M73 Q4 S6
G1 X140.68 Y89.575 E.0246
G1 X141.212 Y90.168 E.02498
G1 X141.629 Y90.833 E.02461
M73 P4 R6
G1 X141.928 Y91.559 E.02462
G1 X142.114 Y92.452 E.0286
G1 X142.139 Y117.221 E.77661
G1 X142.043 Y118 E.02461
G1 X141.818 Y118.752 E.02461
G1 X141.468 Y119.455 E.02462
G1 X141.005 Y120.088 E.02459
G1 X140.334 Y120.718 E.02886
G1 X139.444 Y121.256 E.03261
G1 X138.573 Y121.554 E.02886
G1 X137.522 Y121.677 E.03318
G1 X112.217 Y121.668 E.79342
G1 X111.368 Y121.54 E.02692
G1 X110.625 Y121.287 E.02461
G1 X109.936 Y120.911 E.02461
G1 X109.375 Y120.475 E.02228
G1 X108.788 Y119.832 E.0273
G1 X108.314 Y119.052 E.02862
G1 X107.973 Y118.074 E.03248
G1 X107.86 Y117.156 E.029
G1 X107.861 Y92.779 E.76432
G1 X107.957 Y92 E.02461
M73 P5 R6
M73 Q5 S6
G1 X108.182 Y91.248 E.02461
G1 X108.532 Y90.545 E.02462
G1 X108.941 Y89.986 E.02172
M204 S1000
;WIPE_START
G1 F8640
G1 X108.977 Y89.937 E-.01404
G1 X108.995 Y89.912 E-.00711
G1 X109.666 Y89.282 E-.21252
G1 X110.485 Y88.779 E-.22193
G1 X111.295 Y88.479 E-.19945
G1 X111.914 Y88.379 E-.14495
;WIPE_END
G1 Z.6 F720
; printing object HBVCameraHolder.stl id:0 copy 0
G1 X135.691 Y93.825 F10800
G1 Z.2 F720
G1 E.8 F2100
M204 S800
;TYPE:Perimeter
;WIDTH:0.419999
G1 F1200
G1 X135.9 Y94.187 E.01311
G1 X136.325 Y94.601 E.0186
G1 X136.768 Y94.837 E.01574
G1 X137.255 Y94.958 E.01573
G1 X137.548 Y94.957 E.00919
G1 X134.858 Y97.553 E.11721
G1 X134.278 Y98.213 E.02755
G1 X133.589 Y99.172 E.03702
G1 X133.096 Y100.014 E.03059
G1 X132.723 Y100.809 E.02753
G1 X132.291 Y102.036 E.04079
G1 X132.01 Y103.295 E.04045
G1 X131.908 Y104.156 E.02718
G1 X131.883 Y105.217 E.03328
G1 X131.913 Y105.9 E.02144
G1 X132.006 Y106.555 E.02074
G1 X132.166 Y107.46 E.02882
G1 X132.309 Y108.029 E.0184
G1 X132.79 Y109.338 E.04373
G1 X133.117 Y110.026 E.02388
G1 X133.396 Y110.509 E.01749
G1 X134.073 Y111.525 E.03828
G1 X134.889 Y112.48 E.03939
G1 X137.526 Y115.029 E.11499
G1 X137.256 Y115.042 E.00848
G1 X136.769 Y115.163 E.01573
G1 X136.586 Y115.244 E.00627
G1 X136.072 Y115.612 E.01982
G1 X135.768 Y116.007 E.01563
G1 X135.571 Y116.47 E.01578
G1 X135.494 Y117.139 E.02111
G1 X132.145 Y113.924 E.14556
G1 X131.756 Y113.606 E.01575
G1 X131.168 Y113.166 E.02303
G1 X130.744 Y112.876 E.01611
G1 X129.51 Y112.211 E.04395
G1 X128.809 Y111.914 E.02387
G1 X128.23 Y111.72 E.01915
G1 X127.128 Y111.431 E.03572
G1 X125.903 Y111.257 E.03879
G1 X125.389 Y111.233 E.01613
G1 X124.725 Y111.234 E.02082
G1 X123.61 Y111.311 E.03504
G1 X122.817 Y111.442 E.0252
G1 X122.299 Y111.57 E.01673
G1 X121.77 Y111.72 E.01724
G1 X121.138 Y111.934 E.02092
M73 Q6 S6
G1 X119.96 Y112.469 E.04057
G1 X119.207 Y112.906 E.0273
M73 P6 R6
G1 X118.493 Y113.402 E.02726
G1 X117.821 Y113.954 E.02727
M73 P6 R5
G1 X114.508 Y117.141 E.14414
G1 X114.497 Y116.821 E.01004
G1 X114.384 Y116.322 E.01604
G1 X114.093 Y115.802 E.01868
G1 X113.739 Y115.452 E.01561
G1 X113.308 Y115.194 E.01575
G1 X112.833 Y115.049 E.01557
G1 X112.472 Y115.026 E.01134
G1 X115.142 Y112.447 E.11639
G1 X115.715 Y111.796 E.02719
G1 X116.234 Y111.101 E.0272
G1 X116.701 Y110.356 E.02757
G1 X117.277 Y109.191 E.04075
G1 X117.707 Y107.975 E.04044
G1 X117.903 Y107.177 E.02576
G1 X118.092 Y105.833 E.04255
G1 X118.116 Y104.544 E.04042
G1 X118.021 Y103.538 E.03168
G1 X117.903 Y102.823 E.02272
G1 X117.758 Y102.232 E.01908
G1 X117.594 Y101.68 E.01806
G1 X117.418 Y101.159 E.01724
G1 X117.054 Y100.318 E.02873
G1 X116.62 Y99.51 E.02876
G1 X116.202 Y98.853 E.02442
G1 X115.405 Y97.839 E.04044
G1 X114.823 Y97.232 E.02637
G1 X112.471 Y94.974 E.10223
G1 X112.865 Y94.942 E.01239
G1 X113.343 Y94.791 E.01572
G1 X113.768 Y94.529 E.01565
G1 X114.169 Y94.092 E.0186
G1 X114.393 Y93.643 E.01573
G1 X114.5 Y93.153 E.01573
G1 X114.488 Y92.838 E.00988
G1 X117.609 Y95.847 E.13593
G1 X118.196 Y96.364 E.02453
G1 X119.291 Y97.145 E.04217
G1 X120.009 Y97.557 E.02596
G1 X120.984 Y97.996 E.03353
G1 X121.492 Y98.187 E.01702
G1 X122.027 Y98.363 E.01766
G1 X123.301 Y98.646 E.04092
G1 X124.589 Y98.774 E.04058
G1 X125.458 Y98.772 E.02725
G1 X126.336 Y98.698 E.02763
G1 X127.618 Y98.458 E.04089
G1 X128.852 Y98.07 E.04056
G1 X129.652 Y97.727 E.02729
G1 X130.421 Y97.32 E.02728
G1 X131.164 Y96.846 E.02763
G1 X132.179 Y96.046 E.04052
G1 X135.517 Y92.834 E.14525
G1 X135.513 Y93.273 E.01377
G1 X135.651 Y93.755 E.01572
G1 X135.661 Y93.773 E.00065
M204 S1000
G1 X135.661 Y93.773 F10800
G1 X135.984 Y93.549
M204 S800
;TYPE:External perimeter
G1 F1200
G1 X135.875 Y93.169 E.0124
G1 X135.919 Y92.602 E.01783
;WIDTH:0.421274
G1 X136.182 Y92.104 E.01772
G1 X136.444 Y91.816 E.01225
;WIDTH:0.418827
G1 X136.726 Y91.607 E.01097
G1 X137.21 Y91.421 E.01621
;WIDTH:0.424776
G1 X137.622 Y91.4 E.0131
G1 X138.142 Y91.525 E.01698
;WIDTH:0.422113
G1 X138.412 Y91.676 E.00975
;WIDTH:0.419898
G1 X138.679 Y91.911 E.01115
G1 X138.881 Y92.203 E.01113
;WIDTH:0.415937
G1 X139.016 Y92.531 E.011
;WIDTH:0.420051
G1 X139.073 Y92.892 E.01146
G1 X139.01 Y93.397 E.01596
;WIDTH:0.419588
G1 X138.786 Y93.855 E.01597
;WIDTH:0.420941
G1 X138.299 Y94.322 E.02121
G1 X137.909 Y94.524 E.01381
;WIDTH:0.419999
G1 X137.346 Y94.592 E.01778
G1 X136.859 Y94.471 E.01573
G1 X136.485 Y94.251 E.0136
G1 X136.217 Y93.984 E.01186
G1 X136.013 Y93.652 E.01222
G1 X136.001 Y93.607 E.00146
M204 S1000
;WIPE_START
G1 F8640
M73 Q7 S6
G1 X135.984 Y93.549 E-.01396
G1 X135.875 Y93.169 E-.09128
G1 X135.919 Y92.602 E-.13132
M73 P7 R5
G1 X136.182 Y92.104 E-.13004
G1 X136.444 Y91.816 E-.0899
G1 X136.726 Y91.607 E-.08105
G1 X137.21 Y91.421 E-.11973
G1 X137.622 Y91.4 E-.09526
G1 X137.822 Y91.448 E-.04746
;WIPE_END
G1 Z.6 F720
G1 X135.156 Y117.34 F10800
G1 Z.2 F720
G1 E.8 F2100
M204 S800
G1 F1200
G1 X132.116 Y114.417 E.13223
G1 X131.256 Y113.685 E.03541
G1 X130.562 Y113.206 E.02644
G1 X129.362 Y112.558 E.04276
G1 X128.69 Y112.271 E.02291
G1 X128.11 Y112.077 E.01918
M73 Q7 S5
G1 X127.61 Y111.936 E.01629
G1 X127.074 Y111.804 E.01731
G1 X125.863 Y111.632 E.03835
G1 X124.748 Y111.61 E.03497
G1 X123.67 Y111.683 E.03388
G1 X122.907 Y111.808 E.02424
G1 X121.89 Y112.078 E.03299
G1 X121.293 Y112.278 E.01974
G1 X120.148 Y112.795 E.03939
G1 X119.422 Y113.216 E.02631
G1 X118.732 Y113.694 E.02632
G1 X118.082 Y114.226 E.02634
G1 X114.993 Y117.198 E.1344
G1 X114.528 Y117.677 E.02093
;WIDTH:0.421484
G1 X114.11 Y118.135 E.01952
G1 X113.616 Y118.62 E.02179
;WIDTH:0.418407
G1 X113.172 Y118.856 E.0157
;WIDTH:0.423913
G1 X112.654 Y118.978 E.01686
G1 X112.149 Y118.953 E.01602
;WIDTH:0.419123
G1 X111.737 Y118.834 E.01341
;WIDTH:0.42259
G1 X111.426 Y118.668 E.01113
;WIDTH:0.428362
G1 X111.056 Y118.346 E.01572
G1 X110.873 Y118.104 E.00972
;WIDTH:0.425046
G1 X110.645 Y117.644 E.01631
G1 X110.55 Y117.133 E.01651
;WIDTH:0.421165
G1 X110.601 Y116.622 E.01615
;WIDTH:0.42063
G1 X110.78 Y116.138 E.01621
G1 X111.08 Y115.723 E.01608
;WIDTH:0.419196
G1 X111.404 Y115.431 E.01365
;WIDTH:0.436133
G1 X112.21 Y114.753 E.03444
;WIDTH:0.419999
G1 X114.86 Y112.197 E.11544
G1 X115.414 Y111.57 E.02623
G1 X115.915 Y110.899 E.02626
G1 X116.363 Y110.188 E.02635
G1 X116.922 Y109.064 E.03936
G1 X117.341 Y107.885 E.03923
G1 X117.467 Y107.37 E.01662
G1 X117.607 Y106.599 E.02457
G1 X117.715 Y105.825 E.0245
G1 X117.74 Y104.574 E.03923
G1 X117.649 Y103.599 E.0307
G1 X117.537 Y102.913 E.02179
G1 X117.392 Y102.322 E.01908
G1 X117.236 Y101.799 E.01711
G1 X117.071 Y101.307 E.01627
G1 X116.72 Y100.493 E.02779
G1 X116.301 Y99.711 E.02782
G1 X115.905 Y99.085 E.02323
G1 X115.133 Y98.1 E.03924
G1 X114.561 Y97.503 E.02592
G1 X112.334 Y95.366 E.09677
G1 X111.162 Y94.364 E.04835
;WIDTH:0.419541
G1 X110.903 Y94.052 E.0127
;WIDTH:0.42387
G1 X110.644 Y93.535 E.01832
G1 X110.554 Y93.052 E.01556
;WIDTH:0.420632
G1 X110.588 Y92.58 E.01486
;WIDTH:0.418376
G1 X110.721 Y92.17 E.01346
;WIDTH:0.429632
G1 X110.921 Y91.818 E.01302
G1 X111.183 Y91.529 E.01254
;WIDTH:0.416751
G1 X111.606 Y91.234 E.01603
G1 X112.044 Y91.074 E.01449
;WIDTH:0.414631
G1 X112.471 Y91.025 E.01328
;WIDTH:0.428577
G1 X112.96 Y91.077 E.01577
G1 X113.283 Y91.186 E.01093
;WIDTH:0.42569
G1 X113.72 Y91.465 E.0165
G1 X114.402 Y92.18 E.03145
;WIDTH:0.421139
G1 X114.769 Y92.587 E.01724
M73 P8 R5
M73 Q8 S5
;WIDTH:0.419999
G1 X117.859 Y95.565 E.13456
G1 X118.416 Y96.058 E.02332
G1 X119.48 Y96.818 E.041
G1 X120.165 Y97.213 E.02479
G1 X121.139 Y97.653 E.03351
G1 X121.612 Y97.83 E.01583
G1 X122.11 Y97.995 E.01645
G1 X122.654 Y98.118 E.01749
G1 X123.339 Y98.271 E.02201
G1 X124.589 Y98.396 E.03939
G1 X125.427 Y98.396 E.02627
G1 X126.268 Y98.327 E.02646
G1 X127.506 Y98.098 E.03948
G1 X128.704 Y97.723 E.03936
G1 X129.476 Y97.393 E.02632
G1 X130.219 Y97.002 E.02633
G1 X130.931 Y96.55 E.02644
G1 X131.918 Y95.774 E.03937
G1 X135.093 Y92.721 E.13811
G1 X136.159 Y91.567 E.04926
;WIDTH:0.419406
G1 X136.565 Y91.269 E.01577
G1 X137.082 Y91.066 E.01739
;WIDTH:0.420374
G1 X137.614 Y91.019 E.01676
G1 X138.148 Y91.125 E.01709
;WIDTH:0.419217
G1 X138.556 Y91.319 E.01414
G1 X138.893 Y91.6 E.01373
;WIDTH:0.421414
G1 X139.147 Y91.912 E.01266
G1 X139.366 Y92.379 E.01623
;WIDTH:0.41959
G1 X139.45 Y92.887 E.01613
;WIDTH:0.429289
G1 X139.433 Y93.175 E.00927
G1 X139.345 Y93.572 E.01306
;WIDTH:0.419885
G1 X139.124 Y94.021 E.01569
;WIDTH:0.431205
G1 X138.842 Y94.352 E.01404
G1 X138.224 Y94.88 E.02624
;WIDTH:0.420889
G1 X137.79 Y95.247 E.01786
;WIDTH:0.419999
G1 X135.14 Y97.803 E.11544
G1 X134.584 Y98.433 E.02635
G1 X133.895 Y99.392 E.03702
G1 X133.437 Y100.176 E.02847
G1 X133.078 Y100.936 E.02635
G1 X132.659 Y102.119 E.03935
G1 X132.385 Y103.34 E.03924
G1 X132.285 Y104.171 E.02624
G1 X132.259 Y105.201 E.03231
G1 X132.286 Y105.848 E.0203
G1 X132.379 Y106.502 E.02071
G1 X132.533 Y107.37 E.02764
G1 X132.665 Y107.903 E.01722
G1 X133.13 Y109.177 E.04252
G1 X133.444 Y109.838 E.02294
G1 X133.722 Y110.321 E.01747
G1 X134.365 Y111.287 E.03638
G1 X135.151 Y112.208 E.03796
G1 X137.577 Y114.548 E.10568
G1 X138.079 Y114.998 E.02114
;WIDTH:0.420887
G1 X138.55 Y115.395 E.01936
G1 X139.025 Y115.844 E.02054
;WIDTH:0.422427
G1 X139.238 Y116.169 E.01226
;WIDTH:0.428672
G1 X139.368 Y116.505 E.01156
G1 X139.446 Y117.006 E.01626
;WIDTH:0.418594
G1 X139.387 Y117.511 E.01588
;WIDTH:0.42176
G1 X139.248 Y117.911 E.01334
G1 X138.969 Y118.322 E.01565
;WIDTH:0.417227
G1 X138.618 Y118.628 E.01449
;WIDTH:0.425657
G1 X138.178 Y118.865 E.01591
G1 X137.935 Y118.928 E.00799
;WIDTH:0.419309
G1 X137.43 Y118.981 E.01589
;WIDTH:0.422416
G1 X137.023 Y118.923 E.01297
G1 X136.559 Y118.729 E.01587
;WIDTH:0.41882
G1 X136.212 Y118.479 E.01337
;WIDTH:0.423189
G1 X135.232 Y117.413 E.04579
;WIDTH:0.419999
G1 X135.199 Y117.382 E.00142
M204 S1000
;WIPE_START
G1 F8640
G1 X135.156 Y117.34 E-.01388
G1 X132.702 Y114.98 E-.78612
;WIPE_END
G1 Z.6 F720
G1 X136.818 Y118.428 F10800
G1 Z.2 F720
G1 E.8 F2100
M204 S800
;WIDTH:0.422087
G1 F1200
G1 X136.65 Y118.344 E.00592
G1 X136.42 Y118.162 E.00925
;WIDTH:0.423189
G1 X136.182 Y117.897 E.01126
G1 X135.921 Y117.409 E.0175
;WIDTH:0.419999
G1 X135.868 Y117.023 E.01222
G1 X135.943 Y116.527 E.01573
G1 X136.131 Y116.135 E.01363
M73 P9 R5
G1 X136.383 Y115.839 E.01219
M73 Q9 S5
G1 X136.798 Y115.556 E.01575
G1 X137.346 Y115.408 E.0178
G1 X137.799 Y115.444 E.01425
;WIDTH:0.423484
G1 X138.265 Y115.651 E.01614
G1 X138.754 Y116.106 E.02114
;WIDTH:0.419865
G1 X138.956 Y116.46 E.01277
;WIDTH:0.418883
G1 X139.072 Y116.963 E.01614
;WIDTH:0.41635
G1 X139.016 Y117.469 E.01581
;WIDTH:0.417393
G1 X138.861 Y117.835 E.01238
;WIDTH:0.422248
G1 X138.601 Y118.164 E.01323
G1 X138.411 Y118.322 E.00779
;WIDTH:0.416514
G1 X137.942 Y118.547 E.01616
;WIDTH:0.419309
G1 X137.414 Y118.605 E.01662
G1 X137.013 Y118.525 E.0128
;WIDTH:0.422087
G1 X136.872 Y118.455 E.00496
M204 S1000
;WIPE_START
G1 F8640
G1 X136.818 Y118.428 E-.01394
G1 X136.65 Y118.344 E-.04337
G1 X136.42 Y118.162 E-.06772
G1 X136.182 Y117.897 E-.08224
G1 X135.921 Y117.409 E-.12778
G1 X135.868 Y117.023 E-.08996
G1 X135.943 Y116.527 E-.11583
G1 X136.131 Y116.135 E-.10039
G1 X136.383 Y115.839 E-.08976
G1 X136.63 Y115.67 E-.06901
;WIPE_END
G1 Z.6 F720
G1 X111.07 Y117.647 F10800
G1 Z.2 F720
G1 E.8 F2100
M204 S800
;WIDTH:0.415316
G1 F1200
G1 X110.966 Y117.393 E.0085
;WIDTH:0.417393
G1 X110.927 Y117.029 E.0114
;WIDTH:0.422704
G1 X110.994 Y116.606 E.01352
G1 X111.095 Y116.346 E.00881
;WIDTH:0.42063
G1 X111.402 Y115.926 E.01634
;WIDTH:0.419651
G1 X111.644 Y115.719 E.00998
;WIDTH:0.436133
G1 X111.999 Y115.502 E.0136
G1 X112.496 Y115.403 E.01657
;WIDTH:0.419999
G1 X112.74 Y115.415 E.00766
G1 X113.115 Y115.518 E.01219
G1 X113.546 Y115.776 E.01575
G1 X113.84 Y116.093 E.01356
G1 X114.021 Y116.426 E.01188
G1 X114.12 Y116.807 E.01234
G1 X114.083 Y117.379 E.01797
;WIDTH:0.421281
G1 X113.842 Y117.867 E.01712
G1 X113.393 Y118.316 E.01998
;WIDTH:0.419377
G1 X113.021 Y118.513 E.01318
;WIDTH:0.418561
G1 X112.525 Y118.609 E.01578
;WIDTH:0.422196
G1 X112.107 Y118.56 E.01327
G1 X111.818 Y118.459 E.00965
;WIDTH:0.418479
G1 X111.511 Y118.263 E.01137
;WIDTH:0.415316
G1 X111.159 Y117.865 E.01645
G1 X111.093 Y117.702 E.00545
M204 S1000
;WIPE_START
G1 F8640
