; generated by PrusaSlicer 2.8.0+win64 on 2024-08-09 at 00:23:12 UTC


;
;
; 

; external perimeters extrusion width = 0.45mm
; perimeters extrusion width = 0.45mm
; infill extrusion width = 0.45mm
; solid infill extrusion width = 0.45mm
; top infill extrusion width = 0.40mm
; support material extrusion width = 0.35mm
; first layer extrusion width = 0.42mm

M73 P0 R17
M73 Q0 S17
M201 X1000 Y1000 Z200 E5000 ; sets maximum accelerations, mm/sec^2
M203 X200 Y200 Z12 E120 ; sets maximum feedrates, mm / sec
M204 S1250 T1250 ; sets acceleration (S) and retract acceleration (R), mm/sec^2
M205 X8.00 Y8.00 Z0.40 E4.50 ; sets the jerk limits, mm/sec
M205 S0 T0 ; sets the minimum extruding and travel feed rate, mm/sec

; printing object nail_ejector_light v8.stl id:0 copy 0
; stop printing object nail_ejector_light v8.stl id:0 copy 0

;TYPE:Custom
M862.3 P "MK3S" ; printer model check
M862.1 P0.4 ; nozzle diameter check
M115 U3.13.3 ; tell printer latest fw version
G90 ; use absolute coordinates
M83 ; extruder relative mode
M104 S215 ; set extruder temp
M140 S60 ; set bed temp
M190 S60 ; wait for bed temp
M109 S215 ; wait for extruder temp
G28 W ; home all without mesh bed level
G80 X114.688 Y88.6612 W20.6235 H29.8518 ; mesh bed levelling

G1 Z0.2 F720
G1 Y-3 F1000 ; go outside print area
G92 E0
G1 X60 E9 F1000 ; intro line
G1 X100 E12.5 F1000 ; intro line

G92 E0
M221 S95

; Don't change E values below. Excessive value can damage the printer.
M907 E430 ; set extruder motor current
G21 ; set units to millimeters
G90 ; use absolute coordinates
M83 ; use relative distances for extrusion

M900 K0.05 ; Filament gcode LA 1.5
M900 K30 ; Filament gcode LA 1.0




M107
;LAYER_CHANGE
;Z:0.2
;HEIGHT:0.2
G1 E-.8 F2100
G1 Z.6 F720
G1 X115.269 Y90.052 F10800
G1 Z.2 F720
G1 E.8 F2100
M204 S800
;TYPE:Skirt/Brim
;WIDTH:0.42
G1 F1200
G1 X116.326 Y89.106 E.04448
G1 X117.442 Y88.85 E.0359
G1 X132.558 Y88.85 E.47395
G1 X133.921 Y89.242 E.04447
G1 X134.867 Y90.299 E.04448
G1 X135.123 Y91.415 E.0359
G1 X135.123 Y115.759 E.76329
G1 X134.731 Y117.122 E.04447
G1 X133.674 Y118.069 E.0445
G1 X132.558 Y118.324 E.03589
G1 X117.442 Y118.324 E.47395
G1 X116.079 Y117.932 E.04447
M73 P1 R17
M73 Q1 S17
G1 X115.133 Y116.876 E.04445
G1 X114.877 Y115.759 E.03593
G1 X114.877 Y91.415 E.76329
G1 X115.252 Y90.11 E.04257
M73 P1 R16
M204 S1000
G1 X115.252 Y90.11 F10800
G1 X115.626 Y90.227
M204 S800
G1 F1200
G1 X115.645 Y90.167 E.00197
G1 X116.678 Y89.365 E.041
G1 X117.442 Y89.227 E.02434
G1 X132.558 Y89.227 E.47395
G1 X133.806 Y89.618 E.04101
G1 X134.608 Y90.651 E.041
G1 X134.746 Y91.415 E.02434
G1 X134.746 Y115.759 E.76329
G1 X134.355 Y117.007 E.04101
M73 Q1 S16
G1 X133.322 Y117.809 E.041
G1 X132.558 Y117.947 E.02434
G1 X117.442 Y117.947 E.47395
G1 X116.194 Y117.557 E.041
G1 X115.392 Y116.524 E.041
G1 X115.254 Y115.759 E.02437
G1 X115.254 Y91.415 E.76329
G1 X115.608 Y90.284 E.03716
M204 S1000
;WIPE_START
G1 F8640
G1 X115.626 Y90.227 E-.0138
G1 X115.645 Y90.167 E-.01453
G1 X116.678 Y89.365 E-.30197
G1 X117.442 Y89.227 E-.17926
G1 X118.7 Y89.227 E-.29044
;WIPE_END
G1 Z.6 F720
; printing object nail_ejector_light v8.stl id:0 copy 0
G1 X132.558 Y115.759 F10800
G1 Z.2 F720
G1 E.8 F2100
M204 S800
;TYPE:Support material
G1 F1200
G1 X117.442 Y115.759 E.47395
G1 X117.442 Y91.415 E.76329
G1 X132.558 Y91.415 E.47395
G1 X132.558 Y115.702 E.7615
M204 S1000
;WIPE_START
G1 F8640
M73 P2 R16
M73 Q2 S16
G1 X132.558 Y112.237 E-.8
;WIPE_END
G1 Z.6 F720
G1 X126.989 Y103.993 F10800
G1 Z.2 F720
G1 E.8 F2100
M204 S800
G1 F1200
G1 X127.275 Y103.717 E.01246
G1 X127.534 Y103.721 E.00812
G1 X127.959 Y103.83 E.01376
G1 X128.397 Y104.118 E.01644
G1 X128.644 Y104.424 E.01233
G1 X129.049 Y105.224 E.02811
G1 X128.768 Y105.679 E.01677
G1 X127.245 Y105.675 E.04775
G1 X126.968 Y105.39 E.01246
G1 X126.988 Y104.05 E.04202
M204 S1000
;WIPE_START
G1 F8640
G1 X126.968 Y105.39 E-.30944
G1 X127.245 Y105.675 E-.09177
G1 X128.768 Y105.679 E-.35167
G1 X128.875 Y105.505 E-.04712
;WIPE_END
G1 Z.6 F720
G1 X127.25 Y101.519 F10800
G1 Z.2 F720
G1 E.8 F2100
M204 S800
G1 F1200
G1 X128.768 Y101.519 E.0476
G1 X129.049 Y101.975 E.01679
G1 X128.556 Y102.902 E.03292
G1 X128.276 Y103.183 E.01244
G1 X127.932 Y103.379 E.01241
G1 X127.251 Y103.479 E.02158
G1 X126.97 Y103.198 E.01246
G1 X126.969 Y101.801 E.0438
G1 X127.21 Y101.559 E.01071
M204 S1000
;WIPE_START
G1 F8640
G1 X126.969 Y101.801 E-.07886
G1 X126.97 Y103.198 E-.32257
G1 X127.251 Y103.479 E-.09176
G1 X127.932 Y103.379 E-.15893
G1 X128.276 Y103.183 E-.09142
G1 X128.449 Y103.01 E-.05646
;WIPE_END
G1 Z.6 F720
G1 X132.123 Y115.589 F10800
G1 Z.2 F720
G1 E.8 F2100
M204 S800
G1 F1200
G1 X132.123 Y91.755 E.7473
G1 X131.704 Y91.755 E.01314
G1 X131.704 Y115.42 E.742
G1 X131.285 Y115.42 E.01314
G1 X131.285 Y91.755 E.742
G1 X130.866 Y91.755 E.01314
G1 X130.866 Y115.42 E.742
G1 X130.447 Y115.42 E.01314
G1 X130.447 Y91.755 E.742
G1 X130.028 Y91.755 E.01314
G1 X130.028 Y115.42 E.742
G1 X129.609 Y115.42 E.01314
M73 Q3 S16
G1 X129.609 Y91.755 E.742
G1 X129.19 Y91.755 E.01314
M73 P3 R16
G1 X129.19 Y101.557 E.30733
G1 X128.957 Y101.18 E.0139
G1 X128.771 Y101.18 E.00583
G1 X128.771 Y91.755 E.29551
G1 X128.352 Y91.755 E.01314
G1 X128.352 Y101.18 E.29551
G1 X127.933 Y101.18 E.01314
G1 X127.933 Y91.755 E.29551
G1 X127.514 Y91.755 E.01314
G1 X127.514 Y101.18 E.29551
G1 X127.095 Y101.195 E.01315
G1 X127.095 Y91.755 E.29598
G1 X126.676 Y91.755 E.01314
G1 X126.676 Y115.42 E.742
G1 X127.095 Y115.42 E.01314
G1 X127.095 Y106.008 E.29511
G1 X127.514 Y106.019 E.01314
G1 X127.514 Y115.42 E.29476
G1 X127.933 Y115.42 E.01314
G1 X127.933 Y106.019 E.29476
G1 X128.352 Y106.019 E.01314
G1 X128.352 Y115.42 E.29476
G1 X128.771 Y115.42 E.01314
G1 X128.771 Y106.019 E.29476
G1 X128.957 Y106.019 E.00583
G1 X129.19 Y105.642 E.0139
G1 X129.19 Y115.589 E.31188
M204 S1000
G1 X129.19 Y115.589 F10800
G1 X129.19 Y105.126
M204 S800
G1 F1200
G1 X129.19 Y102.452 E.08384
G1 X128.771 Y103.176 E.02623
G1 X128.771 Y104.022 E.02653
G1 X128.352 Y103.655 E.01746
G1 X128.352 Y103.338 E.00994
M204 S1000
;WIPE_START
G1 F8640
G1 X128.352 Y103.655 E-.0732
G1 X128.771 Y104.022 E-.12861
G1 X128.771 Y103.176 E-.19534
G1 X129.19 Y102.452 E-.19315
G1 X129.19 Y103.36 E-.2097
;WIPE_END
G1 Z.6 F720
G1 X126.257 Y115.589 F10800
G1 Z.2 F720
G1 E.8 F2100
M204 S800
G1 F1200
G1 X126.257 Y91.755 E.7473
G1 X125.838 Y91.755 E.01314
M73 P4 R16
M73 Q4 S16
G1 X125.838 Y115.42 E.742
G1 X125.419 Y115.42 E.01314
G1 X125.419 Y91.755 E.742
G1 X125 Y91.755 E.01314
G1 X125 Y115.42 E.742
G1 X124.581 Y115.42 E.01314
G1 X124.581 Y91.755 E.742
G1 X124.162 Y91.755 E.01314
G1 X124.162 Y115.42 E.742
G1 X123.743 Y115.42 E.01314
G1 X123.743 Y91.755 E.742
G1 X123.324 Y91.755 E.01314
G1 X123.324 Y115.42 E.742
G1 X122.905 Y115.42 E.01314
G1 X122.905 Y91.755 E.742
G1 X122.486 Y91.755 E.01314
M73 Q5 S16
G1 X122.486 Y115.42 E.742
G1 X122.067 Y115.42 E.01314
M73 P5 R16
G1 X122.067 Y91.755 E.742
G1 X121.648 Y91.755 E.01314
G1 X121.648 Y115.42 E.742
G1 X121.229 Y115.42 E.01314
G1 X121.229 Y91.755 E.742
G1 X120.81 Y91.755 E.01314
G1 X120.81 Y115.42 E.742
G1 X120.391 Y115.42 E.01314
G1 X120.391 Y91.755 E.742
G1 X119.972 Y91.755 E.01314
G1 X119.972 Y115.42 E.742
G1 X119.553 Y115.42 E.01314
G1 X119.553 Y91.755 E.742
G1 X119.134 Y91.755 E.01314
G1 X119.134 Y115.42 E.742
G1 X118.715 Y115.42 E.01314
M73 P6 R16
M73 Q6 S16
G1 X118.715 Y91.755 E.742
G1 X118.296 Y91.755 E.01314
G1 X118.296 Y115.42 E.742
G1 X117.877 Y115.42 E.01314
G1 X117.877 Y91.585 E.74733
M204 S1000
;WIPE_START
G1 F8640
G1 X117.877 Y95.05 E-.8
;WIPE_END
G1 Z.6 F720
G1 X127.686 Y104.482 F10800
G1 Z.2 F720
G1 E.8 F2100
M204 S800
;TYPE:External perimeter
;WIDTH:0.404428
G1 F1200
G1 X127.789 Y104.519 E.00329
G1 X128.072 Y104.804 E.01207
G1 X128.17 Y104.997 E.00651
G1 X127.656 Y104.996 E.01545
G1 X127.664 Y104.511 E.01458
M204 S1000
;WIPE_START
G1 F8640
G1 X127.686 Y104.482 E-.0084
G1 X127.789 Y104.519 E-.02527
G1 X128.072 Y104.804 E-.09274
G1 X128.17 Y104.997 E-.04998
G1 X127.656 Y104.996 E-.11868
G1 X127.664 Y104.511 E-.112
;WIPE_END
G1 E-.39293 F2100
G1 Z.6 F720
G1 X128.15 Y102.208 F10800
G1 Z.2 F720
G1 E.8 F2100
M204 S800
;WIDTH:0.410023
G1 F1200
G1 X127.998 Y102.478 E.00946
G1 X127.962 Y102.542 E.00224
G1 X127.655 Y102.745 E.01123
G1 X127.654 Y102.204 E.01651
G1 X128.096 Y102.204 E.01349
M204 S1000
M106 S84.15
;LAYER_CHANGE
;Z:0.4
;HEIGHT:0.2
;BEFORE_LAYER_CHANGE
G92 E0.0
;0.4


;WIPE_START
G1 F8640
G1 X128.15 Y102.208 E-.0125
G1 X127.998 Y102.478 E-.07154
G1 X127.962 Y102.542 E-.01696
G1 X127.655 Y102.745 E-.08498
G1 X127.654 Y102.204 E-.12492
G1 X128.096 Y102.204 E-.10206
;WIPE_END
G1 E-.38704 F2100
G1 Z.4 F720
;AFTER_LAYER_CHANGE
;0.4
M104 S210 ; set temperature
; stop printing object nail_ejector_light v8.stl id:0 copy 0
G1 Z.8
G1 X135.123 Y102.204 F10800
G1 Z.4 F720
G1 E.8 F2100
;TYPE:Skirt/Brim
;WIDTH:0.42
G1 F2034
G1 X135.123 Y115.759 E.42501
G1 X134.731 Y117.122 E.04447
G1 X133.674 Y118.069 E.0445
G1 X132.558 Y118.324 E.03589
G1 X117.442 Y118.324 E.47395
G1 X116.079 Y117.932 E.04447
G1 X115.133 Y116.876 E.04445
G1 X114.877 Y115.759 E.03593
G1 X114.877 Y91.415 E.76329
G1 X115.269 Y90.052 E.04447
G1 X116.326 Y89.106 E.04448
G1 X117.442 Y88.85 E.0359
G1 X132.558 Y88.85 E.47395
G1 X133.921 Y89.242 E.04447
G1 X134.867 Y90.299 E.04448
G1 X135.123 Y91.415 E.0359
G1 X135.123 Y102.144 E.3364
G1 X135.123 Y102.144 F10800
G1 X134.746 Y102.144
G1 F2034
G1 X134.746 Y115.759 E.42689
G1 X134.355 Y117.007 E.04101
M73 P6 R15
G1 X133.322 Y117.809 E.041
G1 X132.558 Y117.947 E.02434
G1 X117.442 Y117.947 E.47395
G1 X116.194 Y117.557 E.041
G1 X115.392 Y116.524 E.041
G1 X115.254 Y115.759 E.02437
G1 X115.254 Y91.415 E.76329
G1 X115.645 Y90.167 E.04101
M73 P7 R15
M73 Q7 S16
G1 X116.678 Y89.365 E.041
G1 X117.442 Y89.227 E.02434
G1 X132.558 Y89.227 E.47395
G1 X133.806 Y89.618 E.04101
G1 X134.608 Y90.651 E.041
G1 X134.746 Y91.415 E.02434
G1 X134.746 Y102.084 E.33452
;WIPE_START
G1 F8640
G1 X134.746 Y102.144 E-.01385
G1 X134.746 Y105.549 E-.78615
;WIPE_END
G1 Z.8 F720
; printing object nail_ejector_light v8.stl id:0 copy 0
G1 X128.736 Y101.575 F10800
G1 Z.4 F720
G1 E.8 F2100
;TYPE:Support material
;WIDTH:0.35
G1 F2034
G1 X127.071 Y101.575 E.04251
G1 X126.823 Y101.824 E.00897
G1 X126.823 Y103.174 E.03447
G1 X127.072 Y103.422 E.00897
M73 Q7 S15
G1 X127.518 Y103.423 E.01139
G1 X127.912 Y103.327 E.01035
G1 X128.258 Y103.126 E.01022
G1 X128.584 Y102.763 E.01246
G1 X128.984 Y101.978 E.0225
G1 X128.76 Y101.615 E.01089
;WIPE_START
G1 F8640
G1 X128.984 Y101.978 E-.09849
G1 X128.584 Y102.763 E-.20343
G1 X128.258 Y103.126 E-.11266
G1 X127.912 Y103.327 E-.09239
G1 X127.518 Y103.423 E-.09364
G1 X127.072 Y103.422 E-.10298
G1 X126.823 Y103.174 E-.08115
G1 X126.823 Y103.108 E-.01526
;WIPE_END
G1 Z.8 F720
G1 X128.864 Y104.979 F10800
G1 Z.4 F720
G1 E.8 F2100
G1 F2034
G1 X128.513 Y104.332 E.01879
G1 X128.033 Y103.927 E.01604
G1 X127.564 Y103.78 E.01255
G1 X127.094 Y103.77 E.012
G1 X126.842 Y104.014 E.00896
G1 X126.822 Y105.364 E.03447
G1 X127.066 Y105.616 E.00896
G1 X128.736 Y105.623 E.04264
G1 X128.984 Y105.221 E.01206
G1 X128.884 Y105.021 E.00571
G1 X128.884 Y105.021 F10800
G1 X129.614 Y112.815
G1 F2034
G1 X120.386 Y112.815 E.23563
G1 X120.386 Y110.508 E.05891
G1 X129.614 Y110.508 E.23563
G1 X129.614 Y108.201 E.05891
G1 X120.386 Y108.201 E.23563
G1 X120.386 Y105.894 E.05891
G1 X129.614 Y105.894 E.23563
G1 X129.614 Y103.587 E.05891
G1 X120.386 Y103.587 E.23563
G1 X120.386 Y101.28 E.05891
G1 X129.614 Y101.28 E.23563
G1 X129.614 Y98.973 E.05891
G1 X120.386 Y98.973 E.23563
G1 X120.386 Y96.666 E.05891
G1 X129.614 Y96.666 E.23563
G1 X129.614 Y94.359 E.05891
G1 X120.386 Y94.359 E.23563
;WIPE_START
G1 F8640
G1 X123.851 Y94.359 E-.8
;WIPE_END
G1 Z.8 F720
G1 X127.597 Y104.462 F10800
G1 Z.4 F720
G1 E.8 F2100
M204 S800
;TYPE:External perimeter
;WIDTH:0.441864
G1 F1500
G1 X127.667 Y104.475 E.00236
G1 X127.885 Y104.61 E.00851
G1 X128.049 Y104.8 E.00833
G1 X128.139 Y104.977 E.00659
G1 X127.574 Y104.976 E.01874
G1 X127.581 Y104.503 E.01569
M204 S1000
;WIPE_START
G1 F8640
G1 X127.597 Y104.462 E-.01016
G1 X127.667 Y104.475 E-.01644
G1 X127.885 Y104.61 E-.05921
G1 X128.049 Y104.8 E-.05795
G1 X128.139 Y104.977 E-.04585
G1 X127.574 Y104.976 E-.13046
G1 X127.581 Y104.503 E-.10923
;WIPE_END
G1 E-.3707 F2100
G1 Z.8 F720
G1 X128.121 Y102.225 F10800
G1 Z.4 F720
G1 E.8 F2100
M204 S800
;WIDTH:0.443204
G1 F1500
G1 X127.965 Y102.502 E.01058
G1 X127.825 Y102.636 E.00645
G1 X127.57 Y102.739 E.00915
G1 X127.57 Y102.221 E.01724
G1 X128.068 Y102.221 E.01658
M204 S1000
M106 S170.85
;LAYER_CHANGE
;Z:0.6
;HEIGHT:0.2
;BEFORE_LAYER_CHANGE
G92 E0.0
;0.6


;WIPE_START
G1 F8640
G1 X128.121 Y102.225 E-.01227
G1 X127.965 Y102.502 E-.07341
G1 X127.825 Y102.636 E-.04475
G1 X127.57 Y102.739 E-.0635
G1 X127.57 Y102.221 E-.11961
G1 X128.068 Y102.221 E-.11499
;WIPE_END
G1 E-.37147 F2100
G1 Z.6 F720
;AFTER_LAYER_CHANGE
;0.6
; stop printing object nail_ejector_light v8.stl id:0 copy 0
G1 Z1
G1 X135.123 Y102.221 F10800
G1 Z.6 F720
G1 E.8 F2100
;TYPE:Skirt/Brim
;WIDTH:0.42
G1 F2292
G1 X135.123 Y115.759 E.42447
G1 X134.731 Y117.122 E.04447
G1 X133.674 Y118.069 E.0445
G1 X132.558 Y118.324 E.03589
G1 X117.442 Y118.324 E.47395
G1 X116.079 Y117.932 E.04447
G1 X115.133 Y116.876 E.04445
G1 X114.877 Y115.759 E.03593
G1 X114.877 Y91.415 E.76329
G1 X115.269 Y90.052 E.04447
G1 X116.326 Y89.106 E.04448
G1 X117.442 Y88.85 E.0359
G1 X132.558 Y88.85 E.47395
G1 X133.921 Y89.242 E.04447
G1 X134.867 Y90.299 E.04448
M73 Q8 S15
G1 X135.123 Y91.415 E.0359
G1 X135.123 Y102.161 E.33693
G1 X135.123 Y102.161 F10800
M73 P8 R15
G1 X134.746 Y102.161
G1 F2292
G1 X134.746 Y115.759 E.42636
G1 X134.355 Y117.007 E.04101
G1 X133.322 Y117.809 E.041
G1 X132.558 Y117.947 E.02434
G1 X117.442 Y117.947 E.47395
G1 X116.194 Y117.557 E.041
G1 X115.392 Y116.524 E.041
G1 X115.254 Y115.759 E.02437
G1 X115.254 Y91.415 E.76329
G1 X115.645 Y90.167 E.04101
G1 X116.678 Y89.365 E.041
G1 X117.442 Y89.227 E.02434
G1 X132.558 Y89.227 E.47395
G1 X133.806 Y89.618 E.04101
G1 X134.608 Y90.651 E.041
G1 X134.746 Y91.415 E.02434
G1 X134.746 Y102.101 E.33505
;WIPE_START
G1 F8640
G1 X134.746 Y102.161 E-.01385
G1 X134.746 Y105.566 E-.78615
;WIPE_END
G1 Z1 F720
; printing object nail_ejector_light v8.stl id:0 copy 0
G1 X120.386 Y112.815 F10800
G1 Z.6 F720
G1 E.8 F2100
;TYPE:Support material
;WIDTH:0.35
G1 F2292
G1 X129.614 Y112.815 E.23563
G1 X129.614 Y110.508 E.05891
G1 X120.386 Y110.508 E.23563
G1 X120.386 Y108.201 E.05891
G1 X129.614 Y108.201 E.23563
G1 X129.614 Y106.201 E.05107
G1 X124.693 Y106.201 E.12565
G1 X124.693 Y105.894 E.00784
G1 X120.386 Y105.894 E.10997
G1 X120.386 Y103.741 E.05497
;WIPE_START
G1 F8640
G1 X120.386 Y105.894 E-.49713
G1 X121.698 Y105.894 E-.30287
;WIPE_END
G1 Z1 F720
G1 X125 Y101.28 F10800
G1 Z.6 F720
G1 E.8 F2100
;TYPE:Support material interface
G1 F2292
G1 X125 Y105.894 E.11781
G1 X125.507 Y105.894 E.01295
G1 X125.507 Y101.28 E.11781
G1 X126.014 Y101.28 E.01295
G1 X126.014 Y105.894 E.11781
G1 X126.521 Y105.894 E.01295
G1 X126.521 Y101.28 E.11781
G1 X127.028 Y101.28 E.01295
G1 X127.028 Y101.575 E.00753
G1 X127.535 Y101.575 E.01295
G1 X127.535 Y101.28 E.00753
G1 X128.042 Y101.28 E.01295
G1 X128.042 Y101.575 E.00753
G1 X128.55 Y101.575 E.01297
G1 X128.55 Y101.28 E.00753
G1 X129.057 Y101.28 E.01295
G1 X129.057 Y105.894 E.11781
G1 X129.564 Y105.894 E.01295
G1 X129.564 Y101.28 E.11781
;WIPE_START
G1 F8640
G1 X129.564 Y104.745 E-.8
;WIPE_END
G1 Z1 F720
G1 X128.811 Y102.324 F10800
G1 Z.6 F720
G1 E.8 F2100
G1 F2292
G1 X128.55 Y102.814 E.01418
G1 X128.55 Y104.384 E.04009
G1 X128.042 Y103.932 E.01736
G1 X128.042 Y103.266 E.01701
G1 X127.535 Y103.421 E.01354
G1 X127.535 Y103.777 E.00909
G1 X127.028 Y103.768 E.01295
G1 X127.028 Y103.422 E.00883
G1 X126.869 Y103.422 E.00406
G1 X126.767 Y103.32 E.00368
;WIPE_START
G1 F8640
G1 X126.869 Y103.422 E-.03331
G1 X127.028 Y103.422 E-.03671
G1 X127.028 Y103.768 E-.07989
G1 X127.535 Y103.777 E-.11709
G1 X127.535 Y103.421 E-.0822
G1 X128.042 Y103.266 E-.12242
G1 X128.042 Y103.932 E-.15378
G1 X128.55 Y104.384 E-.15701
G1 X128.55 Y104.308 E-.01759
;WIPE_END
G1 Z1 F720
G1 X128.831 Y105.469 F10800
