; generated by PrusaSlicer 2.7.4+win64 on 2024-08-17 at 23:41:16 UTC


;
;
; 

; external perimeters extrusion width = 0.45mm
; perimeters extrusion width = 0.45mm
; infill extrusion width = 0.45mm
; solid infill extrusion width = 0.45mm
; top infill extrusion width = 0.40mm
; support material extrusion width = 0.35mm
; first layer extrusion width = 0.42mm

M73 P0 R48
M73 Q0 S48
M201 X1000 Y1000 Z200 E5000 ; sets maximum accelerations, mm/sec^2
M203 X200 Y200 Z12 E120 ; sets maximum feedrates, mm / sec
M204 S1250 T1250 ; sets acceleration (S) and retract acceleration (R), mm/sec^2
M205 X8.00 Y8.00 Z0.40 E4.50 ; sets the jerk limits, mm/sec
M205 S0 T0 ; sets the minimum extruding and travel feed rate, mm/sec

; printing object LinkageCurvedLimiterV2.stl id:0 copy 0
; stop printing object LinkageCurvedLimiterV2.stl id:0 copy 0

;TYPE:Custom
M862.3 P "MK3S" ; printer model check
M862.1 P0.4 ; nozzle diameter check
M115 U3.13.3 ; tell printer latest fw version
G90 ; use absolute coordinates
M83 ; extruder relative mode
M104 S215 ; set extruder temp
M140 S60 ; set bed temp
M190 S60 ; wait for bed temp
M109 S215 ; wait for extruder temp
G28 W ; home all without mesh bed level
G80 X110.686 Y74.9344 W28.6283 H60.1312 ; mesh bed levelling

G1 Z0.2 F720
G1 Y-3 F1000 ; go outside print area
G92 E0
G1 X60 E9 F1000 ; intro line
G1 X100 E12.5 F1000 ; intro line

G92 E0
M221 S95

; Don't change E values below. Excessive value can damage the printer.
M907 E430 ; set extruder motor current
G21 ; set units to millimeters
G90 ; use absolute coordinates
M83 ; use relative distances for extrusion

M900 K0.05 ; Filament gcode LA 1.5
M900 K30 ; Filament gcode LA 1.0




M107
;LAYER_CHANGE
;Z:0.2
;HEIGHT:0.2
G1 E-.8 F2100
M73 P0 R47
G1 Z.6 F720
G1 X111.521 Y77.214 F10800
G1 Z.2 F720
G1 E.8 F2100
M204 S800
;TYPE:Skirt/Brim
;WIDTH:0.42
G1 F1200
G1 X112.287 Y76.28 E.03787
G1 X113.353 Y75.558 E.04037
G1 X114.434 Y75.201 E.03569
G1 X115.251 Y75.123 E.02573
G1 X127.251 Y75.123 E.37625
G1 X128.498 Y75.305 E.03951
G1 X129.135 Y75.551 E.02141
G1 X129.773 Y75.923 E.02316
G1 X130.27 Y76.332 E.02018
G1 X130.774 Y76.902 E.02386
G1 X131.371 Y78.025 E.03988
G1 X138.799 Y102.471 E.80109
G1 X139.022 Y103.555 E.0347
G1 X139.122 Y104.657 E.03469
G1 X139.098 Y105.763 E.03469
G1 X138.925 Y106.99 E.03885
G1 X131.428 Y131.81 E.81294
G1 X131.087 Y132.608 E.02721
G1 X130.537 Y133.392 E.03003
G1 X129.85 Y134.022 E.02923
G1 X129.15 Y134.442 E.0256
G1 X128.467 Y134.703 E.02293
G1 X127.587 Y134.863 E.02804
G1 X115.251 Y134.877 E.38679
G1 X114.231 Y134.755 E.03221
G1 X113.565 Y134.538 E.02196
G1 X112.965 Y134.231 E.02113
G1 X112.37 Y133.795 E.02313
G1 X111.918 Y133.334 E.02024
G1 X111.23 Y132.227 E.04087
G1 X111 Y131.535 E.02286
G1 X110.889 Y130.836 E.02219
G1 X110.874 Y79.5 E1.6096
G1 X110.997 Y78.48 E.03221
G1 X111.214 Y77.813 E.02199
G1 X111.493 Y77.267 E.01922
M204 S1000
;WIPE_START
G1 F8640
G1 X111.521 Y77.214 E-.01384
G1 X112.287 Y76.28 E-.27892
G1 X113.353 Y75.558 E-.29729
G1 X114.217 Y75.273 E-.20995
;WIPE_END
G1 Z.6 F720
; printing object LinkageCurvedLimiterV2.stl id:0 copy 0
G1 X117.956 Y128.197 F10800
G1 Z.2 F720
G1 E.8 F2100
M204 S800
;TYPE:Support material
G1 F1200
G1 X118.39 Y128.345 E.01438
G1 X118.746 Y128.633 E.01436
G1 X118.983 Y129.026 E.01439
G1 X119.064 Y129.629 E.01908
G1 X118.867 Y130.204 E.01906
G1 X118.559 Y130.543 E.01436
G1 X118.153 Y130.757 E.01439
G1 X117.546 Y130.803 E.01909
G1 X117.113 Y130.655 E.01435
G1 X116.757 Y130.367 E.01436
G1 X116.52 Y129.974 E.01439
G1 X116.439 Y129.371 E.01908
G1 X116.636 Y128.796 E.01906
G1 X116.944 Y128.457 E.01436
G1 X117.35 Y128.243 E.01439
G1 X117.9 Y128.191 E.01732
M204 S1000
G1 X117.9 Y128.191 F10800
G1 X118.715 Y130.125
M204 S800
G1 F1200
G1 X118.7 Y129.257 E.02722
G1 X118.56 Y128.947 E.01067
G1 X118.296 Y128.688 E.0116
G1 X118.296 Y130.312 E.05092
G1 X117.877 Y130.47 E.01404
G1 X117.877 Y128.53 E.06083
G1 X117.676 Y128.524 E.00631
G1 X117.458 Y128.566 E.00696
G1 X117.458 Y130.433 E.05854
G1 X117.093 Y130.225 E.01317
G1 X117.039 Y130.17 E.00242
G1 X117.039 Y128.599 E.04926
M204 S1000
;WIPE_START
G1 F8640
G1 X117.039 Y130.17 E-.36275
G1 X117.093 Y130.225 E-.0178
G1 X117.458 Y130.433 E-.097
G1 X117.458 Y129.036 E-.32245
;WIPE_END
G1 Z.6 F720
G1 X124.864 Y128.236 F10800
G1 Z.2 F720
G1 E.8 F2100
M204 S800
G1 F1200
G1 X125.297 Y128.354 E.01407
G1 X125.662 Y128.616 E.01409
G1 X125.965 Y129.129 E.01868
G1 X126.018 Y129.575 E.01408
G1 X125.913 Y130.012 E.01409
G1 X125.662 Y130.384 E.01407
G1 X125.158 Y130.702 E.01869
G1 X124.714 Y130.769 E.01408
G1 X124.274 Y130.676 E.0141
G1 X123.79 Y130.329 E.01867
G1 X123.562 Y129.942 E.01408
G1 X123.482 Y129.5 E.01408
G1 X123.562 Y129.058 E.01408
G1 X123.895 Y128.564 E.01868
G1 X124.274 Y128.324 E.01407
G1 X124.808 Y128.234 E.01698
M204 S1000
G1 X124.808 Y128.234 F10800
G1 X125.419 Y130.372
M204 S800
G1 F1200
G1 X125.419 Y128.854 E.0476
G1 X125 Y128.606 E.01527
G1 X125 Y130.394 E.05606
G1 X124.581 Y130.412 E.01315
G1 X124.581 Y128.588 E.05719
G1 X124.162 Y128.784 E.0145
G1 X124.162 Y130.425 E.05145
M204 S1000
;WIPE_START
G1 F8640
G1 X124.162 Y128.784 E-.37891
G1 X124.581 Y128.588 E-.10681
G1 X124.581 Y129.949 E-.31428
;WIPE_END
G1 Z.6 F720
G1 X124.981 Y79.201 F10800
G1 Z.2 F720
G1 E.8 F2100
M204 S800
G1 F1200
G1 X125.539 Y79.442 E.01906
G1 X125.854 Y79.775 E.01437
G1 X126.035 Y80.196 E.01437
G1 X126.035 Y80.804 E.01906
G1 X125.854 Y81.225 E.01437
G1 X125.539 Y81.558 E.01437
G1 X125.13 Y81.764 E.01436
G1 X124.522 Y81.799 E.01909
G1 X124.092 Y81.642 E.01435
G1 X123.741 Y81.348 E.01436
G1 X123.512 Y80.951 E.01437
G1 X123.441 Y80.347 E.01907
G1 X123.649 Y79.775 E.01908
G1 X123.964 Y79.442 E.01437
G1 X124.373 Y79.236 E.01436
G1 X124.924 Y79.194 E.01733
M204 S1000
G1 X124.924 Y79.194 F10800
G1 X125.419 Y81.434
M204 S800
G1 F1200
G1 X125.419 Y79.784 E.05173
G1 X125 Y79.554 E.01499
G1 X125 Y81.446 E.05932
G1 X124.581 Y81.464 E.01315
G1 X124.581 Y79.536 E.06045
G1 X124.162 Y79.718 E.01432
G1 X124.162 Y81.486 E.05543
M204 S1000
;WIPE_START
G1 F8640
G1 X124.162 Y79.718 E-.40824
G1 X124.581 Y79.536 E-.10548
G1 X124.581 Y80.776 E-.28628
;WIPE_END
G1 Z.6 F720
G1 X117.981 Y79.201 F10800
G1 Z.2 F720
G1 E.8 F2100
M204 S800
G1 F1200
G1 X118.411 Y79.358 E.01435
G1 X118.854 Y79.775 E.01908
G1 X119.035 Y80.196 E.01437
G1 X119.035 Y80.804 E.01906
G1 X118.854 Y81.225 E.01437
G1 X118.411 Y81.642 E.01908
G1 X117.981 Y81.799 E.01435
G1 X117.522 Y81.799 E.01439
G1 X116.964 Y81.558 E.01906
G1 X116.649 Y81.225 E.01437
G1 X116.468 Y80.804 E.01437
G1 X116.441 Y80.347 E.01435
G1 X116.649 Y79.775 E.01908
G1 X116.964 Y79.442 E.01437
G1 X117.373 Y79.236 E.01436
G1 X117.924 Y79.194 E.01733
M204 S1000
G1 X117.924 Y79.194 F10800
G1 X118.715 Y81.125
M204 S800
G1 F1200
G1 X118.704 Y80.274 E.02668
G1 X118.57 Y79.962 E.01065
G1 X118.296 Y79.688 E.01215
G1 X118.296 Y81.312 E.05092
G1 X117.877 Y81.47 E.01404
G1 X117.877 Y79.53 E.06083
G1 X117.695 Y79.522 E.00571
G1 X117.458 Y79.566 E.00756
G1 X117.458 Y81.434 E.05857
G1 X117.079 Y81.212 E.01377
G1 X117.039 Y79.6 E.05056
M204 S1000
;WIPE_START
G1 F8640
G1 X117.079 Y81.212 E-.37233
G1 X117.458 Y81.434 E-.10142
G1 X117.458 Y80.021 E-.32625
;WIPE_END
G1 Z.6 F720
G1 X129.311 Y91.949 F10800
G1 Z.2 F720
G1 E.8 F2100
M204 S800
;TYPE:Perimeter
;WIDTH:0.419999
G1 F1200
G1 X129.52 Y92.656 E.02312
G1 X129.694 Y93.166 E.0169
G1 X130.211 Y94.466 E.04387
G1 X130.698 Y95.478 E.03521
G1 X131.255 Y96.52 E.03705
G1 X131.925 Y97.61 E.04012
G1 X132.756 Y98.774 E.04484
G1 X133.657 Y99.87 E.04449
G1 X134.379 Y100.669 E.03376
G1 X134.83 Y101.269 E.02353
G1 X135.382 Y102.269 E.03581
G1 X135.647 Y102.964 E.02332
G1 X135.833 Y103.685 E.02335
G1 X135.96 Y104.812 E.03556
G1 X135.928 Y105.375 E.01768
G1 X135.896 Y105.945 E.0179
G1 X135.751 Y106.675 E.02334
G1 X135.525 Y107.384 E.02333
G1 X135.03 Y108.413 E.0358
G1 X134.729 Y108.865 E.01703
G1 X134.385 Y109.325 E.01801
G1 X133.543 Y110.263 E.03952
G1 X132.738 Y111.248 E.03989
G1 X132.308 Y111.832 E.02274
G1 X131.308 Y113.401 E.05834
G1 X130.817 Y114.27 E.0313
G1 X130.397 Y115.146 E.03046
G1 X130.04 Y115.963 E.02796
G1 X129.684 Y116.86 E.03026
G1 X129.366 Y117.847 E.03251
G1 X129.065 Y118.914 E.03476
G1 X128.905 Y119.616 E.02258
G1 X128.659 Y121.04 E.04531
G1 X128.509 Y122.571 E.04823
G1 X128.464 Y123.868 E.04069
G1 X128.464 Y130.198 E.19847
G1 X128.436 Y130.737 E.01692
G1 X128.238 Y131.188 E.01544
G1 X127.932 Y131.481 E.01328
G1 X127.557 Y131.658 E.013
G1 X127.216 Y131.713 E.01083
G1 X125.975 Y131.712 E.03891
G1 X126.4 Y131.425 E.01608
G1 X126.806 Y130.984 E.01879
G1 X127.097 Y130.46 E.01879
G1 X127.249 Y129.947 E.01678
G1 X127.285 Y129.383 E.01772
G1 X127.194 Y128.824 E.01776
G1 X126.967 Y128.269 E.0188
G1 X126.616 Y127.783 E.0188
G1 X126.16 Y127.393 E.01881
G1 X125.626 Y127.121 E.01879
G1 X125.043 Y126.982 E.01879
G1 X124.591 Y126.971 E.01418
G1 X124.019 Y127.074 E.01822
G1 X123.47 Y127.314 E.01879
G1 X122.99 Y127.679 E.01891
G1 X122.603 Y128.156 E.01926
G1 X122.353 Y128.681 E.01823
G1 X122.228 Y129.267 E.01879
G1 X122.244 Y129.866 E.01879
G1 X122.4 Y130.445 E.0188
G1 X122.688 Y130.971 E.0188
G1 X123.091 Y131.414 E.01878
G1 X123.512 Y131.71 E.01614
G1 X119.096 Y131.706 E.13846
G1 X119.603 Y131.303 E.02031
G1 X119.969 Y130.827 E.01883
G1 X120.215 Y130.28 E.01881
G1 X120.329 Y129.69 E.01884
G1 X120.302 Y129.086 E.01896
G1 X120.132 Y128.496 E.01925
G1 X119.847 Y127.987 E.01829
G1 X119.442 Y127.545 E.0188
G1 X118.947 Y127.209 E.01876
G1 X118.384 Y126.994 E.0189
G1 X117.773 Y126.916 E.01931
G1 X117.195 Y126.976 E.01822
G1 X116.626 Y127.174 E.01889
G1 X116.121 Y127.495 E.01876
G1 X115.701 Y127.927 E.01889
G1 X115.387 Y128.457 E.01932
G1 X115.214 Y129.012 E.01823
G1 X115.169 Y129.612 E.01887
G1 X115.265 Y130.204 E.0188
G1 X115.487 Y130.748 E.01842
G1 X115.772 Y131.16 E.01571
G1 X116.194 Y131.562 E.01827
G1 X116.418 Y131.704 E.00832
G1 X115.204 Y131.703 E.03806
G1 X114.85 Y131.625 E.01137
G1 X114.529 Y131.45 E.01146
G1 X114.273 Y131.183 E.0116
G1 X114.098 Y130.818 E.01269
G1 X114.039 Y130.464 E.01125
G1 X114.039 Y123.886 E.20625
G1 X114.084 Y122.557 E.04169
G1 X114.22 Y121.24 E.04151
G1 X114.446 Y119.942 E.04131
G1 X114.76 Y118.659 E.04141
G1 X115.163 Y117.4 E.04145
G1 X115.65 Y116.173 E.04139
G1 X116.221 Y114.981 E.04144
G1 X116.874 Y113.83 E.04149
G1 X117.415 Y113.002 E.03101
G1 X117.997 Y112.195 E.0312
G1 X118.834 Y111.175 E.04137
G1 X119.617 Y110.304 E.03672
G1 X120.366 Y109.246 E.04064
G1 X120.56 Y108.86 E.01355
G1 X121.005 Y107.922 E.03255
G1 X121.284 Y107.037 E.02909
G1 X121.439 Y106.255 E.025
G1 X121.535 Y105.2 E.03322
G1 X121.506 Y104.273 E.02908
G1 X121.373 Y103.354 E.02911
G1 X121.138 Y102.456 E.0291
G1 X120.804 Y101.59 E.0291
G1 X120.375 Y100.767 E.0291
G1 X119.886 Y100.035 E.0276
G1 X119.575 Y99.644 E.01566
G1 X118.408 Y98.324 E.05524
G1 X117.602 Y97.271 E.04158
G1 X116.873 Y96.168 E.04145
G1 X116.221 Y95.018 E.04145
G1 X115.648 Y93.823 E.04155
G1 X115.397 Y93.222 E.02042
G1 X114.955 Y91.986 E.04116
G1 X114.593 Y90.707 E.04168
G1 X114.322 Y89.413 E.04145
G1 X114.141 Y88.1 E.04156
G1 X114.05 Y86.783 E.04139
G1 X114.039 Y79.9 E.21581
G1 X114.061 Y79.317 E.01829
M73 Q1 S48
G1 X114.181 Y78.948 E.01217
M73 P1 R47
G1 X114.432 Y78.612 E.01315
G1 X114.845 Y78.367 E.01506
G1 X115.287 Y78.287 E.01408
G1 X116.438 Y78.288 E.03609
G1 X116.245 Y78.401 E.00701
G1 X115.814 Y78.79 E.0182
G1 X115.678 Y78.969 E.00705
G1 X115.413 Y79.399 E.01584
G1 X115.222 Y79.968 E.01882
G1 X115.168 Y80.566 E.01883
G1 X115.253 Y81.16 E.01881
G1 X115.472 Y81.718 E.01879
G1 X115.814 Y82.211 E.01881
G1 X116.261 Y82.612 E.01883
G1 X116.788 Y82.898 E.0188
G1 X117.367 Y83.056 E.01882
G1 X117.967 Y83.075 E.01882
G1 X118.555 Y82.956 E.01881
G1 X119.1 Y82.705 E.01881
G1 X119.572 Y82.334 E.01882
G1 X119.946 Y81.865 E.01881
G1 X120.212 Y81.279 E.02018
G1 X120.324 Y80.767 E.01643
G1 X120.325 Y80.265 E.01574
G1 X120.198 Y79.664 E.01926
G1 X119.946 Y79.135 E.01837
G1 X119.572 Y78.666 E.01881
G1 X119.088 Y78.29 E.01922
G1 X123.425 Y78.294 E.13598
G1 X123.156 Y78.467 E.01003
G1 X122.73 Y78.89 E.01882
G1 X122.413 Y79.399 E.0188
G1 X122.216 Y80.024 E.02055
G1 X122.175 Y80.627 E.01895
G1 X122.268 Y81.202 E.01826
G1 X122.472 Y81.718 E.0174
G1 X122.815 Y82.211 E.01883
G1 X123.261 Y82.612 E.01881
G1 X123.788 Y82.898 E.0188
G1 X124.368 Y83.056 E.01885
G1 X124.967 Y83.075 E.01879
G1 X125.555 Y82.956 E.01881
G1 X126.1 Y82.705 E.01881
G1 X126.572 Y82.334 E.01882
G1 X126.946 Y81.865 E.01881
G1 X127.202 Y81.322 E.01882
G1 X127.325 Y80.735 E.0188
G1 X127.31 Y80.135 E.01882
G1 X127.154 Y79.549 E.01901
G1 X126.911 Y79.074 E.01673
G1 X126.572 Y78.666 E.01663
G1 X126.101 Y78.296 E.01878
G1 X127.429 Y78.308 E.04164
G1 X127.856 Y78.453 E.01414
G1 X128.101 Y78.657 E.01
G1 X128.36 Y79.033 E.01432
G1 X128.464 Y79.55 E.01653
G1 X128.465 Y86.147 E.20684
G1 X128.514 Y87.566 E.04452
G1 X128.577 Y88.287 E.02269
G1 X128.772 Y89.69 E.04441
G1 X128.908 Y90.397 E.02257
G1 X129.07 Y91.104 E.02274
G1 X129.236 Y91.694 E.01922
G1 X129.295 Y91.892 E.00648
M204 S1000
G1 X129.295 Y91.892 F10800
G1 X129.673 Y91.843
M204 S800
;TYPE:External perimeter
G1 F1200
G1 X129.877 Y92.534 E.02259
G1 X130.044 Y93.027 E.01632
G1 X130.554 Y94.309 E.04326
G1 X131.032 Y95.304 E.03461
G1 X131.577 Y96.323 E.03623
G1 X132.231 Y97.389 E.03921
G1 X133.048 Y98.535 E.04413
G1 X133.936 Y99.617 E.04389
G1 X134.671 Y100.429 E.03434
G1 X135.148 Y101.063 E.02488
G1 X135.725 Y102.11 E.03748
G1 X136.007 Y102.85 E.02483
G1 X136.205 Y103.616 E.02481
G1 X136.338 Y104.802 E.03742
G1 X136.305 Y105.396 E.01865
G1 X136.271 Y105.993 E.01875
G1 X136.117 Y106.769 E.02481
G1 X135.877 Y107.523 E.02481
G1 X135.359 Y108.6 E.03747
G1 X135.043 Y109.074 E.01786
G1 X134.673 Y109.569 E.01938
G1 X133.831 Y110.507 E.03952
G1 X133.042 Y111.472 E.03908
G1 X132.623 Y112.04 E.02213
G1 X131.636 Y113.586 E.05751
G1 X131.158 Y114.43 E.03041
G1 X130.737 Y115.309 E.03056
G1 X130.39 Y116.102 E.02714
G1 X130.041 Y116.981 E.02965
G1 X129.729 Y117.95 E.03192
G1 X129.434 Y118.994 E.03402
G1 X129.273 Y119.698 E.02264
G1 X129.034 Y121.079 E.04394
G1 X128.886 Y122.585 E.04745
G1 X128.842 Y123.868 E.04025
G1 X128.841 Y130.198 E.19847
G1 X128.806 Y130.826 E.01972
G1 X128.625 Y131.298 E.01585
G1 X128.435 Y131.559 E.01012
G1 X128.045 Y131.875 E.01574
G1 X127.692 Y132.01 E.01185
G1 X127.235 Y132.09 E.01455
G1 X125.763 Y132.089 E.04615
;WIDTH:0.467387
G1 X125.195 Y132.065 E.02007
G1 X124.693 Y132.075 E.01772
;WIDTH:0.482255
G1 X124.167 Y132.056 E.01923
G1 X123.881 Y132.072 E.01046
;WIDTH:0.451127
G1 X123.595 Y132.087 E.00972
;WIDTH:0.419999
G1 X118.565 Y132.083 E.15771
;WIDTH:0.423158
G1 X117.969 Y132.081 E.01884
;WIDTH:0.429884
G1 X116.859 Y132.081 E.03572
;WIDTH:0.419999
G1 X115.09 Y132.08 E.05547
G1 X114.606 Y131.95 E.01571
G1 X114.19 Y131.68 E.01555
G1 X113.877 Y131.294 E.01558
G1 X113.697 Y130.826 E.01572
G1 X113.661 Y130.484 E.01078
G1 X113.661 Y123.88 E.20706
G1 X113.708 Y122.531 E.04232
G1 X113.846 Y121.191 E.04224
G1 X113.951 Y120.522 E.02123
G1 X114.077 Y119.861 E.0211
G1 X114.397 Y118.557 E.0421
G1 X114.807 Y117.273 E.04226
G1 X115.305 Y116.022 E.04222
G1 X115.887 Y114.806 E.04227
G1 X116.552 Y113.634 E.04225
G1 X117.104 Y112.788 E.03167
G1 X117.696 Y111.967 E.03174
G1 X118.114 Y111.44 E.02109
G1 X119.309 Y110.086 E.05662
G1 X120.058 Y109.028 E.04064
G1 X120.646 Y107.808 E.04246
G1 X120.914 Y106.963 E.02779
G1 X121.069 Y106.182 E.02497
G1 X121.158 Y105.211 E.03057
G1 X121.132 Y104.325 E.02779
G1 X121.008 Y103.448 E.02777
G1 X120.785 Y102.591 E.02777
G1 X120.469 Y101.763 E.02779
G1 X120.062 Y100.977 E.02775
G1 X119.669 Y100.389 E.02218
G1 X119.295 Y99.897 E.01938
G1 X118.55 Y99.073 E.03483
G1 X118.115 Y98.561 E.02107
G1 X117.295 Y97.489 E.04232
G1 X116.551 Y96.366 E.04224
G1 X115.887 Y95.193 E.04226
G1 X115.304 Y93.977 E.04228
G1 X115.046 Y93.358 E.02103
G1 X114.595 Y92.101 E.04187
G1 X114.227 Y90.797 E.04248
G1 X113.951 Y89.478 E.04225
G1 X113.765 Y88.139 E.04239
G1 X113.673 Y86.796 E.04221
G1 X113.662 Y79.57 E.22657
G1 X113.732 Y79.065 E.01599
G1 X113.911 Y78.662 E.01383
G1 X114.185 Y78.323 E.01367
G1 X114.504 Y78.116 E.01192
G1 X114.829 Y77.976 E.0111
