; generated by PrusaSlicer 2.7.4+win64 on 2024-06-26 at 16:04:07 UTC


;
;
; 

; external perimeters extrusion width = 0.45mm
; perimeters extrusion width = 0.45mm
; infill extrusion width = 0.45mm
; solid infill extrusion width = 0.45mm
; top infill extrusion width = 0.40mm
; support material extrusion width = 0.35mm
; first layer extrusion width = 0.42mm

; external perimeters extrusion width = 0.45mm
; perimeters extrusion width = 0.45mm
; infill extrusion width = 0.45mm
; solid infill extrusion width = 0.45mm
; top infill extrusion width = 0.40mm
; support material extrusion width = 0.35mm
; first layer extrusion width = 0.42mm

; external perimeters extrusion width = 0.45mm
; perimeters extrusion width = 0.45mm
; infill extrusion width = 0.45mm
; solid infill extrusion width = 0.45mm
; top infill extrusion width = 0.40mm
; support material extrusion width = 0.35mm
; first layer extrusion width = 0.42mm

; external perimeters extrusion width = 0.45mm
; perimeters extrusion width = 0.45mm
; infill extrusion width = 0.45mm
; solid infill extrusion width = 0.45mm
; top infill extrusion width = 0.40mm
; support material extrusion width = 0.35mm
; first layer extrusion width = 0.42mm

; external perimeters extrusion width = 0.45mm
; perimeters extrusion width = 0.45mm
; infill extrusion width = 0.45mm
; solid infill extrusion width = 0.45mm
; top infill extrusion width = 0.40mm
; support material extrusion width = 0.35mm
; first layer extrusion width = 0.42mm

; external perimeters extrusion width = 0.45mm
; perimeters extrusion width = 0.45mm
; infill extrusion width = 0.45mm
; solid infill extrusion width = 0.45mm
; top infill extrusion width = 0.40mm
; support material extrusion width = 0.35mm
; first layer extrusion width = 0.42mm

M73 P0 R132
M73 Q0 S134
M201 X1000 Y1000 Z200 E5000 ; sets maximum accelerations, mm/sec^2
M203 X200 Y200 Z12 E120 ; sets maximum feedrates, mm / sec
M204 S1250 T1250 ; sets acceleration (S) and retract acceleration (R), mm/sec^2
M205 X8.00 Y8.00 Z0.40 E4.50 ; sets the jerk limits, mm/sec
M205 S0 T0 ; sets the minimum extruding and travel feed rate, mm/sec

; printing object linkageRight_WithScrewHole.stl id:1 copy 0
; stop printing object linkageRight_WithScrewHole.stl id:1 copy 0
; printing object linkageRigidConnector.stl id:0 copy 0
; stop printing object linkageRigidConnector.stl id:0 copy 0
; printing object linkageLeft_WithScrewHole.stl id:2 copy 0
; stop printing object linkageLeft_WithScrewHole.stl id:2 copy 0
; printing object linkageRigidConnector.stl id:5 copy 0
; stop printing object linkageRigidConnector.stl id:5 copy 0
; printing object linkageLeft_WithScrewHole.stl id:4 copy 0
; stop printing object linkageLeft_WithScrewHole.stl id:4 copy 0
; printing object linkageRight_WithScrewHole.stl id:3 copy 0
; stop printing object linkageRight_WithScrewHole.stl id:3 copy 0

;TYPE:Custom
M862.3 P "MK3S" ; printer model check
M862.1 P0.4 ; nozzle diameter check
M115 U3.13.3 ; tell printer latest fw version
G90 ; use absolute coordinates
M83 ; extruder relative mode
M104 S215 ; set extruder temp
M140 S60 ; set bed temp
M190 S60 ; wait for bed temp
M109 S215 ; wait for extruder temp
G28 W ; home all without mesh bed level
G80 X19.9868 Y11.812 W210.021 H186.376 ; mesh bed levelling

G1 Z0.2 F720
G1 Y-3 F1000 ; go outside print area
G92 E0
G1 X60 E9 F1000 ; intro line
G1 X100 E12.5 F1000 ; intro line

G92 E0
M221 S95

; Don't change E values below. Excessive value can damage the printer.
M907 E430 ; set extruder motor current
G21 ; set units to millimeters
G90 ; use absolute coordinates
M83 ; use relative distances for extrusion

M900 K0.05 ; Filament gcode LA 1.5
M900 K30 ; Filament gcode LA 1.0




M107
;LAYER_CHANGE
;Z:0.2
;HEIGHT:0.2
G1 E-.8 F2100
G1 Z.6 F720
G1 X57.194 Y63.725 F10800
G1 Z.2 F720
G1 E.8 F2100
M204 S800
;TYPE:Skirt/Brim
;WIDTH:0.42
G1 F1200
G1 X112.963 Y13.672 E2.34958
G1 X114.131 Y12.858 E.04464
G1 X115.501 Y12.282 E.0466
G1 X116.225 Y12.109 E.02334
G1 X117.22 Y12.001 E.03138
G1 X173.345 Y12.002 E1.75976
G1 X174.319 Y12.101 E.0307
G1 X175.044 Y12.267 E.02332
G1 X176.42 Y12.83 E.04662
G1 X177.055 Y13.22 E.02337
G1 X178 Y14.007 E.03856
G1 X179.009 Y15.282 E.05098
G1 X228.809 Y97.113 E3.00353
G1 X229.48 Y98.57 E.05029
M73 Q0 S133
G1 X229.786 Y100.025 E.04662
G1 X229.798 Y101.255 E.03857
G1 X229.698 Y101.993 E.02335
G1 X229.214 Y103.534 E.05064
G1 X189.234 Y192.183 E3.04912
G1 X188.503 Y193.515 E.04764
G1 X187.913 Y194.327 E.03147
G1 X187.38 Y194.935 E.02535
G1 X186.327 Y195.891 E.04459
G1 X184.806 Y196.874 E.05678
G1 X184.074 Y197.219 E.02537
G1 X182.728 Y197.677 E.04458
G1 X180.941 Y197.972 E.05679
G1 X141.795 Y197.999 E1.2274
G1 X140.192 Y197.808 E.05062
G1 X138.923 Y197.371 E.04208
G1 X50.519 Y157.237 E3.04411
G1 X49.407 Y156.198 E.04772
G1 X20.885 Y103.068 E1.89072
G1 X20.441 Y101.92 E.03859
G1 X20.274 Y101.195 E.02333
G1 X20.187 Y100.456 E.02333
G1 X20.196 Y99.454 E.03142
G1 X20.407 Y98.242 E.03857
G1 X20.638 Y97.534 E.02335
G1 X21.068 Y96.63 E.03139
G1 X21.768 Y95.618 E.03858
G1 X22.397 Y94.955 E.02865
G1 X57.149 Y63.765 E1.46412
M204 S1000
;WIPE_START
G1 F8640
G1 X57.194 Y63.725 E-.0139
G1 X59.728 Y61.451 E-.7861
;WIPE_END
G1 Z.6 F720
; printing object linkageRigidConnector.stl id:0 copy 0
G1 X62.23 Y105.352 F10800
G1 Z.2 F720
G1 E.8 F2100
M204 S800
;TYPE:Perimeter
;WIDTH:0.419999
G1 F1200
G1 X62.515 Y105.017 E.01379
G1 X62.71 Y104.536 E.01627
G1 X62.715 Y151.839 E1.48315
G1 X62.729 Y152.103 E.00829
;WIDTH:0.390665
G1 X62.744 Y152.367 E.00765
G1 X62.69 Y152.113 E.00751
;WIDTH:0.419999
G1 X62.636 Y151.86 E.00811
G1 X62.361 Y151.419 E.0163
G1 X61.971 Y151.076 E.01628
G1 X61.492 Y150.859 E.01649
G1 X60.917 Y150.797 E.01813
G1 X60.307 Y150.926 E.01955
G1 X59.881 Y151.181 E.01557
G1 X59.524 Y151.567 E.01649
G1 X59.334 Y151.956 E.01357
G1 X59.227 Y152.454 E.01597
G1 X59.22 Y152.655 E.00631
G1 X59.319 Y153.165 E.01629
G1 X59.54 Y153.6 E.0153
G1 X59.782 Y153.867 E.0113
G1 X60.198 Y154.16 E.01595
G1 X60.381 Y154.242 E.00629
;WIDTH:0.414866
G1 X60.731 Y154.311 E.01103
;WIDTH:0.419999
G1 X60.158 Y154.286 E.01798
G1 X54.499 Y154.286 E.17743
G1 X54.971 Y154.07 E.01628
G1 X55.361 Y153.727 E.01628
G1 X55.636 Y153.286 E.0163
G1 X55.772 Y152.785 E.01628
G1 X55.757 Y152.253 E.01669
G1 X55.576 Y151.727 E.01744
G1 X55.263 Y151.307 E.01642
G1 X54.848 Y150.999 E.0162
G1 X54.276 Y150.808 E.01891
G1 X53.917 Y150.797 E.01126
G1 X53.417 Y150.893 E.01596
G1 X52.925 Y151.151 E.01742
G1 X52.561 Y151.521 E.01627
G1 X52.389 Y151.807 E.01046
G1 X52.289 Y152.166 E.01168
G1 X52.285 Y104.544 E1.49315
;WIDTH:0.416836
G1 X52.349 Y104.726 E.006
M73 P0 R131
;WIDTH:0.419999
G1 X52.6 Y105.169 E.01596
G1 X53.003 Y105.551 E.01741
G1 X53.471 Y105.776 E.01628
G1 X53.984 Y105.856 E.01628
G1 X54.499 Y105.786 E.0163
G1 X54.986 Y105.562 E.01681
G1 X55.361 Y105.227 E.01577
G1 X55.636 Y104.786 E.0163
G1 X55.772 Y104.285 E.01628
G1 X55.759 Y103.766 E.01628
G1 X55.596 Y103.273 E.01628
G1 X55.297 Y102.848 E.01629
G1 X54.889 Y102.526 E.0163
G1 X54.477 Y102.36 E.01393
G1 X60.414 Y102.36 E.18615
G1 X60.673 Y102.344 E.00814
;WIDTH:0.387405
G1 X60.931 Y102.328 E.0074
;WIDTH:0.356186
G1 X60.923 Y102.328 E.00021
;WIDTH:0.388093
G1 X60.67 Y102.361 E.00732
;WIDTH:0.419999
G1 X60.417 Y102.393 E.008
G1 X60.229 Y102.466 E.00632
G1 X59.799 Y102.756 E.01626
G1 X59.485 Y103.13 E.01531
G1 X59.334 Y103.456 E.01126
G1 X59.214 Y104.073 E.01971
G1 X59.284 Y104.568 E.01567
G1 X59.497 Y105.038 E.01618
G1 X59.782 Y105.367 E.01365
G1 X60.228 Y105.68 E.01708
G1 X60.725 Y105.835 E.01632
G1 X61.244 Y105.84 E.01627
G1 X61.743 Y105.695 E.01629
G1 X62.179 Y105.413 E.01628
G1 X62.192 Y105.398 E.00062
M204 S1000
;WIPE_START
G1 F8640
G1 X62.23 Y105.352 E-.01378
G1 X62.515 Y105.017 E-.10156
G1 X62.71 Y104.536 E-.11984
G1 X62.71 Y106.982 E-.56482
;WIPE_END
G1 Z.6 F720
G1 X61.492 Y102.36 F10800
G1 Z.2 F720
G1 E.8 F2100
M204 S800
;WIDTH:0.459231
G1 F1200
G1 X61.758 Y102.38 E.00923
;WIDTH:0.499639
G1 X62.024 Y102.4 E.01013
G1 X62.675 Y102.4 E.02472
G1 X62.675 Y102.628 E.00866
G1 X62.673 Y103.339 E.027
G1 X62.389 Y102.89 E.02018
G1 X61.989 Y102.541 E.02016
G1 X61.741 Y102.45 E.01003
;WIDTH:0.459231
G1 X61.548 Y102.38 E.00711
M204 S1000
;WIPE_START
G1 F8640
G1 X61.492 Y102.36 E-.01373
G1 X61.758 Y102.38 E-.06159
G1 X62.024 Y102.4 E-.06159
G1 X62.675 Y102.4 E-.15032
G1 X62.675 Y102.628 E-.05265
G1 X62.673 Y103.339 E-.16417
G1 X62.389 Y102.89 E-.12267
G1 X61.989 Y102.541 E-.12257
G1 X61.782 Y102.465 E-.05071
;WIPE_END
G1 Z.6 F720
G1 X62.046 Y104.999 F10800
G1 Z.2 F720
G1 E.8 F2100
M204 S800
;TYPE:External perimeter
;WIDTH:0.419999
G1 F1200
G1 X61.959 Y105.106 E.00432
G1 X61.621 Y105.338 E.01285
G1 X61.23 Y105.463 E.01287
G1 X60.82 Y105.47 E.01286
G1 X60.415 Y105.352 E.01323
G1 X59.999 Y105.059 E.01595
G1 X59.783 Y104.765 E.01144
G1 X59.645 Y104.453 E.0107
G1 X59.595 Y104.033 E.01326
G1 X59.702 Y103.536 E.01594
G1 X59.842 Y103.273 E.00934
G1 X60.122 Y102.973 E.01287
G1 X60.488 Y102.763 E.01323
G1 X60.991 Y102.667 E.01606
G1 X61.482 Y102.749 E.01561
G1 X61.844 Y102.943 E.01288
G1 X62.133 Y103.234 E.01286
G1 X62.327 Y103.595 E.01285
G1 X62.408 Y103.998 E.01289
G1 X62.37 Y104.406 E.01285
G1 X62.217 Y104.786 E.01284
G1 X62.084 Y104.952 E.00667
M204 S1000
;WIPE_START
G1 F8640
G1 X62.046 Y104.999 E-.01396
G1 X61.959 Y105.106 E-.03184
G1 X61.621 Y105.338 E-.09466
G1 X61.23 Y105.463 E-.09478
G1 X60.82 Y105.47 E-.09468
G1 X60.415 Y105.352 E-.0974
G1 X59.999 Y105.059 E-.11749
G1 X59.783 Y104.765 E-.08424
G1 X59.645 Y104.453 E-.07877
G1 X59.598 Y104.057 E-.09218
;WIPE_END
G1 Z.6 F720
G1 X60.931 Y102.328 F10800
G1 Z.2 F720
G1 E.8 F2100
M204 S800
;TYPE:Perimeter
;WIDTH:0.386816
G1 F1200
G1 X61.211 Y102.344 E.00802
;WIDTH:0.418822
G1 X61.492 Y102.36 E.0088
M204 S1000
;WIPE_START
G1 F8640
G1 X61.211 Y102.344 E-.06499
G1 X60.931 Y102.328 E-.06476
;WIPE_END
G1 E-.67025 F2100
G1 Z.6 F720
G1 X62.744 Y103.867 F10800
G1 Z.2 F720
G1 E.8 F2100
M204 S800
;WIDTH:0.375942
G1 F1200
G1 X62.737 Y104.378 E.01415
;WIDTH:0.382716
G1 X62.733 Y104.433 E.00156
M204 S1000
;WIPE_START
G1 F8640
G1 X62.737 Y104.378 E-.01273
G1 X62.744 Y103.867 E-.118
;WIPE_END
G1 E-.66927 F2100
G1 Z.6 F720
G1 X52.328 Y103.36 F10800
G1 Z.2 F720
G1 E.8 F2100
M204 S800
;WIDTH:0.498515
G1 F1200
G1 X52.328 Y102.399 E.03641
G1 X53.293 Y102.399 E.03656
G1 X52.905 Y102.617 E.01686
G1 X52.532 Y102.995 E.02012
G1 X52.357 Y103.308 E.01358
M204 S1000
G1 X52.357 Y103.308 F10800
G1 X52.557 Y104.178
M204 S800
;TYPE:External perimeter
;WIDTH:0.532902
G1 F1200
G1 X52.556 Y104.175 E.00013
;WIDTH:0.570536
G1 X52.516 Y104.053 E.00563
G1 X52.563 Y103.924 E.00602
;WIDTH:0.532902
G1 X52.609 Y103.795 E.00558
;WIDTH:0.495268
G1 X52.656 Y103.665 E.0052
;WIDTH:0.457634
G1 X52.702 Y103.536 E.00472
;WIDTH:0.419999
G1 X52.842 Y103.273 E.00934
G1 X53.122 Y102.973 E.01287
G1 X53.488 Y102.763 E.01323
;WIDTH:0.458162
G1 X53.609 Y102.72 E.00443
;WIDTH:0.496325
G1 X53.731 Y102.678 E.00486
;WIDTH:0.534488
G1 X53.852 Y102.635 E.00525
;WIDTH:0.57265
G1 X53.973 Y102.592 E.00566
;WIDTH:0.582482
G1 X54.249 Y102.603 E.01239
G1 X54.426 Y102.712 E.00933
;WIDTH:0.541862
G1 X54.604 Y102.821 E.00866
;WIDTH:0.501241
G1 X54.782 Y102.931 E.00797
;WIDTH:0.46062
G1 X54.959 Y103.04 E.00722
;WIDTH:0.419999
G1 X55.243 Y103.408 E.01457
G1 X55.382 Y103.794 E.01286
G1 X55.404 Y104.203 E.01284
G1 X55.274 Y104.662 E.01496
G1 X55.1 Y104.956 E.01071
G1 X54.799 Y105.235 E.01287
G1 X54.43 Y105.415 E.01287
G1 X54.026 Y105.482 E.01284
G1 X53.619 Y105.429 E.01287
G1 X53.244 Y105.261 E.01288
G1 X52.928 Y104.982 E.01322
G1 X52.676 Y104.54 E.01595
;WIDTH:0.457634
G1 X52.636 Y104.418 E.00443
;WIDTH:0.495268
G1 X52.596 Y104.297 E.00479
;WIDTH:0.532902
G1 X52.576 Y104.235 E.00265
M204 S1000
;WIPE_START
G1 F8640
G1 X52.557 Y104.178 E-.01387
G1 X52.556 Y104.175 E-.00073
G1 X52.516 Y104.053 E-.02965
G1 X52.563 Y103.924 E-.0317
G1 X52.609 Y103.795 E-.03162
G1 X52.656 Y103.665 E-.03192
G1 X52.702 Y103.536 E-.03162
G1 X52.842 Y103.273 E-.0688
G1 X53.122 Y102.973 E-.09475
G1 X53.488 Y102.763 E-.09743
G1 X53.609 Y102.72 E-.02965
G1 X53.731 Y102.678 E-.02979
G1 X53.852 Y102.635 E-.02965
G1 X53.973 Y102.592 E-.02965
G1 X54.249 Y102.603 E-.06378
G1 X54.426 Y102.712 E-.048
G1 X54.604 Y102.821 E-.04819
G1 X54.782 Y102.931 E-.04832
G1 X54.933 Y103.024 E-.04088
;WIPE_END
G1 Z.6 F720
G1 X52.285 Y153.044 F10800
G1 Z.2 F720
G1 E.8 F2100
M204 S800
;TYPE:Perimeter
;WIDTH:0.455311
G1 F1200
G1 X52.333 Y153.235 E.00675
;WIDTH:0.496268
G1 X52.567 Y153.688 E.01922
G1 X52.979 Y154.08 E.02144
G1 X53.308 Y154.248 E.01393
G1 X52.327 Y154.248 E.03698
G1 X52.306 Y153.397 E.03209
;WIDTH:0.454942
G1 X52.289 Y153.104 E.01005
M204 S1000
G1 X52.289 Y153.104 F10800
G1 X52.558 Y152.437
M204 S800
;TYPE:External perimeter
;WIDTH:0.570536
G1 F1200
G1 X52.563 Y152.424 E.00061
;WIDTH:0.532902
G1 X52.609 Y152.295 E.00558
;WIDTH:0.495268
G1 X52.656 Y152.165 E.0052
;WIDTH:0.457634
G1 X52.702 Y152.036 E.00472
;WIDTH:0.419999
G1 X52.842 Y151.773 E.00934
G1 X53.122 Y151.473 E.01287
G1 X53.488 Y151.263 E.01323
G1 X53.988 Y151.167 E.01596
G1 X54.284 Y151.193 E.00932
G1 X54.67 Y151.333 E.01287
G1 X55.013 Y151.597 E.01357
G1 X55.243 Y151.908 E.01213
G1 X55.382 Y152.294 E.01286
G1 X55.404 Y152.703 E.01284
G1 X55.307 Y153.102 E.01287
G1 X55.1 Y153.456 E.01286
G1 X54.799 Y153.735 E.01287
G1 X54.43 Y153.915 E.01287
G1 X54.026 Y153.982 E.01284
G1 X53.619 Y153.929 E.01287
G1 X53.244 Y153.761 E.01288
G1 X52.928 Y153.482 E.01322
G1 X52.676 Y153.04 E.01595
;WIDTH:0.457634
G1 X52.636 Y152.918 E.00443
;WIDTH:0.495268
G1 X52.596 Y152.797 E.00479
;WIDTH:0.532902
G1 X52.556 Y152.675 E.00523
;WIDTH:0.570536
G1 X52.516 Y152.553 E.00563
G1 X52.538 Y152.494 E.00276
M204 S1000
;WIPE_START
G1 F8640
G1 X52.558 Y152.437 E-.01395
G1 X52.563 Y152.424 E-.00322
G1 X52.609 Y152.295 E-.03162
G1 X52.656 Y152.165 E-.03192
G1 X52.702 Y152.036 E-.03162
G1 X52.842 Y151.773 E-.0688
G1 X53.122 Y151.473 E-.09475
G1 X53.488 Y151.263 E-.09743
G1 X53.988 Y151.167 E-.11756
G1 X54.284 Y151.193 E-.06861
G1 X54.67 Y151.333 E-.09481
G1 X55.013 Y151.597 E-.09994
G1 X55.131 Y151.756 E-.04577
;WIPE_END
G1 Z.6 F720
G1 X54.138 Y154.319 F10800
G1 Z.2 F720
G1 E.8 F2100
M204 S800
;TYPE:Perimeter
;WIDTH:0.38828
G1 F1200
G1 X53.632 Y154.302 E.01454
M204 S1000
;WIPE_START
G1 F8640
G1 X54.138 Y154.319 E-.1169
;WIPE_END
G1 E-.6831 F2100
G1 Z.6 F720
G1 X61.702 Y154.249 F10800
G1 Z.2 F720
G1 E.8 F2100
M204 S800
;WIDTH:0.494597
G1 F1200
G1 X62.201 Y153.943 E.02198
G1 X62.544 Y153.54 E.01988
G1 X62.677 Y153.264 E.01151
G1 X62.677 Y154.249 E.03699
G1 X61.762 Y154.249 E.03436
M204 S1000
;WIPE_START
G1 F8640
G1 X61.702 Y154.249 E-.01385
G1 X62.201 Y153.943 E-.13516
G1 X62.544 Y153.54 E-.12219
G1 X62.677 Y153.264 E-.07074
G1 X62.677 Y154.249 E-.22744
G1 X61.762 Y154.249 E-.21128
;WIPE_END
G1 E-.01934 F2100
G1 Z.6 F720
G1 X59.613 Y152.687 F10800
G1 Z.2 F720
G1 E.8 F2100
M204 S800
;TYPE:External perimeter
;WIDTH:0.419999
G1 F1200
G1 X59.595 Y152.533 E.00486
G1 X59.702 Y152.036 E.01594
G1 X59.858 Y151.756 E.01005
G1 X60.122 Y151.473 E.01213
G1 X60.488 Y151.263 E.01323
G1 X60.988 Y151.167 E.01596
G1 X61.482 Y151.249 E.0157
G1 X61.844 Y151.443 E.01288
G1 X62.133 Y151.734 E.01286
G1 X62.327 Y152.095 E.01285
G1 X62.408 Y152.498 E.01289
G1 X62.37 Y152.906 E.01285
G1 X62.217 Y153.286 E.01284
G1 X61.959 Y153.606 E.01289
G1 X61.621 Y153.838 E.01285
G1 X61.23 Y153.963 E.01287
G1 X60.82 Y153.97 E.01286
G1 X60.415 Y153.852 E.01323
G1 X59.999 Y153.559 E.01595
G1 X59.812 Y153.327 E.00934
G1 X59.645 Y152.953 E.01284
G1 X59.62 Y152.747 E.00651
M204 S1000
;WIPE_START
G1 F8640
G1 X59.613 Y152.687 E-.01395
G1 X59.595 Y152.533 E-.0358
G1 X59.702 Y152.036 E-.11739
G1 X59.858 Y151.756 E-.07401
G1 X60.122 Y151.473 E-.08936
G1 X60.488 Y151.263 E-.09743
G1 X60.988 Y151.167 E-.11756
G1 X61.482 Y151.249 E-.11563
G1 X61.844 Y151.443 E-.09483
G1 X61.979 Y151.578 E-.04404
;WIPE_END
G1 Z.6 F720
G1 X61.317 Y154.309 F10800
G1 Z.2 F720
G1 E.8 F2100
M204 S800
;TYPE:Perimeter
;WIDTH:0.373736
G1 F1200
G1 X60.731 Y154.311 E.01612
M204 S1000
;WIPE_START
G1 F8640
G1 X61.317 Y154.309 E-.13531
;WIPE_END
