; generated by PrusaSlicer 2.8.0+win64 on 2024-08-17 at 22:26:49 UTC


;
;
; 

; external perimeters extrusion width = 0.45mm
; perimeters extrusion width = 0.45mm
; infill extrusion width = 0.45mm
; solid infill extrusion width = 0.45mm
; top infill extrusion width = 0.40mm
; first layer extrusion width = 0.42mm

M73 P0 R41
M73 Q0 S41
M201 X1000 Y1000 Z200 E5000 ; sets maximum accelerations, mm/sec^2
M203 X200 Y200 Z12 E120 ; sets maximum feedrates, mm / sec
M204 S1250 T1250 ; sets acceleration (S) and retract acceleration (R), mm/sec^2
M205 X8.00 Y8.00 Z0.40 E4.50 ; sets the jerk limits, mm/sec
M205 S0 T0 ; sets the minimum extruding and travel feed rate, mm/sec

; printing object LinkageCurvedLimiter v2.stl id:0 copy 0
; stop printing object LinkageCurvedLimiter v2.stl id:0 copy 0

;TYPE:Custom
M862.3 P "MK3S" ; printer model check
M862.1 P0.4 ; nozzle diameter check
M115 U3.13.3 ; tell printer latest fw version
G90 ; use absolute coordinates
M83 ; extruder relative mode
M104 S215 ; set extruder temp
M140 S60 ; set bed temp
M190 S60 ; wait for bed temp
M109 S215 ; wait for extruder temp
G28 W ; home all without mesh bed level
G80 X110.879 Y76.1229 W28.2415 H57.7542 ; mesh bed levelling

G1 Z0.2 F720
G1 Y-3 F1000 ; go outside print area
G92 E0
G1 X60 E9 F1000 ; intro line
G1 X100 E12.5 F1000 ; intro line

G92 E0
M221 S95

; Don't change E values below. Excessive value can damage the printer.
M907 E430 ; set extruder motor current
G21 ; set units to millimeters
G90 ; use absolute coordinates
M83 ; use relative distances for extrusion

M900 K0.05 ; Filament gcode LA 1.5
M900 K30 ; Filament gcode LA 1.0




M107
;LAYER_CHANGE
;Z:0.2
;HEIGHT:0.2
G1 E-.8 F2100
G1 Z.6 F720
G1 X111.84 Y78.089 F10800
G1 Z.2 F720
G1 E.8 F2100
M204 S800
;TYPE:Skirt/Brim
;WIDTH:0.42
G1 F1200
G1 X112.462 Y77.389 E.02936
G1 X112.845 Y77.083 E.01537
G1 X113.666 Y76.632 E.02937
G1 X114.566 Y76.375 E.02935
G1 X115.256 Y76.311 E.02173
G1 X127.501 Y76.325 E.38393
G1 X128.424 Y76.484 E.02937
G1 X129.288 Y76.845 E.02936
G1 X129.668 Y77.083 E.01406
G1 X130.051 Y77.389 E.01537
G1 X130.673 Y78.089 E.02936
G1 X131.124 Y78.909 E.02934
G1 X138.571 Y102.344 E.771
G1 X138.816 Y103.443 E.0353
G1 X138.932 Y104.564 E.03534
G1 X138.917 Y105.69 E.03531
G1 X138.772 Y106.807 E.03532
M73 P0 R40
G1 X138.527 Y107.814 E.03249
G1 X131.292 Y130.607 E.7498
G1 X130.911 Y131.532 E.03137
G1 X130.368 Y132.295 E.02936
G1 X130.051 Y132.611 E.01403
G1 X129.288 Y133.155 E.02938
G1 X128.424 Y133.516 E.02936
G1 X127.501 Y133.675 E.02937
G1 X115.256 Y133.689 E.38393
G1 X114.088 Y133.516 E.03702
G1 X113.224 Y133.155 E.02936
G1 X112.845 Y132.917 E.01403
G1 X112.445 Y132.595 E.0161
G1 X111.84 Y131.911 E.02863
G1 X111.389 Y131.091 E.02934
G1 X111.241 Y130.668 E.01405
G1 X111.068 Y129.505 E.03687
G1 X111.068 Y80.5 E1.53652
G1 X111.241 Y79.332 E.03702
G1 X111.601 Y78.468 E.02935
G1 X111.808 Y78.139 E.01219
M204 S1000
;WIPE_START
G1 F8640
G1 X111.84 Y78.089 E-.01371
G1 X112.462 Y77.389 E-.21622
G1 X112.845 Y77.083 E-.1132
G1 X113.666 Y76.632 E-.21629
G1 X114.566 Y76.375 E-.21612
G1 X114.672 Y76.365 E-.02446
;WIPE_END
G1 Z.6 F720
; printing object LinkageCurvedLimiter v2.stl id:0 copy 0
G1 X123.104 Y129.964 F10800
G1 Z.2 F720
G1 E.8 F2100
M204 S800
;TYPE:External perimeter
;WIDTH:0.419999
G1 F1200
G1 X122.81 Y129.547 E.016
G1 X122.616 Y129.051 E.0167
G1 X122.546 Y128.523 E.0167
G1 X122.605 Y127.993 E.01672
G1 X122.789 Y127.493 E.0167
G1 X123.087 Y127.051 E.01671
G1 X123.482 Y126.694 E.01669
G1 X123.951 Y126.441 E.01671
G1 X124.066 Y126.408 E.00375
G1 X124.512 Y126.303 E.01437
G1 X125.045 Y126.309 E.01671
G1 X125.561 Y126.441 E.0167
G1 X126.031 Y126.694 E.01674
G1 X126.426 Y127.051 E.01669
G1 X126.724 Y127.493 E.01671
G1 X126.908 Y127.993 E.0167
G1 X126.968 Y128.5 E.01601
G1 X126.908 Y129.007 E.01601
G1 X126.733 Y129.483 E.0159
G1 X126.426 Y129.949 E.0175
G1 X126.031 Y130.306 E.01669
G1 X125.561 Y130.559 E.01674
;WIDTH:0.430211
G1 X125.047 Y130.696 E.01713
G1 X124.513 Y130.701 E.0172
;WIDTH:0.428022
G1 X123.994 Y130.575 E.0171
;WIDTH:0.419999
G1 X123.519 Y130.332 E.01673
G1 X123.145 Y130.007 E.01554
M204 S1000
;WIPE_START
G1 F8640
G1 X123.104 Y129.964 E-.01372
G1 X122.81 Y129.547 E-.11781
G1 X122.616 Y129.051 E-.12298
G1 X122.546 Y128.523 E-.12298
G1 X122.605 Y127.993 E-.12313
G1 X122.789 Y127.493 E-.12302
G1 X123.087 Y127.051 E-.12309
G1 X123.258 Y126.896 E-.05327
;WIPE_END
G1 Z.6 F720
G1 X118.539 Y130.564 F10800
G1 Z.2 F720
G1 E.8 F2100
M204 S800
G1 F1200
G1 X118.519 Y130.575 E.00072
;WIDTH:0.43094
G1 X118.034 Y130.699 E.01615
G1 X117.512 Y130.701 E.01684
;WIDTH:0.428022
G1 X116.994 Y130.575 E.01707
;WIDTH:0.419999
G1 X116.519 Y130.332 E.01673
G1 X116.117 Y129.983 E.01669
G1 X115.81 Y129.547 E.01672
G1 X115.62 Y129.062 E.01633
G1 X115.546 Y128.523 E.01706
G1 X115.605 Y127.993 E.01672
G1 X115.789 Y127.493 E.0167
G1 X116.087 Y127.051 E.01671
G1 X116.482 Y126.694 E.01669
G1 X116.951 Y126.441 E.01671
G1 X117.467 Y126.309 E.0167
G1 X118 Y126.303 E.01671
G1 X118.519 Y126.425 E.01672
G1 X118.993 Y126.668 E.0167
G1 X119.396 Y127.017 E.01672
G1 X119.703 Y127.453 E.01672
G1 X119.897 Y127.949 E.0167
G1 X119.967 Y128.477 E.0167
G1 X119.897 Y129.051 E.01813
G1 X119.703 Y129.547 E.0167
G1 X119.396 Y129.983 E.01672
G1 X118.993 Y130.332 E.01672
G1 X118.593 Y130.537 E.01409
M204 S1000
;WIPE_START
G1 F8640
G1 X118.539 Y130.564 E-.01394
G1 X118.519 Y130.575 E-.00527
G1 X118.034 Y130.699 E-.11559
G1 X117.512 Y130.701 E-.12053
G1 X116.994 Y130.575 E-.1231
G1 X116.519 Y130.332 E-.1232
G1 X116.117 Y129.983 E-.12292
G1 X115.81 Y129.547 E-.12313
G1 X115.727 Y129.336 E-.05232
;WIPE_END
G1 Z.6 F720
G1 X116.502 Y79.683 F10800
G1 Z.2 F720
G1 E.8 F2100
M204 S800
G1 F1200
G1 X116.951 Y79.441 E.01599
;WIDTH:0.430212
G1 X117.466 Y79.304 E.01716
G1 X118 Y79.299 E.0172
;WIDTH:0.428023
G1 X118.519 Y79.425 E.0171
;WIDTH:0.419999
G1 X118.993 Y79.668 E.0167
G1 X119.396 Y80.017 E.01672
G1 X119.703 Y80.453 E.01672
G1 X119.897 Y80.949 E.0167
G1 X119.967 Y81.477 E.0167
G1 X119.908 Y82.007 E.01672
G1 X119.724 Y82.507 E.0167
G1 X119.426 Y82.949 E.01671
G1 X119.031 Y83.306 E.01669
G1 X118.561 Y83.559 E.01674
G1 X118.045 Y83.691 E.0167
G1 X117.512 Y83.697 E.01671
G1 X116.994 Y83.575 E.01669
G1 X116.519 Y83.332 E.01673
G1 X116.117 Y82.983 E.01669
G1 X115.81 Y82.547 E.01672
G1 X115.616 Y82.051 E.0167
G1 X115.546 Y81.477 E.01813
G1 X115.616 Y80.949 E.0167
G1 X115.795 Y80.478 E.0158
G1 X116.087 Y80.051 E.01622
G1 X116.455 Y79.719 E.01554
M204 S1000
;WIPE_START
G1 F8640
G1 X116.502 Y79.683 E-.01367
G1 X116.951 Y79.441 E-.11778
G1 X117.466 Y79.304 E-.12305
G1 X118 Y79.299 E-.12331
G1 X118.519 Y79.425 E-.12332
G1 X118.993 Y79.668 E-.12299
G1 X119.396 Y80.017 E-.1231
G1 X119.528 Y80.204 E-.05278
;WIPE_END
G1 Z.6 F720
G1 X123.502 Y83.317 F10800
G1 Z.2 F720
G1 E.8 F2100
M204 S800
G1 F1200
G1 X123.117 Y82.983 E.01598
G1 X122.81 Y82.547 E.01672
G1 X122.616 Y82.051 E.0167
G1 X122.546 Y81.523 E.0167
G1 X122.605 Y80.993 E.01672
G1 X122.789 Y80.493 E.0167
G1 X123.087 Y80.051 E.01671
G1 X123.482 Y79.694 E.01669
G1 X123.994 Y79.425 E.01813
;WIDTH:0.430941
G1 X124.479 Y79.301 E.01615
G1 X125 Y79.299 E.01681
;WIDTH:0.428023
G1 X125.519 Y79.425 E.0171
;WIDTH:0.419999
G1 X125.993 Y79.668 E.0167
G1 X126.396 Y80.017 E.01672
G1 X126.703 Y80.453 E.01672
G1 X126.893 Y80.938 E.01633
G1 X126.967 Y81.477 E.01706
G1 X126.908 Y82.007 E.01672
G1 X126.724 Y82.507 E.0167
G1 X126.426 Y82.949 E.01671
G1 X126.031 Y83.306 E.01669
G1 X125.561 Y83.559 E.01674
G1 X125.045 Y83.691 E.0167
G1 X124.513 Y83.697 E.01668
G1 X123.994 Y83.575 E.01672
G1 X123.552 Y83.349 E.01557
M204 S1000
;WIPE_START
G1 F8640
G1 X123.502 Y83.317 E-.01371
G1 X123.117 Y82.983 E-.11769
G1 X122.81 Y82.547 E-.12313
G1 X122.616 Y82.051 E-.12298
G1 X122.546 Y81.523 E-.12298
G1 X122.605 Y80.993 E-.12313
G1 X122.789 Y80.493 E-.12302
G1 X122.918 Y80.302 E-.05336
;WIPE_END
G1 Z.6 F720
G1 X121.164 Y107.415 F10800
G1 Z.2 F720
G1 E.8 F2100
M204 S800
;TYPE:Perimeter
G1 F1200
G1 X121.276 Y107.04 E.01227
G1 X121.423 Y106.407 E.02038
G1 X121.527 Y105.515 E.02816
G1 X121.531 Y105 E.01615
G1 X121.521 Y104.431 E.01784
G1 X121.411 Y103.528 E.02852
G1 X121.274 Y102.951 E.01859
G1 X121.063 Y102.257 E.02274
G1 X120.852 Y101.687 E.01906
G1 X120.416 Y100.828 E.0302
G1 X119.883 Y100.024 E.03025
G1 X119.303 Y99.334 E.02826
G1 X118.412 Y98.322 E.04228
G1 X117.61 Y97.275 E.04135
G1 X116.87 Y96.155 E.04209
G1 X116.232 Y95.029 E.04058
G1 X115.661 Y93.84 E.04136
G1 X115.165 Y92.592 E.04211
G1 X114.771 Y91.359 E.04059
G1 X114.45 Y90.055 E.04211
G1 X114.225 Y88.761 E.04118
G1 X114.089 Y87.444 E.04151
G1 X114.043 Y86.114 E.04173
G1 X114.043 Y80.592 E.17314
G1 X114.103 Y80.161 E.01364
G1 X114.273 Y79.809 E.01226
G1 X114.503 Y79.556 E.01072
G1 X114.84 Y79.374 E.01201
G1 X115.301 Y79.287 E.01471
G1 X116.434 Y79.287 E.03552
G1 X116.232 Y79.412 E.00745
G1 X115.777 Y79.837 E.01952
G1 X115.427 Y80.383 E.02033
G1 X115.231 Y80.948 E.01875
G1 X115.172 Y81.568 E.01953
G1 X115.263 Y82.185 E.01955
G1 X115.499 Y82.761 E.01952
G1 X115.867 Y83.265 E.01957
G1 X116.344 Y83.666 E.01954
G1 X116.904 Y83.941 E.01956
G1 X117.472 Y84.073 E.01828
G1 X118 Y84.074 E.01656
G1 X118.24 Y84.032 E.00764
G1 X118.737 Y83.892 E.01619
G1 X119.281 Y83.588 E.01954
G1 X119.736 Y83.163 E.01952
G1 X120.077 Y82.641 E.01955
G1 X120.282 Y82.052 E.01955
G1 X120.343 Y81.549 E.01589
G1 X120.282 Y80.948 E.01894
G1 X120.077 Y80.359 E.01955
G1 X119.736 Y79.837 E.01955
G1 X119.281 Y79.412 E.01952
G1 X119.079 Y79.287 E.00745
G1 X123.434 Y79.287 E.13655
G1 X123.232 Y79.412 E.00745
G1 X122.777 Y79.837 E.01952
G1 X122.436 Y80.359 E.01955
G1 X122.231 Y80.948 E.01955
G1 X122.172 Y81.568 E.01953
G1 X122.263 Y82.185 E.01955
G1 X122.5 Y82.761 E.01953
G1 X122.867 Y83.265 E.01955
G1 X123.296 Y83.637 E.0178
G1 X123.776 Y83.892 E.01704
G1 X123.971 Y83.958 E.00645
G1 X124.513 Y84.074 E.01738
G1 X125.136 Y84.058 E.01954
G1 X125.737 Y83.892 E.01955
G1 X126.281 Y83.588 E.01954
G1 X126.736 Y83.163 E.01952
G1 X127.077 Y82.641 E.01955
G1 X127.282 Y82.052 E.01955
G1 X127.341 Y81.432 E.01953
G1 X127.245 Y80.804 E.01992
G1 X127.026 Y80.258 E.01845
G1 X126.736 Y79.837 E.01603
G1 X126.281 Y79.412 E.01952
G1 X126.079 Y79.287 E.00745
G1 X127.212 Y79.287 E.03552
G1 X127.673 Y79.374 E.01471
G1 X128.009 Y79.556 E.01198
G1 X128.24 Y79.809 E.01074
G1 X128.41 Y80.161 E.01226
G1 X128.469 Y80.544 E.01215
G1 X128.469 Y85.544 E.15677
G1 X128.52 Y87.57 E.06354
G1 X128.669 Y88.995 E.04492
G1 X128.822 Y89.879 E.02813
G1 X128.912 Y90.388 E.01621
G1 X129.264 Y91.816 E.04611
G1 X129.688 Y93.136 E.04347
G1 X130.23 Y94.496 E.0459
G1 X130.848 Y95.78 E.04468
M73 Q1 S41
G1 X131.095 Y96.215 E.01568
G1 X131.729 Y97.283 E.03894
G1 X132.417 Y98.306 E.03865
G1 X133.182 Y99.303 E.0394
G1 X134.642 Y100.995 E.07007
M73 P1 R40
G1 X134.867 Y101.338 E.01286
G1 X135.247 Y102 E.02393
G1 X135.554 Y102.712 E.02431
G1 X135.777 Y103.457 E.02438
G1 X135.911 Y104.224 E.02441
G1 X135.957 Y104.998 E.02431
G1 X135.957 Y105.39 E.01229
G1 X135.866 Y106.166 E.0245
G1 X135.686 Y106.925 E.02446
G1 X135.419 Y107.659 E.02449
G1 X135.068 Y108.356 E.02447
G1 X134.642 Y109.005 E.02434
G1 X133.217 Y110.655 E.06836
G1 X132.904 Y111.057 E.01597
G1 X132.145 Y112.086 E.04009
G1 X131.533 Y113.013 E.03483
G1 X130.832 Y114.251 E.04461
G1 X130.214 Y115.539 E.04479
G1 X129.675 Y116.9 E.0459
G1 X129.246 Y118.248 E.04435
G1 X128.913 Y119.607 E.04387
G1 X128.662 Y121.05 E.04592
G1 X128.515 Y122.531 E.04666
G1 X128.469 Y123.86 E.04169
G1 X128.469 Y129.408 E.17395
G1 X128.41 Y129.839 E.01364
G1 X128.24 Y130.191 E.01226
G1 X128.009 Y130.444 E.01074
G1 X127.673 Y130.626 E.01198
G1 X127.212 Y130.713 E.01471
G1 X126.079 Y130.713 E.03552
G1 X126.281 Y130.588 E.00745
G1 X126.736 Y130.163 E.01952
G1 X127.086 Y129.617 E.02033
G1 X127.282 Y129.052 E.01875
G1 X127.341 Y128.432 E.01953
G1 X127.25 Y127.815 E.01955
G1 X127.013 Y127.239 E.01953
G1 X126.646 Y126.735 E.01955
G1 X126.168 Y126.334 E.01956
G1 X125.553 Y126.045 E.02131
G1 X124.937 Y125.926 E.01967
G1 X124.377 Y125.942 E.01757
G1 X123.776 Y126.108 E.01955
G1 X123.232 Y126.412 E.01954
G1 X122.777 Y126.837 E.01952
G1 X122.436 Y127.359 E.01955
G1 X122.231 Y127.948 E.01955
G1 X122.17 Y128.549 E.01894
G1 X122.231 Y129.052 E.01589
G1 X122.436 Y129.641 E.01955
G1 X122.777 Y130.163 E.01955
G1 X123.232 Y130.588 E.01952
G1 X123.434 Y130.713 E.00745
G1 X119.079 Y130.713 E.13655
G1 X119.281 Y130.588 E.00745
G1 X119.736 Y130.163 E.01952
G1 X120.077 Y129.641 E.01955
G1 X120.282 Y129.052 E.01955
G1 X120.341 Y128.432 E.01953
G1 X120.249 Y127.815 E.01956
G1 X120.013 Y127.239 E.01952
G1 X119.646 Y126.735 E.01955
G1 X119.168 Y126.334 E.01956
G1 X118.609 Y126.059 E.01953
G1 X118 Y125.926 E.01954
G1 X117.377 Y125.942 E.01954
G1 X116.776 Y126.108 E.01955
G1 X116.232 Y126.412 E.01954
G1 X115.777 Y126.837 E.01952
G1 X115.436 Y127.359 E.01955
G1 X115.231 Y127.948 E.01955
G1 X115.172 Y128.568 E.01953
G1 X115.267 Y129.196 E.01991
G1 X115.486 Y129.742 E.01845
G1 X115.777 Y130.163 E.01605
G1 X116.232 Y130.588 E.01952
G1 X116.434 Y130.713 E.00745
G1 X115.301 Y130.713 E.03552
G1 X114.84 Y130.626 E.01471
G1 X114.503 Y130.444 E.01201
G1 X114.273 Y130.191 E.01072
G1 X114.103 Y129.839 E.01226
G1 X114.043 Y129.456 E.01216
G1 X114.043 Y123.886 E.17464
G1 X114.089 Y122.558 E.04166
G1 X114.225 Y121.239 E.04158
G1 X114.453 Y119.933 E.04157
G1 X114.766 Y118.656 E.04122
G1 X115.165 Y117.407 E.04111
G1 X115.652 Y116.181 E.04136
G1 X116.232 Y114.971 E.04207
G1 X116.882 Y113.824 E.04134
G1 X117.61 Y112.725 E.04133
G1 X117.936 Y112.299 E.01682
G1 X118.557 Y111.513 E.03141
G1 X119.312 Y110.656 E.03581
G1 X119.921 Y109.924 E.02986
G1 X120.416 Y109.172 E.02823
G1 X120.629 Y108.756 E.01465
G1 X120.878 Y108.253 E.0176
G1 X121.079 Y107.699 E.01848
G1 X121.147 Y107.472 E.00743
M204 S1000
G1 X121.147 Y107.472 F10800
G1 X120.81 Y107.286
M204 S800
;TYPE:External perimeter
G1 F1200
G1 X120.91 Y106.953 E.0109
G1 X121.048 Y106.363 E.019
G1 X121.146 Y105.525 E.02645
G1 X121.154 Y105 E.01646
G1 X121.146 Y104.475 E.01646
G1 X121.044 Y103.615 E.02715
G1 X120.907 Y103.038 E.01859
G1 X120.709 Y102.386 E.02136
G1 X120.515 Y101.856 E.0177
G1 X120.101 Y101.035 E.02883
G1 X119.594 Y100.267 E.02885
G1 X119.02 Y99.583 E.028
G1 X118.12 Y98.562 E.04267
G1 X117.303 Y97.494 E.04216
G1 X116.548 Y96.352 E.04292
G1 X115.897 Y95.204 E.04138
G1 X115.315 Y93.992 E.04216
G1 X114.81 Y92.72 E.04291
G1 X114.408 Y91.461 E.04144
G1 X114.081 Y90.133 E.04288
G1 X113.852 Y88.813 E.04201
G1 X113.713 Y87.47 E.04233
G1 X113.666 Y86.12 E.04235
G1 X113.666 Y80.876 E.16442
G1 X113.696 Y80.263 E.01924
G1 X113.788 Y79.922 E.01107
G1 X113.954 Y79.608 E.01114
G1 X114.187 Y79.339 E.01116
G1 X114.476 Y79.128 E.01122
G1 X114.806 Y78.987 E.01125
G1 X115.279 Y78.91 E.01503
G1 X116.931 Y78.91 E.0518
;WIDTH:0.430941
G1 X118 Y78.914 E.03449
;WIDTH:0.428023
G1 X118.581 Y78.91 E.0186
;WIDTH:0.419999
G1 X123.931 Y78.91 E.16775
;WIDTH:0.430941
G1 X125 Y78.914 E.03449
;WIDTH:0.428023
G1 X125.581 Y78.91 E.0186
;WIDTH:0.419999
G1 X126.816 Y78.91 E.03872
G1 X127.507 Y78.941 E.02169
G1 X127.797 Y79.018 E.00941
G1 X128.151 Y79.199 E.01247
G1 X128.398 Y79.411 E.01021
G1 X128.624 Y79.712 E.0118
G1 X128.765 Y80.037 E.01111
G1 X128.846 Y80.523 E.01545
G1 X128.846 Y85.544 E.15743
G1 X128.895 Y87.531 E.06232
G1 X129.113 Y89.354 E.05757
G1 X129.278 Y90.298 E.03005
G1 X129.623 Y91.701 E.0453
G1 X130.038 Y92.997 E.04267
G1 X130.57 Y94.333 E.04509
G1 X131.176 Y95.594 E.04387
G1 X131.423 Y96.029 E.01568
G1 X132.044 Y97.075 E.03814
G1 X132.717 Y98.077 E.03785
G1 X133.467 Y99.057 E.03869
G1 X134.943 Y100.767 E.07083
G1 X135.182 Y101.13 E.01363
G1 X135.584 Y101.831 E.02534
G1 X135.908 Y102.583 E.02567
G1 X136.143 Y103.37 E.02575
G1 X136.286 Y104.18 E.02579
G1 X136.334 Y104.998 E.02569
G1 X136.334 Y105.412 E.01298
G1 X136.238 Y106.231 E.02585
G1 X136.048 Y107.034 E.02587
G1 X135.766 Y107.808 E.02583
G1 X135.396 Y108.545 E.02586
G1 X134.943 Y109.233 E.02583
G1 X134.064 Y110.251 E.04217
G1 X133.204 Y111.286 E.04219
G1 X132.46 Y112.294 E.03928
G1 X131.861 Y113.2 E.03405
G1 X131.172 Y114.414 E.04377
G1 X130.565 Y115.679 E.04399
