; generated by PrusaSlicer 2.7.4+win64 on 2024-08-05 at 23:59:15 UTC


;
;
; 

; external perimeters extrusion width = 0.45mm
; perimeters extrusion width = 0.45mm
; infill extrusion width = 0.45mm
; solid infill extrusion width = 0.45mm
; top infill extrusion width = 0.40mm
; support material extrusion width = 0.35mm
; first layer extrusion width = 0.42mm

; external perimeters extrusion width = 0.45mm
; perimeters extrusion width = 0.45mm
; infill extrusion width = 0.45mm
; solid infill extrusion width = 0.45mm
; top infill extrusion width = 0.40mm
; support material extrusion width = 0.35mm
; first layer extrusion width = 0.42mm

; external perimeters extrusion width = 0.45mm
; perimeters extrusion width = 0.45mm
; infill extrusion width = 0.45mm
; solid infill extrusion width = 0.45mm
; top infill extrusion width = 0.40mm
; support material extrusion width = 0.35mm
; first layer extrusion width = 0.42mm

; external perimeters extrusion width = 0.45mm
; perimeters extrusion width = 0.45mm
; infill extrusion width = 0.45mm
; solid infill extrusion width = 0.45mm
; top infill extrusion width = 0.40mm
; support material extrusion width = 0.35mm
; first layer extrusion width = 0.42mm

; external perimeters extrusion width = 0.45mm
; perimeters extrusion width = 0.45mm
; infill extrusion width = 0.45mm
; solid infill extrusion width = 0.45mm
; top infill extrusion width = 0.40mm
; support material extrusion width = 0.35mm
; first layer extrusion width = 0.42mm

; external perimeters extrusion width = 0.45mm
; perimeters extrusion width = 0.45mm
; infill extrusion width = 0.45mm
; solid infill extrusion width = 0.45mm
; top infill extrusion width = 0.40mm
; support material extrusion width = 0.35mm
; first layer extrusion width = 0.42mm

; external perimeters extrusion width = 0.45mm
; perimeters extrusion width = 0.45mm
; infill extrusion width = 0.45mm
; solid infill extrusion width = 0.45mm
; top infill extrusion width = 0.40mm
; support material extrusion width = 0.35mm
; first layer extrusion width = 0.42mm

; external perimeters extrusion width = 0.45mm
; perimeters extrusion width = 0.45mm
; infill extrusion width = 0.45mm
; solid infill extrusion width = 0.45mm
; top infill extrusion width = 0.40mm
; support material extrusion width = 0.35mm
; first layer extrusion width = 0.42mm

M73 P0 R16
M73 Q0 S16
M201 X1000 Y1000 Z200 E5000 ; sets maximum accelerations, mm/sec^2
M203 X200 Y200 Z12 E120 ; sets maximum feedrates, mm / sec
M204 S1250 T1250 ; sets acceleration (S) and retract acceleration (R), mm/sec^2
M205 X8.00 Y8.00 Z0.40 E4.50 ; sets the jerk limits, mm/sec
M205 S0 T0 ; sets the minimum extruding and travel feed rate, mm/sec

; printing object nail_ejector_new_1 v18.stl_3 id:2 copy 0
; stop printing object nail_ejector_new_1 v18.stl_3 id:2 copy 0
; printing object nail_ejector_new_1 v18.stl_1 id:0 copy 0
; stop printing object nail_ejector_new_1 v18.stl_1 id:0 copy 0
; printing object nail_ejector_new_1 v18.stl_2 id:1 copy 0
; stop printing object nail_ejector_new_1 v18.stl_2 id:1 copy 0
; printing object nail_ejector_new_1 v18.stl_3 id:7 copy 0
; stop printing object nail_ejector_new_1 v18.stl_3 id:7 copy 0
; printing object nail_ejector_new_1 v18.stl_3 id:5 copy 0
; stop printing object nail_ejector_new_1 v18.stl_3 id:5 copy 0
; printing object nail_ejector_new_1 v18.stl_3 id:6 copy 0
; stop printing object nail_ejector_new_1 v18.stl_3 id:6 copy 0
; printing object nail_ejector_new_1 v18.stl_3 id:3 copy 0
; stop printing object nail_ejector_new_1 v18.stl_3 id:3 copy 0
; printing object nail_ejector_new_1 v18.stl_3 id:4 copy 0
; stop printing object nail_ejector_new_1 v18.stl_3 id:4 copy 0

;TYPE:Custom
M862.3 P "MK3S" ; printer model check
M862.1 P0.4 ; nozzle diameter check
M115 U3.13.3 ; tell printer latest fw version
G90 ; use absolute coordinates
M83 ; extruder relative mode
M104 S215 ; set extruder temp
M140 S60 ; set bed temp
M190 S60 ; wait for bed temp
M109 S215 ; wait for extruder temp
G28 W ; home all without mesh bed level
G80 X106.351 Y87.1185 W37.2978 H38.093 ; mesh bed levelling

G1 Z0.2 F720
G1 Y-3 F1000 ; go outside print area
G92 E0
G1 X60 E9 F1000 ; intro line
G1 X100 E12.5 F1000 ; intro line

G92 E0
M221 S95

; Don't change E values below. Excessive value can damage the printer.
M907 E430 ; set extruder motor current
G21 ; set units to millimeters
G90 ; use absolute coordinates
M83 ; use relative distances for extrusion

M900 K0.05 ; Filament gcode LA 1.5
M900 K30 ; Filament gcode LA 1.0




M107
;LAYER_CHANGE
;Z:0.2
;HEIGHT:0.2
G1 E-.8 F2100
G1 Z.6 F720
G1 X106.932 Y92.451 F10800
G1 Z.2 F720
G1 E.8 F2100
M204 S800
;TYPE:Skirt/Brim
;WIDTH:0.42
G1 F1200
G1 X108.673 Y91.186 E.06748
G1 X125.129 Y87.378 E.5296
G1 X125.749 Y87.307 E.01957
G1 X136.251 Y87.307 E.32928
G1 X137.668 Y87.7 E.04611
G1 X138.729 Y88.859 E.04927
G1 X143.184 Y98.048 E.32019
G1 X143.46 Y99.25 E.03867
G1 X143.46 Y110.75 E.36057
G1 X143.068 Y112.167 E.0461
M73 Q1 S16
G1 X142.288 Y113.004 E.03587
M73 P1 R16
G1 X125.876 Y124.523 E.62868
G1 X124.294 Y125.023 E.05202
G1 X109.294 Y125.023 E.47031
G1 X107.876 Y124.63 E.04614
G1 X106.863 Y123.564 E.04611
G1 X106.54 Y122.269 E.04185
G1 X106.54 Y93.869 E.89046
G1 X106.916 Y92.509 E.04424
M204 S1000
G1 X106.916 Y92.509 F10800
G1 X107.29 Y92.621
M204 S800
G1 F1200
G1 X107.308 Y92.562 E.00193
G1 X108.758 Y91.553 E.05539
G1 X125.214 Y87.745 E.5296
G1 X125.749 Y87.684 E.01688
G1 X136.251 Y87.684 E.32928
G1 X137.558 Y88.076 E.04278
G1 X138.389 Y89.024 E.03953
G1 X142.845 Y98.213 E.3202
G1 X143.083 Y99.25 E.03336
G1 X143.083 Y110.75 E.36057
G1 X142.692 Y112.057 E.04277
G1 X142.072 Y112.696 E.02792
G1 X125.659 Y124.214 E.62869
G1 X124.294 Y124.646 E.04489
G1 X109.294 Y124.646 E.47031
G1 X107.987 Y124.254 E.04278
G1 X107.11 Y123.208 E.0428
G1 X106.917 Y122.269 E.03006
G1 X106.917 Y93.869 E.89046
G1 X107.273 Y92.679 E.03895
M73 Q2 S16
M204 S1000
;WIPE_START
G1 F8640
G1 X107.29 Y92.621 E-.01396
G1 X107.308 Y92.562 E-.01424
G1 X108.758 Y91.553 E-.40789
G1 X110.293 Y91.198 E-.36391
M73 P2 R16
;WIPE_END
G1 Z.6 F720
; printing object nail_ejector_new_1 v18.stl_3 id:4 copy 0
G1 X123.555 Y111.029 F10800
G1 Z.2 F720
G1 E.8 F2100
M204 S800
;TYPE:External perimeter
;WIDTH:0.52146
G1 F1200
G1 X124.033 Y111.029 E.01902
G1 X124.033 Y111.269 E.00955
G1 X124.033 Y122.008 E.42731
G1 X123.555 Y122.008 E.01902
G1 X123.555 Y111.089 E.43448
M204 S1000
;WIPE_START
G1 F8640
G1 X123.555 Y111.029 E-.01385
G1 X124.033 Y111.029 E-.11037
G1 X124.033 Y111.269 E-.05542
G1 X124.033 Y113.956 E-.62036
;WIPE_END
G1 Z.6 F720
; stop printing object nail_ejector_new_1 v18.stl_3 id:4 copy 0
; printing object nail_ejector_new_1 v18.stl_3 id:5 copy 0
G1 X116.555 Y111.029 F10800
G1 Z.2 F720
G1 E.8 F2100
M204 S800
G1 F1200
G1 X117.033 Y111.029 E.01902
G1 X117.033 Y111.269 E.00955
G1 X117.033 Y122.008 E.42731
G1 X116.555 Y122.008 E.01902
G1 X116.555 Y111.089 E.43448
M204 S1000
;WIPE_START
G1 F8640
G1 X116.555 Y111.029 E-.01385
G1 X117.033 Y111.029 E-.11037
G1 X117.033 Y111.269 E-.05542
G1 X117.033 Y113.956 E-.62036
;WIPE_END
G1 Z.6 F720
; stop printing object nail_ejector_new_1 v18.stl_3 id:5 copy 0
; printing object nail_ejector_new_1 v18.stl_3 id:7 copy 0
G1 X109.555 Y111.029 F10800
G1 Z.2 F720
G1 E.8 F2100
M204 S800
G1 F1200
G1 X110.033 Y111.029 E.01902
G1 X110.033 Y111.269 E.00955
G1 X110.033 Y122.008 E.42731
G1 X109.555 Y122.008 E.01902
G1 X109.555 Y111.089 E.43448
M204 S1000
;WIPE_START
G1 F8640
G1 X109.555 Y111.029 E-.01385
G1 X110.033 Y111.029 E-.11037
G1 X110.033 Y111.269 E-.05542
G1 X110.033 Y113.956 E-.62036
;WIPE_END
G1 Z.6 F720
; stop printing object nail_ejector_new_1 v18.stl_3 id:7 copy 0
; printing object nail_ejector_new_1 v18.stl_3 id:3 copy 0
G1 X109.555 Y94.129 F10800
G1 Z.2 F720
G1 E.8 F2100
M204 S800
G1 F1200
G1 X110.033 Y94.129 E.01902
G1 X110.033 Y94.369 E.00955
G1 X110.033 Y105.108 E.42731
G1 X109.555 Y105.108 E.01902
G1 X109.555 Y94.189 E.43448
M204 S1000
;WIPE_START
G1 F8640
G1 X109.555 Y94.129 E-.01385
G1 X110.033 Y94.129 E-.11037
G1 X110.033 Y94.369 E-.05542
G1 X110.033 Y97.056 E-.62036
;WIPE_END
G1 Z.6 F720
; stop printing object nail_ejector_new_1 v18.stl_3 id:3 copy 0
; printing object nail_ejector_new_1 v18.stl_3 id:2 copy 0
G1 X116.555 Y94.13 F10800
G1 Z.2 F720
G1 E.8 F2100
M204 S800
G1 F1200
G1 X117.033 Y94.13 E.01902
G1 X117.033 Y94.369 E.00951
G1 X117.033 Y105.108 E.42731
G1 X116.555 Y105.108 E.01902
G1 X116.555 Y94.19 E.43444
M204 S1000
;WIPE_START
G1 F8640
G1 X116.555 Y94.13 E-.01362
G1 X117.033 Y94.13 E-.11037
G1 X117.033 Y94.369 E-.05519
G1 X117.033 Y97.058 E-.62082
;WIPE_END
G1 Z.6 F720
; stop printing object nail_ejector_new_1 v18.stl_3 id:2 copy 0
; printing object nail_ejector_new_1 v18.stl_3 id:6 copy 0
G1 X123.554 Y94.129 F10800
G1 Z.2 F720
G1 E.8 F2100
M204 S800
G1 F1200
G1 X124.033 Y94.129 E.01906
G1 X124.033 Y94.369 E.00955
G1 X124.033 Y105.108 E.42731
G1 X123.554 Y105.108 E.01906
G1 X123.554 Y94.189 E.43448
M204 S1000
;WIPE_START
G1 F8640
M73 P3 R16
M73 Q3 S16
G1 X123.554 Y94.129 E-.01385
G1 X124.033 Y94.129 E-.1106
G1 X124.033 Y94.369 E-.05542
G1 X124.033 Y97.055 E-.62013
;WIPE_END
G1 Z.6 F720
; stop printing object nail_ejector_new_1 v18.stl_3 id:6 copy 0
; printing object nail_ejector_new_1 v18.stl_1 id:0 copy 0
G1 X128.818 Y106.54 F10800
G1 Z.2 F720
G1 E.8 F2100
M204 S800
;TYPE:Support material interface
;WIDTH:0.35
G1 F1200
G1 X128.693 Y106.54 E.00319
G1 X128.693 Y108.847 E.05891
G1 X128.972 Y108.847 E.00712
G1 X128.972 Y106.54 E.05891
G1 X129.479 Y106.54 E.01295
G1 X129.479 Y108.847 E.05891
G1 X129.986 Y108.847 E.01295
G1 X129.986 Y106.711 E.05454
G1 X130.118 Y106.844 E.00478
G1 X130.493 Y106.844 E.00958
G1 X130.493 Y108.847 E.05114
G1 X131 Y108.847 E.01295
G1 X131 Y106.844 E.05114
G1 X131.507 Y106.844 E.01295
G1 X131.507 Y108.847 E.05114
G1 X132.014 Y108.847 E.01295
G1 X132.014 Y106.711 E.05454
G1 X132.13 Y106.54 E.00528
G1 X132.521 Y106.54 E.00998
G1 X132.521 Y108.847 E.05891
G1 X133.028 Y108.847 E.01295
G1 X133.028 Y106.54 E.05891
G1 X133.307 Y106.54 E.00712
G1 X133.307 Y108.847 E.05891
G1 X133.182 Y108.847 E.00319
M204 S1000
;WIPE_START
G1 F8640
G1 X133.307 Y108.847 E-.02886
G1 X133.307 Y106.54 E-.53269
G1 X133.028 Y106.54 E-.06442
G1 X133.028 Y107.294 E-.17403
;WIPE_END
G1 Z.6 F720
G1 X131.731 Y106.48 F10800
G1 Z.2 F720
G1 E.8 F2100
M204 S800
;TYPE:Support material
;WIDTH:0.42
G1 F1200
G1 X130.26 Y106.471 E.04612
G1 X131.696 Y106.471 E.04502
M204 S1000
;WIPE_START
G1 F8640
G1 X130.26 Y106.471 E-.33158
G1 X131.731 Y106.48 E-.33966
;WIPE_END
G1 E-.12876 F2100
G1 Z.6 F720
G1 X136.251 Y109.176 F10800
G1 Z.2 F720
G1 E.8 F2100
M204 S800
G1 F1200
G1 X133.671 Y109.176 E.08089
G1 X133.671 Y106.176 E.09406
G1 X132.186 Y106.176 E.04656
G1 X132.186 Y93.061 E.41121
G1 X133.671 Y93.061 E.04656
G1 X133.671 Y90.061 E.09406
G1 X136.251 Y90.061 E.08089
G1 X136.251 Y109.12 E.59758
M204 S1000
G1 X136.251 Y109.12 F10800
G1 X135.609 Y109.007
M204 S800
G1 F1200
G1 X135.609 Y90.401 E.58338
G1 X135.19 Y90.401 E.01314
G1 X135.19 Y108.837 E.57805
G1 X134.771 Y108.837 E.01314
G1 X134.771 Y90.401 E.57805
G1 X134.352 Y90.401 E.01314
G1 X134.352 Y108.837 E.57805
G1 X134.01 Y108.837 E.01072
G1 X134.01 Y105.837 E.09406
G1 X133.933 Y105.837 E.00241
G1 X133.933 Y93.401 E.38992
G1 X133.514 Y93.401 E.01314
M73 P4 R16
M73 Q4 S16
G1 X133.514 Y105.837 E.38992
G1 X133.095 Y105.837 E.01314
G1 X133.095 Y93.401 E.38992
G1 X132.676 Y93.401 E.01314
G1 X132.676 Y106.007 E.39525
M204 S1000
;WIPE_START
G1 F8640
G1 X132.676 Y102.542 E-.8
;WIPE_END
G1 Z.6 F720
G1 X131.74 Y92.766 F10800
G1 Z.2 F720
G1 E.8 F2100
M204 S800
G1 F1200
G1 X130.26 Y92.766 E.0464
G1 X131.687 Y92.757 E.04474
M204 S1000
;WIPE_START
G1 F8640
G1 X130.26 Y92.766 E-.3295
G1 X131.74 Y92.766 E-.34174
;WIPE_END
G1 E-.12876 F2100
G1 Z.6 F720
G1 X133.182 Y92.698 F10800
G1 Z.2 F720
G1 E.8 F2100
M204 S800
;TYPE:Support material interface
;WIDTH:0.35
G1 F1200
G1 X133.307 Y92.698 E.00319
G1 X133.307 Y90.39 E.05893
G1 X133.028 Y90.39 E.00712
G1 X133.028 Y92.698 E.05893
G1 X132.521 Y92.698 E.01295
G1 X132.521 Y90.39 E.05893
G1 X132.014 Y90.39 E.01295
G1 X132.014 Y92.526 E.05454
M73 P4 R15
G1 X131.882 Y92.394 E.00477
G1 X131.507 Y92.394 E.00958
G1 X131.507 Y90.39 E.05117
G1 X131 Y90.39 E.01295
G1 X131 Y92.394 E.05117
G1 X130.493 Y92.394 E.01295
G1 X130.493 Y90.39 E.05117
G1 X129.986 Y90.39 E.01295
G1 X129.986 Y92.526 E.05454
G1 X129.87 Y92.698 E.0053
G1 X129.479 Y92.698 E.00998
G1 X129.479 Y90.39 E.05893
G1 X128.972 Y90.39 E.01295
G1 X128.972 Y92.698 E.05893
G1 X128.693 Y92.698 E.00712
G1 X128.693 Y90.39 E.05893
G1 X128.818 Y90.39 E.00319
M204 S1000
;WIPE_START
G1 F8640
G1 X128.693 Y90.39 E-.02886
G1 X128.693 Y92.698 E-.53292
G1 X128.972 Y92.698 E-.06442
G1 X128.972 Y91.945 E-.1738
;WIPE_END
G1 Z.6 F720
G1 X128.329 Y93.061 F10800
G1 Z.2 F720
G1 E.8 F2100
M204 S800
;TYPE:Support material
;WIDTH:0.42
G1 F1200
G1 X129.814 Y93.061 E.04656
G1 X129.814 Y106.176 E.41121
G1 X128.329 Y106.176 E.04656
G1 X128.329 Y109.176 E.09406
G1 X125.749 Y109.176 E.08089
G1 X125.749 Y90.061 E.59934
G1 X128.329 Y90.061 E.08089
G1 X128.329 Y93.005 E.09231
M204 S1000
G1 X128.329 Y93.005 F10800
G1 X129.324 Y106.007
M204 S800
G1 F1200
G1 X129.324 Y93.401 E.39525
G1 X128.905 Y93.401 E.01314
G1 X128.905 Y105.837 E.38992
G1 X128.486 Y105.837 E.01314
G1 X128.486 Y93.401 E.38992
G1 X128.067 Y93.401 E.01314
M73 Q5 S16
G1 X128.067 Y105.837 E.38992
M73 P5 R15
G1 X127.99 Y105.837 E.00241
M73 Q5 S15
G1 X127.99 Y108.837 E.09406
G1 X127.648 Y108.837 E.01072
G1 X127.648 Y90.401 E.57805
G1 X127.229 Y90.401 E.01314
G1 X127.229 Y108.837 E.57805
G1 X126.81 Y108.837 E.01314
G1 X126.81 Y90.401 E.57805
G1 X126.391 Y90.401 E.01314
G1 X126.391 Y109.007 E.58338
M204 S1000
;WIPE_START
G1 F8640
G1 X126.391 Y105.542 E-.8
;WIPE_END
G1 Z.6 F720
G1 X131.242 Y105.528 F10800
G1 Z.2 F720
G1 E.8 F2100
M204 S800
;TYPE:External perimeter
;WIDTH:0.527674
G1 F1200
G1 X130.758 Y105.528 E.01951
G1 X130.758 Y93.71 E.47635
G1 X131.242 Y93.71 E.01951
G1 X131.242 Y93.952 E.00975
G1 X131.242 Y105.468 E.46418
M204 S1000
;WIPE_START
G1 F8640
G1 X131.242 Y105.528 E-.01385
G1 X130.758 Y105.528 E-.11176
G1 X130.758 Y102.607 E-.67439
;WIPE_END
G1 Z.6 F720
; stop printing object nail_ejector_new_1 v18.stl_1 id:0 copy 0
; printing object nail_ejector_new_1 v18.stl_2 id:1 copy 0
G1 X138.493 Y109.963 F10800
G1 Z.2 F720
G1 E.8 F2100
M204 S800
;TYPE:Perimeter
;WIDTH:0.419999
G1 F1200
G1 X138.493 Y100.037 E.31122
G1 X139.919 Y100.037 E.04471
G1 X139.919 Y100.75 E.02236
G1 X139.919 Y109.963 E.28887
G1 X138.553 Y109.963 E.04283
M204 S1000
G1 X138.553 Y109.963 F10800
G1 X138.116 Y110.34
M204 S800
;TYPE:External perimeter
G1 F1200
G1 X138.116 Y99.66 E.33486
G1 X140.296 Y99.66 E.06835
G1 X140.296 Y100.75 E.03418
G1 X140.296 Y110.34 E.30069
G1 X138.176 Y110.34 E.06647
M204 S1000
;WIPE_START
G1 F8640
G1 X138.116 Y110.34 E-.01385
G1 X138.116 Y106.935 E-.78615
;WIPE_END
G1 Z.6 F720
G1 X139.749 Y100.975 F10800
G1 Z.2 F720
G1 E.8 F2100
M204 S800
;TYPE:Solid infill
;WIDTH:0.422931
G1 F1200
G1 X139.151 Y100.376 E.02674
G1 X138.833 Y100.376 E.01005
G1 X138.833 Y100.596 E.00695
G1 X139.58 Y101.343 E.03338
G1 X139.58 Y101.88 E.01697
M73 Q6 S15
G1 X138.833 Y101.133 E.03338
M73 P6 R15
G1 X138.833 Y101.671 E.017
G1 X139.58 Y102.418 E.03338
G1 X139.58 Y102.955 E.01697
G1 X138.833 Y102.208 E.03338
G1 X138.833 Y102.746 E.017
G1 X139.58 Y103.493 E.03338
G1 X139.58 Y104.03 E.01697
G1 X138.833 Y103.283 E.03338
G1 X138.833 Y103.82 E.01697
G1 X139.58 Y104.567 E.03338
G1 X139.58 Y105.105 E.017
G1 X138.833 Y104.358 E.03338
G1 X138.833 Y104.895 E.01697
G1 X139.58 Y105.642 E.03338
G1 X139.58 Y106.18 E.017
G1 X138.833 Y105.433 E.03338
G1 X138.833 Y105.97 E.01697
G1 X139.58 Y106.717 E.03338
G1 X139.58 Y107.255 E.017
G1 X138.833 Y106.507 E.0334
G1 X138.833 Y107.045 E.017
G1 X139.58 Y107.792 E.03338
G1 X139.58 Y108.329 E.01697
G1 X138.833 Y107.582 E.03338
G1 X138.833 Y108.12 E.017
G1 X139.58 Y108.867 E.03338
G1 X139.58 Y109.404 E.01697
G1 X138.833 Y108.657 E.03338
G1 X138.833 Y109.195 E.017
G1 X139.431 Y109.793 E.02672
M204 S1000
M106 S84.15
