; generated by PrusaSlicer 2.7.4+win64 on 2024-08-26 at 21:36:31 UTC


;
;
; 

; external perimeters extrusion width = 0.45mm
; perimeters extrusion width = 0.45mm
; infill extrusion width = 0.45mm
; solid infill extrusion width = 0.45mm
; top infill extrusion width = 0.40mm
; support material extrusion width = 0.35mm
; first layer extrusion width = 0.42mm

M73 P0 R16
M73 Q0 S17
M201 X1000 Y1000 Z200 E5000 ; sets maximum accelerations, mm/sec^2
M203 X200 Y200 Z12 E120 ; sets maximum feedrates, mm / sec
M204 S1250 T1250 ; sets acceleration (S) and retract acceleration (R), mm/sec^2
M205 X8.00 Y8.00 Z0.40 E4.50 ; sets the jerk limits, mm/sec
M205 S0 T0 ; sets the minimum extruding and travel feed rate, mm/sec

; printing object nail_ejector_fittings v9.stl_4.stl id:0 copy 0
; stop printing object nail_ejector_fittings v9.stl_4.stl id:0 copy 0

;TYPE:Custom
M862.3 P "MK3S" ; printer model check
M862.1 P0.4 ; nozzle diameter check
M115 U3.13.3 ; tell printer latest fw version
G90 ; use absolute coordinates
M83 ; extruder relative mode
M104 S215 ; set extruder temp
M140 S60 ; set bed temp
M190 S60 ; wait for bed temp
M109 S215 ; wait for extruder temp
G28 W ; home all without mesh bed level
G80 X91.3994 Y67.9002 W67.2012 H74.0098 ; mesh bed levelling

G1 Z0.2 F720
G1 Y-3 F1000 ; go outside print area
G92 E0
G1 X60 E9 F1000 ; intro line
G1 X100 E12.5 F1000 ; intro line

G92 E0
M221 S95

; Don't change E values below. Excessive value can damage the printer.
M907 E430 ; set extruder motor current
G21 ; set units to millimeters
G90 ; use absolute coordinates
M83 ; use relative distances for extrusion

M900 K0.05 ; Filament gcode LA 1.5
M900 K30 ; Filament gcode LA 1.0




M107
;LAYER_CHANGE
;Z:0.2
;HEIGHT:0.2
G1 E-.8 F2100
G1 Z.6 F720
G1 X96.681 Y86.221 F10800
G1 Z.2 F720
G1 E.8 F2100
M204 S800
;TYPE:Skirt/Brim
;WIDTH:0.42
G1 F1200
G1 X110.526 Y70.696 E.65222
G1 X111.91 Y69.57 E.05594
G1 X112.888 Y69.009 E.03535
G1 X113.788 Y68.626 E.03067
G1 X115.33 Y68.215 E.05004
G1 X117.147 Y68.091 E.0571
G1 X118.232 Y68.192 E.03417
G1 X119.333 Y68.435 E.03535
G1 X120.955 Y69.077 E.0547
G1 X154 Y87.622 E1.18811
G1 X155.034 Y88.335 E.03938
M73 P1 R16
M73 Q1 S16
G1 X155.869 Y89.091 E.03532
G1 X156.603 Y89.947 E.03536
G1 X157.379 Y91.169 E.04539
G1 X157.841 Y92.198 E.03537
G1 X158.17 Y93.276 E.03534
G1 X158.361 Y94.387 E.03535
G1 X158.411 Y95.199 E.02551
G1 X158.407 Y133.162 E1.1903
G1 X158.179 Y136.56 E.10678
G1 X157.474 Y138.095 E.05296
G1 X154.493 Y141.029 E.13114
G1 X152.826 Y141.713 E.0565
G1 X97.171 Y141.713 E1.74502
G1 X95.506 Y141.029 E.05644
G1 X92.525 Y138.094 E.13117
G1 X91.821 Y136.559 E.05295
G1 X91.588 Y133.007 E.11161
G1 X91.588 Y95.273 E1.18312
G1 X91.702 Y93.922 E.04251
G1 X92.109 Y92.338 E.05128
G1 X92.776 Y90.888 E.05004
G1 X93.812 Y89.437 E.0559
G1 X96.641 Y86.266 E.13324
M204 S1000
;WIPE_START
G1 F8640
G1 X96.681 Y86.221 E-.0139
G1 X98.947 Y83.68 E-.7861
;WIPE_END
G1 Z.6 F720
G1 X111.055 Y81.115 F10800
G1 Z.2 F720
G1 E.8 F2100
M204 S800
G1 F1200
G1 X110.795 Y80.174 E.03061
G1 X110.543 Y78.104 E.06538
G1 X110.556 Y76.642 E.04584
G1 X110.724 Y75.558 E.03439
G1 X111.067 Y74.544 E.03356
G1 X111.582 Y73.597 E.0338
G1 X112.331 Y72.66 E.03761
G1 X113.192 Y71.923 E.03554
M73 P2 R16
G1 X114.146 Y71.362 E.0347
M73 Q2 S16
G1 X115.218 Y70.967 E.03582
G1 X116.317 Y70.774 E.03499
G1 X117.431 Y70.776 E.03493
G1 X118.296 Y70.917 E.02748
G1 X119.131 Y71.176 E.02741
G1 X119.923 Y71.547 E.02742
G1 X120.641 Y72.012 E.02682
G1 X121.294 Y72.574 E.02701
G1 X121.866 Y73.217 E.02698
G1 X122.593 Y74.439 E.04458
G1 X122.94 Y75.386 E.03162
G1 X123.12 Y76.275 E.02844
G1 X123.17 Y78.055 E.05583
G1 X122.789 Y80.748 E.08528
G1 X122.263 Y81.903 E.03979
G1 X121.419 Y82.915 E.04132
G1 X120.494 Y83.586 E.03583
G1 X119.393 Y84.039 E.03733
G1 X115.308 Y84.179 E.12816
G1 X114.495 Y84.082 E.02567
G1 X112.66 Y83.232 E.06341
G1 X111.723 Y82.301 E.04142
G1 X111.085 Y81.167 E.0408
M204 S1000
G1 X111.085 Y81.167 F10800
G1 X111.414 Y80.984
M204 S800
G1 F1200
G1 X111.396 Y80.952 E.00115
G1 X111.164 Y80.093 E.0279
G1 X110.92 Y78.092 E.0632
G1 X110.932 Y76.659 E.04493
G1 X111.094 Y75.633 E.03257
G1 X111.419 Y74.681 E.03154
G1 X111.887 Y73.819 E.03075
G1 X112.59 Y72.934 E.03544
G1 X113.399 Y72.239 E.03344
G1 X114.294 Y71.709 E.03261
G1 X115.302 Y71.335 E.03371
G1 X116.334 Y71.151 E.03287
G1 X117.387 Y71.15 E.03302
G1 X118.197 Y71.281 E.02573
G1 X119.006 Y71.533 E.02657
G1 X119.75 Y71.883 E.02578
G1 X120.425 Y72.322 E.02525
G1 X121.02 Y72.834 E.02461
G1 X121.573 Y73.454 E.02605
G1 X122.259 Y74.615 E.04228
G1 X122.581 Y75.501 E.02956
G1 X122.743 Y76.303 E.02565
G1 X122.794 Y78.016 E.05373
G1 X122.424 Y80.65 E.0834
G1 X121.931 Y81.722 E.037
G1 X121.146 Y82.654 E.03821
G1 X120.293 Y83.267 E.03294
G1 X119.283 Y83.677 E.03418
G1 X115.311 Y83.801 E.1246
G1 X114.569 Y83.712 E.02343
G1 X112.902 Y82.941 E.05759
G1 X112.008 Y82.053 E.03951
G1 X111.443 Y81.036 E.03648
M204 S1000
G1 X111.443 Y81.036 F10800
G1 X111.773 Y80.855
M204 S800
G1 F1200
G1 X111.738 Y80.792 E.00226
G1 X111.539 Y80.048 E.02415
G1 X111.298 Y78.079 E.0622
G1 X111.309 Y76.677 E.04396
G1 X111.464 Y75.709 E.03074
G1 X111.758 Y74.846 E.02859
G1 X112.194 Y74.039 E.02876
G1 X112.851 Y73.207 E.03324
G1 X113.606 Y72.554 E.0313
G1 X114.442 Y72.056 E.03051
G1 X115.385 Y71.703 E.03157
G1 X116.383 Y71.526 E.03178
G1 X117.37 Y71.527 E.03095
G1 X118.122 Y71.651 E.0239
G1 X118.881 Y71.888 E.02493
G1 X119.577 Y72.218 E.02415
G1 X120.208 Y72.63 E.02363
G1 X121.278 Y73.69 E.04722
G1 X121.925 Y74.791 E.04004
G1 X122.222 Y75.615 E.02746
G1 X122.37 Y76.36 E.02382
G1 X122.417 Y78.009 E.05172
G1 X122.06 Y80.551 E.08048
G1 X121.601 Y81.539 E.03416
G1 X120.875 Y82.391 E.0351
G1 X120.094 Y82.946 E.03004
G1 X119.174 Y83.314 E.03107
G1 X115.315 Y83.424 E.12105
G1 X114.645 Y83.341 E.02117
G1 X113.144 Y82.65 E.05181
G1 X112.294 Y81.805 E.03758
G1 X111.802 Y80.908 E.03208
M204 S1000
G1 X111.802 Y80.908 F10800
G1 X112.132 Y80.727
M204 S800
G1 F1200
G1 X112.08 Y80.631 E.00342
G1 X111.908 Y79.971 E.02139
G1 X111.675 Y78.066 E.06018
G1 X111.686 Y76.695 E.04299
G1 X111.833 Y75.785 E.0289
G1 X112.11 Y74.984 E.02657
G1 X112.5 Y74.259 E.02581
G1 X113.112 Y73.48 E.03106
G1 X113.815 Y72.869 E.0292
G1 X114.592 Y72.403 E.02841
G1 X115.469 Y72.071 E.0294
G1 X116.401 Y71.903 E.02969
G1 X117.325 Y71.902 E.02897
G1 X118.023 Y72.015 E.02217
G1 X118.733 Y72.235 E.02331
G1 X119.991 Y72.939 E.0452
G1 X120.983 Y73.926 E.04388
G1 X121.59 Y74.965 E.03773
G1 X121.861 Y75.728 E.02539
G1 X121.997 Y76.417 E.02202
G1 X122.039 Y78.001 E.04968
G1 X121.695 Y80.451 E.07757
G1 X121.271 Y81.355 E.03131
G1 X120.606 Y82.126 E.03192
G1 X119.896 Y82.624 E.02719
G1 X119.067 Y82.951 E.02794
G1 X115.321 Y83.047 E.11749
G1 X114.721 Y82.971 E.01896
G1 X113.384 Y82.357 E.04613
G1 X112.611 Y81.598 E.03397
G1 X112.161 Y80.779 E.0293
M204 S1000
G1 X112.161 Y80.779 F10800
G1 X112.492 Y80.601
M204 S800
G1 F1200
G1 X112.424 Y80.474 E.00452
G1 X112.278 Y79.897 E.01866
G1 X112.052 Y78.053 E.05825
G1 X112.063 Y76.713 E.04202
G1 X112.203 Y75.862 E.02704
G1 X112.449 Y75.148 E.02368
G1 X112.808 Y74.478 E.02383
G1 X113.375 Y73.751 E.02891
G1 X114.024 Y73.183 E.02704
G1 X114.743 Y72.749 E.02633
G1 X115.555 Y72.439 E.02725
G1 X116.419 Y72.28 E.02755
G1 X117.281 Y72.277 E.02703
G1 X117.926 Y72.38 E.02048
G1 X118.584 Y72.582 E.02158
G1 X119.773 Y73.246 E.0427
G1 X120.687 Y74.161 E.04055
G1 X121.255 Y75.139 E.03546
G1 X121.501 Y75.839 E.02326
G1 X121.624 Y76.473 E.02025
G1 X121.662 Y77.993 E.04767
G1 X121.332 Y80.35 E.07462
G1 X120.942 Y81.168 E.02841
G1 X120.338 Y81.859 E.02878
G1 X119.701 Y82.301 E.02431
G1 X118.962 Y82.588 E.02486
G1 X115.327 Y82.67 E.114
G1 X114.797 Y82.601 E.01676
G1 X113.625 Y82.065 E.04041
G1 X112.896 Y81.35 E.03202
G1 X112.52 Y80.654 E.0248
M204 S1000
G1 X112.52 Y80.654 F10800
G1 X112.847 Y80.475
M204 S800
G1 F1200
G1 X112.783 Y80.357 E.00421
G1 X112.653 Y79.854 E.01629
G1 X112.429 Y78.039 E.05734
G1 X112.44 Y76.731 E.04101
G1 X112.572 Y75.94 E.02514
G1 X112.789 Y75.312 E.02083
G1 X113.116 Y74.695 E.02189
G1 X113.638 Y74.022 E.0267
G1 X114.234 Y73.497 E.0249
G1 X114.923 Y73.081 E.02524
G1 X115.672 Y72.798 E.0251
G1 X116.469 Y72.654 E.02539
G1 X117.265 Y72.654 E.02496
G1 X117.851 Y72.75 E.01862
G1 X118.459 Y72.938 E.01995
G1 X119.554 Y73.554 E.03939
G1 X120.391 Y74.395 E.0372
G1 X120.919 Y75.311 E.03315
G1 X121.14 Y75.949 E.02117
G1 X121.251 Y76.528 E.01848
G1 X121.285 Y77.984 E.04566
G1 X120.968 Y80.248 E.07168
G1 X120.614 Y80.98 E.02549
M73 P3 R16
G1 X120.072 Y81.591 E.02561
G1 X119.507 Y81.977 E.02145
G1 X118.859 Y82.224 E.02174
G1 X115.335 Y82.292 E.11051
G1 X114.875 Y82.231 E.01455
M73 Q3 S16
G1 X113.863 Y81.771 E.03485
G1 X113.212 Y81.143 E.02836
G1 X112.876 Y80.528 E.02197
M204 S1000
G1 X112.876 Y80.528 F10800
G1 X113.202 Y80.347
M204 S800
G1 F1200
G1 X113.141 Y80.236 E.00397
G1 X112.806 Y78.026 E.07008
G1 X112.817 Y76.749 E.04004
G1 X112.941 Y76.019 E.02322
G1 X113.426 Y74.911 E.03792
G1 X113.902 Y74.291 E.02451
G1 X114.445 Y73.809 E.02277
G1 X115.074 Y73.426 E.02309
G1 X115.758 Y73.165 E.02295
G1 X116.488 Y73.031 E.02327
G1 X117.221 Y73.029 E.02298
G1 X117.754 Y73.114 E.01692
G1 X118.839 Y73.533 E.03647
G1 X119.335 Y73.861 E.01864
G1 X120.094 Y74.628 E.03383
G1 X120.582 Y75.482 E.03084
G1 X120.877 Y76.582 E.03571
G1 X120.907 Y77.975 E.04369
G1 X120.605 Y80.143 E.06863
G1 X120.288 Y80.789 E.02256
G1 X119.809 Y81.32 E.02242
G1 X119.317 Y81.651 E.01859
G1 X118.758 Y81.859 E.0187
G1 X115.344 Y81.915 E.10706
G1 X114.954 Y81.861 E.01234
G1 X114.098 Y81.475 E.02944
G1 X113.527 Y80.934 E.02466
G1 X113.231 Y80.4 E.01914
M204 S1000
G1 X113.231 Y80.4 F10800
G1 X113.556 Y80.217
M204 S800
G1 F1200
G1 X113.498 Y80.113 E.00373
G1 X113.184 Y78.012 E.06661
G1 X113.194 Y76.768 E.03901
G1 X113.31 Y76.099 E.02129
G1 X113.736 Y75.126 E.0333
G1 X114.167 Y74.56 E.02231
G1 X114.657 Y74.121 E.02063
G1 X115.227 Y73.772 E.02096
G1 X115.845 Y73.532 E.02079
G1 X116.508 Y73.408 E.02115
G1 X117.178 Y73.404 E.02101
G1 X118.164 Y73.632 E.03173
G1 X119.114 Y74.167 E.03419
G1 X119.797 Y74.86 E.03051
G1 X120.245 Y75.651 E.0285
G1 X120.503 Y76.635 E.0319
G1 X120.53 Y77.964 E.04168
G1 X120.243 Y80.036 E.06559
G1 X119.964 Y80.595 E.01959
G1 X119.548 Y81.047 E.01926
G1 X119.129 Y81.323 E.01573
G1 X118.66 Y81.494 E.01565
G1 X115.034 Y81.492 E.11369
G1 X114.331 Y81.177 E.02415
G1 X113.84 Y80.722 E.02099
G1 X113.585 Y80.269 E.0163
M204 S1000
G1 X113.585 Y80.269 F10800
G1 X113.91 Y80.089
M204 S800
G1 F1200
G1 X113.854 Y79.989 E.00359
G1 X113.561 Y77.997 E.06313
G1 X113.571 Y76.787 E.03794
G1 X113.672 Y76.207 E.01846
G1 X114.047 Y75.34 E.02962
G1 X114.434 Y74.827 E.02015
G1 X114.871 Y74.432 E.01847
G1 X115.381 Y74.116 E.01881
G1 X115.934 Y73.899 E.01863
G1 X116.529 Y73.784 E.019
G1 X117.562 Y73.844 E.03244
G1 X118.492 Y74.204 E.03127
G1 X118.893 Y74.473 E.01514
G1 X119.498 Y75.092 E.02714
G1 X119.907 Y75.819 E.02615
G1 X120.13 Y76.687 E.0281
G1 X120.153 Y77.953 E.0397
G1 X119.882 Y79.925 E.06241
G1 X119.641 Y80.399 E.01667
G1 X119.291 Y80.77 E.01599
G1 X118.565 Y81.128 E.02538
G1 X115.115 Y81.123 E.10817
G1 X114.564 Y80.879 E.01889
G1 X114.119 Y80.466 E.01904
G1 X113.939 Y80.141 E.01165
M204 S1000
G1 X113.939 Y80.141 F10800
G1 X114.295 Y79.97
M204 S800
G1 F1200
G1 X114.153 Y79.674 E.01029
G1 X113.938 Y77.983 E.05345
G1 X113.948 Y76.805 E.03694
G1 X114.033 Y76.313 E.01565
G1 X114.359 Y75.552 E.02596
G1 X114.702 Y75.093 E.01797
G1 X115.086 Y74.742 E.01631
G1 X116.025 Y74.265 E.03302
G1 X117.097 Y74.154 E.03379
G1 X117.869 Y74.327 E.02481
G1 X118.67 Y74.777 E.02881
G1 X119.199 Y75.322 E.02381
G1 X119.568 Y75.985 E.02379
G1 X119.756 Y76.737 E.0243
G1 X119.775 Y77.941 E.03776
G1 X119.522 Y79.81 E.05914
G1 X119.32 Y80.199 E.01374
G1 X119.036 Y80.492 E.01279
G1 X118.469 Y80.762 E.01969
G1 X115.198 Y80.754 E.10256
G1 X114.792 Y80.578 E.01387
G1 X114.431 Y80.252 E.01525
G1 X114.321 Y80.024 E.00794
M204 S1000
G1 X114.321 Y80.024 F10800
G1 X114.651 Y79.869
M204 S800
G1 F1200
G1 X114.522 Y79.594 E.00952
G1 X114.315 Y77.968 E.05139
G1 X114.325 Y76.824 E.03587
G1 X114.499 Y76.109 E.02307
G1 X114.971 Y75.357 E.02784
G1 X115.696 Y74.802 E.02863
G1 X116.608 Y74.535 E.0298
G1 X117.378 Y74.576 E.02418
G1 X118.143 Y74.873 E.02573
G1 X118.445 Y75.08 E.01148
G1 X118.899 Y75.551 E.02051
G1 X119.228 Y76.148 E.02137
G1 X119.382 Y76.786 E.02058
G1 X119.398 Y77.928 E.03581
G1 X119.165 Y79.69 E.05573
G1 X118.78 Y80.214 E.02039
G1 X118.373 Y80.396 E.01398
G1 X115.288 Y80.388 E.09673
G1 X114.978 Y80.248 E.01067
G1 X114.713 Y80 E.01138
G1 X114.677 Y79.923 E.00267
M204 S1000
G1 X114.677 Y79.923 F10800
G1 X115.002 Y79.757
M204 S800
G1 F1200
G1 X114.892 Y79.525 E.00805
G1 X114.853 Y78.813 E.02236
G1 X114.693 Y77.952 E.02746
G1 X114.758 Y76.523 E.04485
G1 X114.987 Y75.971 E.01874
G1 X115.52 Y75.361 E.0254
G1 X116.207 Y74.998 E.02436
G1 X117.02 Y74.905 E.02566
G1 X117.577 Y75.023 E.01785
G1 X118.219 Y75.382 E.02306
G1 X118.598 Y75.779 E.01721
G1 X118.874 Y76.28 E.01793
G1 X119.007 Y76.835 E.01789
G1 X119.021 Y77.914 E.03383
G1 X118.803 Y79.57 E.05237
G1 X118.53 Y79.932 E.01422
G1 X118.278 Y80.029 E.00847
G1 X115.387 Y80.023 E.09065
G1 X115.052 Y79.791 E.01278
M204 S1000
G1 X115.052 Y79.791 F10800
G1 X115.325 Y79.509
M204 S800
G1 F1200
G1 X115.266 Y79.452 E.00257
G1 X115.228 Y78.767 E.02151
G1 X115.07 Y77.937 E.02649
G1 X115.079 Y76.863 E.03368
G1 X115.189 Y76.413 E.01452
G1 X115.556 Y75.834 E.02149
G1 X116.07 Y75.458 E.01997
G1 X116.717 Y75.282 E.02102
G1 X117.203 Y75.31 E.01526
G1 X117.791 Y75.541 E.01981
G1 X118.154 Y75.834 E.01463
G1 X118.589 Y76.625 E.0283
G1 X118.644 Y77.899 E.03998
G1 X118.444 Y79.452 E.0491
G1 X118.236 Y79.652 E.00905
G1 X115.474 Y79.652 E.0866
G1 X115.368 Y79.55 E.00461
M204 S1000
;WIPE_START
G1 F8640
G1 X115.325 Y79.509 E-.01372
G1 X115.266 Y79.452 E-.01894
G1 X115.228 Y78.767 E-.15841
G1 X115.07 Y77.937 E-.19509
G1 X115.079 Y76.863 E-.248
G1 X115.189 Y76.413 E-.10697
G1 X115.326 Y76.198 E-.05887
;WIPE_END
G1 Z.6 F720
G1 X105.04 Y90.9 F10800
G1 Z.2 F720
G1 E.8 F2100
M204 S800
G1 F1200
G1 X105.59 Y91.523 E.02606
G1 X106.347 Y92.827 E.04728
G1 X106.66 Y93.707 E.02929
G1 X106.827 Y94.539 E.02661
G1 X106.882 Y96.312 E.05562
G1 X106.499 Y99.038 E.08631
G1 X105.973 Y100.193 E.03979
G1 X105.129 Y101.205 E.04132
G1 X104.204 Y101.876 E.03583
G1 X103.103 Y102.329 E.03733
G1 X98.994 Y102.469 E.12891
G1 X98.096 Y102.341 E.02844
G1 X96.778 Y101.794 E.04474
G1 X95.795 Y101.002 E.03958
G1 X95.047 Y100.003 E.03913
G1 X94.591 Y98.873 E.03821
G1 X94.257 Y96.444 E.07688
G1 X94.274 Y94.827 E.0507
G1 X94.446 Y93.8 E.03265
G1 X94.7 Y93.018 E.02578
G1 X95.049 Y92.282 E.02554
G1 X95.659 Y91.383 E.03406
M73 P4 R16
G1 X96.375 Y90.631 E.03256
G1 X97.187 Y90.02 E.03186
G1 X98.13 Y89.531 E.03331
G1 X99.174 Y89.195 E.03439
G1 X100.245 Y89.05 E.03389
G1 X101.337 Y89.087 E.03426
G1 X102.884 Y89.48 E.05005
G1 X103.67 Y89.858 E.02735
M73 Q4 S16
G1 X104.411 Y90.347 E.02784
G1 X104.995 Y90.861 E.02439
M204 S1000
G1 X104.995 Y90.861 F10800
G1 X104.696 Y91.159
M204 S800
G1 F1200
G1 X105.294 Y91.758 E.02654
G1 X106.012 Y93 E.04498
G1 X106.299 Y93.819 E.02721
G1 X106.454 Y94.596 E.02484
G1 X106.504 Y96.306 E.05364
G1 X106.134 Y98.94 E.0834
G1 X105.641 Y100.012 E.037
G1 X104.856 Y100.944 E.03821
G1 X104.003 Y101.557 E.03294
G1 X102.993 Y101.967 E.03418
G1 X99 Y102.092 E.12526
G1 X98.174 Y101.972 E.02617
G1 X96.994 Y101.483 E.04005
G1 X96.05 Y100.723 E.038
G1 X95.387 Y99.837 E.0347
G1 X94.962 Y98.803 E.03505
G1 X94.632 Y96.401 E.07602
G1 X94.651 Y94.847 E.04873
G1 X94.815 Y93.877 E.03085
G1 X95.383 Y92.458 E.04792
G1 X95.962 Y91.608 E.03225
G1 X96.636 Y90.904 E.03056
G1 X97.4 Y90.331 E.02994
G1 X98.288 Y89.874 E.03131
G1 X99.272 Y89.56 E.03239
G1 X100.279 Y89.425 E.03186
G1 X101.303 Y89.463 E.03213
G1 X102.737 Y89.828 E.0464
G1 X103.495 Y90.192 E.02636
G1 X104.191 Y90.654 E.02619
G1 X104.653 Y91.117 E.02051
M204 S1000
G1 X104.653 Y91.117 F10800
G1 X104.389 Y91.38
M204 S800
G1 F1200
G1 X104.998 Y91.992 E.02707
G1 X105.676 Y93.172 E.04267
G1 X105.938 Y93.929 E.02512
G1 X106.081 Y94.653 E.02314
G1 X106.127 Y96.299 E.05163
