; generated by PrusaSlicer 2.7.4+win64 on 2024-08-18 at 01:19:45 UTC


;
;
; 

; external perimeters extrusion width = 0.45mm
; perimeters extrusion width = 0.45mm
; infill extrusion width = 0.45mm
; solid infill extrusion width = 0.45mm
; top infill extrusion width = 0.40mm
; support material extrusion width = 0.35mm
; first layer extrusion width = 0.42mm

; external perimeters extrusion width = 0.45mm
; perimeters extrusion width = 0.45mm
; infill extrusion width = 0.45mm
; solid infill extrusion width = 0.45mm
; top infill extrusion width = 0.40mm
; support material extrusion width = 0.35mm
; first layer extrusion width = 0.42mm

; external perimeters extrusion width = 0.45mm
; perimeters extrusion width = 0.45mm
; infill extrusion width = 0.45mm
; solid infill extrusion width = 0.45mm
; top infill extrusion width = 0.40mm
; support material extrusion width = 0.35mm
; first layer extrusion width = 0.42mm

; external perimeters extrusion width = 0.45mm
; perimeters extrusion width = 0.45mm
; infill extrusion width = 0.45mm
; solid infill extrusion width = 0.45mm
; top infill extrusion width = 0.40mm
; support material extrusion width = 0.35mm
; first layer extrusion width = 0.42mm

; external perimeters extrusion width = 0.45mm
; perimeters extrusion width = 0.45mm
; infill extrusion width = 0.45mm
; solid infill extrusion width = 0.45mm
; top infill extrusion width = 0.40mm
; support material extrusion width = 0.35mm
; first layer extrusion width = 0.42mm

; external perimeters extrusion width = 0.45mm
; perimeters extrusion width = 0.45mm
; infill extrusion width = 0.45mm
; solid infill extrusion width = 0.45mm
; top infill extrusion width = 0.40mm
; support material extrusion width = 0.35mm
; first layer extrusion width = 0.42mm

; external perimeters extrusion width = 0.45mm
; perimeters extrusion width = 0.45mm
; infill extrusion width = 0.45mm
; solid infill extrusion width = 0.45mm
; top infill extrusion width = 0.40mm
; support material extrusion width = 0.35mm
; first layer extrusion width = 0.42mm

; external perimeters extrusion width = 0.45mm
; perimeters extrusion width = 0.45mm
; infill extrusion width = 0.45mm
; solid infill extrusion width = 0.45mm
; top infill extrusion width = 0.40mm
; support material extrusion width = 0.35mm
; first layer extrusion width = 0.42mm

M73 P0 R140
M73 Q0 S143
M201 X1000 Y1000 Z200 E5000 ; sets maximum accelerations, mm/sec^2
M203 X200 Y200 Z12 E120 ; sets maximum feedrates, mm / sec
M204 S1250 T1250 ; sets acceleration (S) and retract acceleration (R), mm/sec^2
M205 X8.00 Y8.00 Z0.40 E4.50 ; sets the jerk limits, mm/sec
M205 S0 T0 ; sets the minimum extruding and travel feed rate, mm/sec

; printing object NailEjectorLightV11.stl_1 id:0 copy 0
; stop printing object NailEjectorLightV11.stl_1 id:0 copy 0
; printing object NailEjectorLightV11.stl_3 id:2 copy 0
; stop printing object NailEjectorLightV11.stl_3 id:2 copy 0
; printing object NailEjectorLightV11.stl_4 id:3 copy 0
; stop printing object NailEjectorLightV11.stl_4 id:3 copy 0
; printing object NailEjectorLightV11.stl_3 id:5 copy 0
; stop printing object NailEjectorLightV11.stl_3 id:5 copy 0
; printing object NailEjectorLightV11.stl_4 id:4 copy 0
; stop printing object NailEjectorLightV11.stl_4 id:4 copy 0
; printing object NailEjectorLightV11.stl_2 id:1 copy 0
; stop printing object NailEjectorLightV11.stl_2 id:1 copy 0
; printing object NailEjectorLightV11.stl_1 id:6 copy 0
; stop printing object NailEjectorLightV11.stl_1 id:6 copy 0
; printing object NailEjectorLightV11.stl_2 id:7 copy 0
; stop printing object NailEjectorLightV11.stl_2 id:7 copy 0

;TYPE:Custom
M862.3 P "MK3S" ; printer model check
M862.1 P0.4 ; nozzle diameter check
M115 U3.13.3 ; tell printer latest fw version
G90 ; use absolute coordinates
M83 ; extruder relative mode
M104 S215 ; set extruder temp
M140 S60 ; set bed temp
M190 S60 ; wait for bed temp
M109 S215 ; wait for extruder temp
G28 W ; home all without mesh bed level
G80 X72.3544 Y57.5324 W107.598 H94.9352 ; mesh bed levelling

G1 Z0.2 F720
G1 Y-3 F1000 ; go outside print area
G92 E0
G1 X60 E9 F1000 ; intro line
G1 X100 E12.5 F1000 ; intro line

G92 E0
M221 S95

; Don't change E values below. Excessive value can damage the printer.
M907 E430 ; set extruder motor current
G21 ; set units to millimeters
G90 ; use absolute coordinates
M83 ; use relative distances for extrusion

M900 K0.05 ; Filament gcode LA 1.5
M900 K30 ; Filament gcode LA 1.0




M107
;LAYER_CHANGE
;Z:0.2
;HEIGHT:0.2
G1 E-.8 F2100
G1 Z.6 F720
G1 X83.2 Y72.745 F10800
G1 Z.2 F720
G1 E.8 F2100
M204 S800
;TYPE:Skirt/Brim
;WIDTH:0.42
G1 F1200
G1 X83.866 Y72.345 E.02436
G1 X120.489 Y57.872 E1.2347
G1 X121.407 Y57.721 E.02917
M73 Q0 S142
G1 X128.741 Y57.726 E.22995
G1 X129.396 Y57.836 E.02082
G1 X129.849 Y58.01 E.01522
G1 X159.381 Y72.419 E1.03029
G1 X174.632 Y80.401 E.53972
G1 X175.608 Y81.354 E.04277
G1 X175.879 Y82.147 E.02628
G1 X179.737 Y107.324 E.79862
G1 X179.764 Y129.721 E.70224
G1 X179.373 Y131.028 E.04277
G1 X178.313 Y131.91 E.04324
G1 X130.626 Y152.091 E1.62357
G1 X129.7 Y152.279 E.02963
G1 X120.3 Y152.279 E.29473
G1 X119.424 Y152.112 E.02796
G1 X83.864 Y138.022 E1.19929
G1 X82.968 Y137.397 E.03425
G1 X75.455 Y128.999 E.35331
G1 X75.101 Y128.477 E.01978
G1 X72.794 Y123.863 E.16174
G1 X72.543 Y122.8 E.03425
G1 X72.543 Y114.913 E.24729
G1 X73.185 Y105.844 E.28506
G1 X73.275 Y105.348 E.01581
G1 X82.458 Y73.889 E1.02754
G1 X83.168 Y72.795 E.04089
M204 S1000
;WIPE_START
G1 F8640
G1 X83.2 Y72.745 E-.01371
G1 X83.866 Y72.345 E-.17939
G1 X86.31 Y71.379 E-.6069
;WIPE_END
G1 Z.6 F720
; printing object NailEjectorLightV11.stl_2 id:7 copy 0
G1 X121.723 Y139.708 F10800
G1 Z.2 F720
G1 E.8 F2100
M204 S800
;TYPE:Perimeter
;WIDTH:0.610348
G1 F1200
G1 X121.716 Y139.781 E.00346
;WIDTH:0.587624
G1 X121.716 Y149.031 E.41895
G1 X121.171 Y149.031 E.02468
G1 X121.171 Y139.781 E.41895
;WIDTH:0.610348
G1 X121.182 Y139.209 E.02699
G1 X121.611 Y139.18 E.02029
;WIDTH:0.600742
G1 X121.753 Y139.097 E.00763
;WIDTH:0.552883
G1 X121.894 Y139.015 E.00692
;WIDTH:0.505024
G1 X122.036 Y138.932 E.00632
;WIDTH:0.457165
G1 X122.177 Y138.85 E.00562
;WIDTH:0.419999
G1 X122.502 Y138.549 E.01389
G1 X122.687 Y138.254 E.01092
G1 X122.824 Y137.712 E.01753
G1 X122.75 Y137.177 E.01693
G1 X122.555 Y136.778 E.01392
G1 X122.105 Y136.289 E.02084
G1 X127.897 Y136.292 E.1816
G1 X127.445 Y136.778 E.02081
G1 X127.25 Y137.177 E.01392
G1 X127.176 Y137.712 E.01693
G1 X127.313 Y138.254 E.01753
G1 X127.498 Y138.549 E.01092
G1 X127.822 Y138.851 E.01389
;WIDTH:0.4535
G1 X127.935 Y138.919 E.0045
;WIDTH:0.49511
G1 X128.048 Y138.986 E.00494
;WIDTH:0.53672
G1 X128.161 Y139.054 E.00542
;WIDTH:0.57833
G1 X128.273 Y139.121 E.00581
;WIDTH:0.61994
G1 X128.386 Y139.189 E.00633
;WIDTH:0.62185
G1 X128.812 Y139.215 E.02055
G1 X128.812 Y139.468 E.01218
G1 X128.822 Y139.781 E.01507
;WIDTH:0.601138
G1 X128.822 Y149.024 E.42902
G1 X128.264 Y149.024 E.0259
G1 X128.264 Y139.781 E.42902
;WIDTH:0.62185
G1 X128.246 Y139.586 E.00943
G1 X128.185 Y139.449 E.00722
;WIDTH:0.61994
G1 X128.114 Y139.413 E.00382
;WIDTH:0.57671
G1 X128.043 Y139.377 E.00353
;WIDTH:0.533479
G1 X127.972 Y139.341 E.00325
;WIDTH:0.490249
G1 X127.901 Y139.305 E.00296
;WIDTH:0.447018
G1 X127.83 Y139.269 E.00267
;WIDTH:0.419999
G1 X127.509 Y139.215 E.01021
G1 X122.303 Y139.224 E.16323
;WIDTH:0.457165
G1 X122.178 Y139.277 E.00468
;WIDTH:0.505024
G1 X122.054 Y139.331 E.0052
;WIDTH:0.552883
G1 X121.93 Y139.385 E.00573
;WIDTH:0.600742
G1 X121.806 Y139.438 E.00625
;WIDTH:0.610348
G1 X121.736 Y139.578 E.00739
G1 X121.729 Y139.648 E.00332
M204 S1000
G1 X122.176 Y139.781 F10800
M204 S800
;TYPE:External perimeter
;WIDTH:0.419999
G1 F1200
G1 X122.176 Y149.492 E.30448
G1 X120.71 Y149.492 E.04597
G1 X120.71 Y138.739 E.33715
G1 X121.439 Y138.736 E.02286
G1 X121.771 Y138.651 E.01075
G1 X121.988 Y138.53 E.00779
G1 X122.231 Y138.288 E.01075
G1 X122.356 Y138.073 E.0078
G1 X122.442 Y137.74 E.01078
G1 X122.42 Y137.386 E.01112
G1 X122.287 Y137.057 E.01113
G1 X122.129 Y136.851 E.00814
G1 X121.357 Y136.066 E.03452
G1 X121.332 Y135.972 E.00305
G1 X121.439 Y135.912 E.00385
G1 X128.591 Y135.915 E.22425
G1 X128.669 Y135.976 E.0031
G1 X128.639 Y136.084 E.00351
G1 X127.872 Y136.85 E.03399
G1 X127.739 Y137.014 E.00662
G1 X127.595 Y137.327 E.0108
G1 X127.554 Y137.679 E.01111
G1 X127.626 Y138.026 E.01111
G1 X127.739 Y138.247 E.00778
G1 X127.973 Y138.499 E.01078
G1 X128.183 Y138.631 E.00778
G1 X128.561 Y138.736 E.0123
G1 X129.29 Y138.739 E.02286
G1 X129.29 Y139.468 E.02286
G1 X129.29 Y149.492 E.31429
G1 X127.796 Y149.492 E.04684
G1 X127.796 Y139.781 E.30448
G1 X127.726 Y139.634 E.0051
G1 X127.608 Y139.592 E.00393
G1 X122.365 Y139.592 E.16439
G1 X122.252 Y139.63 E.00374
G1 X122.203 Y139.727 E.00341
M204 S1000
;WIPE_START
G1 F8640
G1 X122.176 Y139.781 E-.01394
G1 X122.176 Y143.185 E-.78606
;WIPE_END
G1 Z.6 F720
G1 X127.169 Y136.936 F10800
G1 Z.2 F720
G1 E.8 F2100
M204 S800
;TYPE:Solid infill
;WIDTH:0.443516
G1 F1200
G1 X126.863 Y136.631 E.01439
G1 X126.297 Y136.63 E.01885
G1 X126.89 Y137.223 E.02793
G1 X126.839 Y137.628 E.0136
G1 X126.848 Y137.748 E.00401
G1 X125.73 Y136.63 E.05267
G1 X125.163 Y136.63 E.01889
G1 X127.094 Y138.561 E.09096
G1 X127.246 Y138.778 E.00883
G1 X127.341 Y138.876 E.00455
G1 X126.842 Y138.876 E.01662
G1 X124.596 Y136.63 E.1058
G1 X124.03 Y136.629 E.01885
G1 X126.276 Y138.876 E.10583
G1 X125.709 Y138.876 E.01889
G1 X123.463 Y136.629 E.10583
G1 X122.896 Y136.629 E.01889
G1 X125.143 Y138.876 E.10585
G1 X124.576 Y138.876 E.01889
G1 X123.142 Y137.442 E.06755
G1 X123.164 Y137.721 E.00932
G1 X123.12 Y137.986 E.00895
G1 X124.01 Y138.876 E.04193
G1 X123.443 Y138.876 E.01889
G1 X122.985 Y138.417 E.0216
G1 X122.885 Y138.599 E.00692
G1 X122.764 Y138.763 E.00679
G1 X123.046 Y139.045 E.01328
M204 S1000
;WIPE_START
G1 F8640
G1 X122.764 Y138.763 E-.09209
G1 X122.885 Y138.599 E-.04706
G1 X122.985 Y138.417 E-.04795
G1 X123.443 Y138.876 E-.14972
G1 X124.01 Y138.876 E-.13092
G1 X123.12 Y137.986 E-.29063
G1 X123.149 Y137.808 E-.04163
;WIPE_END
G1 Z.6 F720
; stop printing object NailEjectorLightV11.stl_2 id:7 copy 0
; printing object NailEjectorLightV11.stl_1 id:6 copy 0
G1 X172.239 Y106.506 F10800
G1 Z.2 F720
G1 E.8 F2100
M204 S800
;TYPE:Support material
;WIDTH:0.42
G1 F1200
G1 X172.239 Y117.221 E.33596
G1 X172.398 Y117.62 E.01347
G1 X172.791 Y117.84 E.01412
G1 X173.308 Y117.857 E.01622
G1 X173.64 Y117.76 E.01084
G1 X173.871 Y117.547 E.00985
G1 X173.97 Y117.262 E.00946
G1 X173.973 Y107.684 E.30031
G1 X177.387 Y107.684 E.10704
G1 X177.387 Y129.721 E.69095
G1 X169.193 Y129.721 E.25692
G1 X169.193 Y127.414 E.07233
G1 X166.886 Y127.414 E.07233
G1 X166.886 Y122.8 E.14467
G1 X164.579 Y122.8 E.07233
G1 X164.579 Y114.913 E.24729
G1 X164.852 Y114.913 E.00856
G1 X164.852 Y117.913 E.09406
G1 X170.193 Y117.913 E.16746
G1 X170.193 Y117.65 E.00825
G1 X170.49 Y117.823 E.01078
G1 X171.012 Y117.857 E.0164
G1 X171.428 Y117.703 E.01391
G1 X171.665 Y117.336 E.0137
G1 X171.677 Y106.808 E.3301
G1 X171.396 Y106.527 E.01246
G1 X170.286 Y106.527 E.0348
G1 X170.193 Y106.62 E.00412
G1 X170.193 Y105.65 E.03041
G1 X167.193 Y105.65 E.09406
G1 X167.193 Y103.07 E.08089
G1 X172.239 Y103.07 E.15821
G1 X172.239 Y106.449 E.10595
M204 S1000
;WIPE_START
G1 F8640
G1 X172.239 Y103.07 E-.78022
G1 X172.153 Y103.07 E-.01978
;WIPE_END
G1 Z.6 F720
G1 X176.952 Y129.551 F10800
G1 Z.2 F720
G1 E.8 F2100
M204 S800
G1 F1200
G1 X176.952 Y108.024 E.67496
G1 X176.533 Y108.024 E.01314
G1 X176.533 Y129.382 E.66967
G1 X176.114 Y129.382 E.01314
G1 X176.114 Y108.024 E.66967
G1 X175.695 Y108.024 E.01314
G1 X175.695 Y129.382 E.66967
G1 X175.276 Y129.382 E.01314
M73 P0 R139
G1 X175.276 Y108.024 E.66967
G1 X174.857 Y108.024 E.01314
G1 X174.857 Y129.382 E.66967
G1 X174.438 Y129.382 E.01314
G1 X174.438 Y108.024 E.66967
G1 X174.313 Y108.024 E.00392
G1 X174.313 Y117.225 E.28849
G1 X174.263 Y117.519 E.00935
G1 X174.019 Y117.897 E.01411
G1 X174.019 Y129.382 E.3601
G1 X173.6 Y129.382 E.01314
G1 X173.6 Y118.144 E.35236
G1 X173.181 Y118.199 E.01325
G1 X173.181 Y129.382 E.35064
G1 X172.762 Y129.382 E.01314
G1 X172.762 Y118.18 E.35123
G1 X172.343 Y118.018 E.01409
G1 X172.343 Y129.382 E.35631
G1 X171.924 Y129.382 E.01314
G1 X171.924 Y117.613 E.36901
G1 X171.505 Y118.058 E.01916
G1 X171.505 Y129.382 E.35506
G1 X171.086 Y129.382 E.01314
G1 X171.086 Y118.19 E.35092
G1 X170.667 Y118.196 E.01314
G1 X170.667 Y129.382 E.35073
G1 X170.248 Y129.382 E.01314
G1 X170.248 Y118.252 E.34897
G1 X169.829 Y118.252 E.01314
G1 X169.829 Y129.382 E.34897
G1 X169.532 Y129.382 E.00931
G1 X169.532 Y127.074 E.07237
G1 X169.41 Y127.074 E.00383
G1 X169.41 Y118.252 E.27661
G1 X168.991 Y118.252 E.01314
G1 X168.991 Y127.074 E.27661
G1 X168.573 Y127.074 E.01311
G1 X168.573 Y118.252 E.27661
G1 X168.154 Y118.252 E.01314
G1 X168.154 Y127.074 E.27661
G1 X167.735 Y127.074 E.01314
G1 X167.735 Y118.252 E.27661
G1 X167.316 Y118.252 E.01314
G1 X167.316 Y127.074 E.27661
G1 X167.225 Y127.074 E.00285
G1 X167.225 Y122.46 E.14467
G1 X166.897 Y122.46 E.01028
G1 X166.897 Y118.252 E.13194
G1 X166.478 Y118.252 E.01314
G1 X166.478 Y122.46 E.13194
G1 X166.059 Y122.46 E.01314
G1 X166.059 Y118.252 E.13194
G1 X165.64 Y118.252 E.01314
G1 X165.64 Y122.46 E.13194
G1 X165.221 Y122.46 E.01314
G1 X165.221 Y118.082 E.13727
M204 S1000
;WIPE_START
G1 F8640
G1 X165.221 Y121.547 E-.8
;WIPE_END
G1 Z.6 F720
G1 X171.505 Y106.396 F10800
G1 Z.2 F720
G1 E.8 F2100
M204 S800
G1 F1200
G1 X171.505 Y103.41 E.09362
G1 X171.086 Y103.41 E.01314
G1 X171.086 Y106.187 E.08707
G1 X170.667 Y106.187 E.01314
G1 X170.667 Y103.41 E.08707
G1 X170.248 Y103.41 E.01314
G1 X170.248 Y105.311 E.0596
G1 X169.829 Y105.311 E.01314
G1 X169.829 Y103.41 E.0596
G1 X169.41 Y103.41 E.01314
G1 X169.41 Y105.311 E.0596
G1 X168.991 Y105.311 E.01314
G1 X168.991 Y103.41 E.0596
G1 X168.573 Y103.41 E.01311
G1 X168.573 Y105.311 E.0596
G1 X168.154 Y105.311 E.01314
G1 X168.154 Y103.41 E.0596
G1 X167.735 Y103.41 E.01314
G1 X167.735 Y105.48 E.0649
M204 S1000
;WIPE_START
G1 F8640
G1 X167.735 Y103.41 E-.47797
G1 X168.154 Y103.41 E-.09675
G1 X168.154 Y104.386 E-.22528
;WIPE_END
G1 Z.6 F720
G1 X169.829 Y106.014 F10800
G1 Z.2 F720
G1 E.8 F2100
M204 S800
;TYPE:Support material interface
;WIDTH:0.35
G1 F1200
G1 X169.829 Y117.549 E.29453
G1 X169.322 Y117.549 E.01295
G1 X169.322 Y106.014 E.29453
G1 X168.815 Y106.014 E.01295
G1 X168.815 Y117.549 E.29453
G1 X168.308 Y117.549 E.01295
G1 X168.308 Y106.014 E.29453
G1 X167.801 Y106.014 E.01295
G1 X167.801 Y117.549 E.29453
G1 X167.294 Y117.549 E.01295
G1 X167.294 Y106.014 E.29453
G1 X166.787 Y106.014 E.01295
G1 X166.787 Y117.549 E.29453
G1 X166.28 Y117.549 E.01295
G1 X166.28 Y106.014 E.29453
G1 X165.773 Y106.014 E.01295
G1 X165.773 Y117.549 E.29453
G1 X165.266 Y117.549 E.01295
G1 X165.266 Y106.014 E.29453
M204 S1000
;WIPE_START
G1 F8640
M73 Q0 S141
G1 X165.266 Y109.479 E-.8
;WIPE_END
G1 Z.6 F720
G1 X172.923 Y117.153 F10800
G1 Z.2 F720
G1 E.8 F2100
M204 S800
;TYPE:External perimeter
;WIDTH:0.408838
G1 F1200
G1 X172.923 Y82.711 E1.04794
G1 X173.289 Y82.711 E.01114
G1 X173.289 Y82.894 E.00557
G1 X173.289 Y117.152 E1.04234
G1 X173.247 Y117.169 E.00138
G1 X172.983 Y117.156 E.00804
M204 S1000
;WIPE_START
G1 F8640
G1 X172.923 Y117.153 E-.01387
G1 X172.923 Y113.748 E-.78613
;WIPE_END
G1 Z.6 F720
G1 X171.008 Y117.158 F10800
G1 Z.2 F720
G1 E.8 F2100
M204 S800
;WIDTH:0.377619
G1 F1200
G1 X170.906 Y117.191 E.00298
G1 X170.674 Y117.152 E.00655
G1 X170.674 Y107.195 E.27711
G1 X171.008 Y107.195 E.0093
G1 X171.008 Y107.363 E.00468
G1 X171.008 Y117.098 E.27093
M204 S1000
;WIPE_START
G1 F8640
G1 X171.008 Y117.158 E-.01385
G1 X170.906 Y117.191 E-.02475
G1 X170.674 Y117.152 E-.05432
G1 X170.674 Y114.09 E-.70708
;WIPE_END
G1 Z.6 F720
; stop printing object NailEjectorLightV11.stl_1 id:6 copy 0
; printing object NailEjectorLightV11.stl_3 id:2 copy 0
G1 X158.339 Y79.17 F10800
G1 Z.2 F720
G1 E.8 F2100
M204 S800
;TYPE:Support material
;WIDTH:0.42
G1 F1200
G1 X165.26 Y79.17 E.217
G1 X165.26 Y89.671 E.32925
G1 X160.646 Y89.671 E.14467
G1 X160.646 Y118.39 E.90046
G1 X165.26 Y118.39 E.14467
G1 X165.26 Y128.891 E.32925
