; generated by PrusaSlicer 2.7.4+win64 on 2024-08-26 at 21:27:36 UTC


;
;
; 

; external perimeters extrusion width = 0.45mm
; perimeters extrusion width = 0.45mm
; infill extrusion width = 0.45mm
; solid infill extrusion width = 0.45mm
; top infill extrusion width = 0.40mm
; support material extrusion width = 0.35mm
; first layer extrusion width = 0.42mm

; external perimeters extrusion width = 0.45mm
; perimeters extrusion width = 0.45mm
; infill extrusion width = 0.45mm
; solid infill extrusion width = 0.45mm
; top infill extrusion width = 0.40mm
; support material extrusion width = 0.35mm
; first layer extrusion width = 0.42mm

; external perimeters extrusion width = 0.45mm
; perimeters extrusion width = 0.45mm
; infill extrusion width = 0.45mm
; solid infill extrusion width = 0.45mm
; top infill extrusion width = 0.40mm
; support material extrusion width = 0.35mm
; first layer extrusion width = 0.42mm

; external perimeters extrusion width = 0.45mm
; perimeters extrusion width = 0.45mm
; infill extrusion width = 0.45mm
; solid infill extrusion width = 0.45mm
; top infill extrusion width = 0.40mm
; support material extrusion width = 0.35mm
; first layer extrusion width = 0.42mm

; external perimeters extrusion width = 0.45mm
; perimeters extrusion width = 0.45mm
; infill extrusion width = 0.45mm
; solid infill extrusion width = 0.45mm
; top infill extrusion width = 0.40mm
; support material extrusion width = 0.35mm
; first layer extrusion width = 0.42mm

; external perimeters extrusion width = 0.45mm
; perimeters extrusion width = 0.45mm
; infill extrusion width = 0.45mm
; solid infill extrusion width = 0.45mm
; top infill extrusion width = 0.40mm
; support material extrusion width = 0.35mm
; first layer extrusion width = 0.42mm

; external perimeters extrusion width = 0.45mm
; perimeters extrusion width = 0.45mm
; infill extrusion width = 0.45mm
; solid infill extrusion width = 0.45mm
; top infill extrusion width = 0.40mm
; support material extrusion width = 0.35mm
; first layer extrusion width = 0.42mm

; external perimeters extrusion width = 0.45mm
; perimeters extrusion width = 0.45mm
; infill extrusion width = 0.45mm
; solid infill extrusion width = 0.45mm
; top infill extrusion width = 0.40mm
; support material extrusion width = 0.35mm
; first layer extrusion width = 0.42mm

; external perimeters extrusion width = 0.45mm
; perimeters extrusion width = 0.45mm
; infill extrusion width = 0.45mm
; solid infill extrusion width = 0.45mm
; top infill extrusion width = 0.40mm
; support material extrusion width = 0.35mm
; first layer extrusion width = 0.42mm

; external perimeters extrusion width = 0.45mm
; perimeters extrusion width = 0.45mm
; infill extrusion width = 0.45mm
; solid infill extrusion width = 0.45mm
; top infill extrusion width = 0.40mm
; support material extrusion width = 0.35mm
; first layer extrusion width = 0.42mm

; external perimeters extrusion width = 0.45mm
; perimeters extrusion width = 0.45mm
; infill extrusion width = 0.45mm
; solid infill extrusion width = 0.45mm
; top infill extrusion width = 0.40mm
; support material extrusion width = 0.35mm
; first layer extrusion width = 0.42mm

; external perimeters extrusion width = 0.45mm
; perimeters extrusion width = 0.45mm
; infill extrusion width = 0.45mm
; solid infill extrusion width = 0.45mm
; top infill extrusion width = 0.40mm
; support material extrusion width = 0.35mm
; first layer extrusion width = 0.42mm

; external perimeters extrusion width = 0.45mm
; perimeters extrusion width = 0.45mm
; infill extrusion width = 0.45mm
; solid infill extrusion width = 0.45mm
; top infill extrusion width = 0.40mm
; support material extrusion width = 0.35mm
; first layer extrusion width = 0.42mm

M73 P0 R11
M73 Q0 S12
M201 X1000 Y1000 Z200 E5000 ; sets maximum accelerations, mm/sec^2
M203 X200 Y200 Z12 E120 ; sets maximum feedrates, mm / sec
M204 S1250 T1250 ; sets acceleration (S) and retract acceleration (R), mm/sec^2
M205 X8.00 Y8.00 Z0.40 E4.50 ; sets the jerk limits, mm/sec
M205 S0 T0 ; sets the minimum extruding and travel feed rate, mm/sec

; printing object nail_ejector_fittings v9.stl_4 id:0 copy 0
; stop printing object nail_ejector_fittings v9.stl_4 id:0 copy 0
; printing object nail_ejector_fittings v9.stl_4 id:1 copy 0
; stop printing object nail_ejector_fittings v9.stl_4 id:1 copy 0
; printing object nail_ejector_fittings v9.stl_4 id:2 copy 0
; stop printing object nail_ejector_fittings v9.stl_4 id:2 copy 0
; printing object nail_ejector_fittings v9.stl_4 id:8 copy 0
; stop printing object nail_ejector_fittings v9.stl_4 id:8 copy 0
; printing object nail_ejector_fittings v9.stl_4 id:10 copy 0
; stop printing object nail_ejector_fittings v9.stl_4 id:10 copy 0
; printing object nail_ejector_fittings v9.stl_4 id:3 copy 0
; stop printing object nail_ejector_fittings v9.stl_4 id:3 copy 0
; printing object nail_ejector_fittings v9.stl_4 id:11 copy 0
; stop printing object nail_ejector_fittings v9.stl_4 id:11 copy 0
; printing object nail_ejector_fittings v9.stl_4 id:12 copy 0
; stop printing object nail_ejector_fittings v9.stl_4 id:12 copy 0
; printing object nail_ejector_fittings v9.stl_4 id:4 copy 0
; stop printing object nail_ejector_fittings v9.stl_4 id:4 copy 0
; printing object nail_ejector_fittings v9.stl_4 id:5 copy 0
; stop printing object nail_ejector_fittings v9.stl_4 id:5 copy 0
; printing object nail_ejector_fittings v9.stl_4 id:6 copy 0
; stop printing object nail_ejector_fittings v9.stl_4 id:6 copy 0
; printing object nail_ejector_fittings v9.stl_4 id:9 copy 0
; stop printing object nail_ejector_fittings v9.stl_4 id:9 copy 0
; printing object nail_ejector_fittings v9.stl_4 id:7 copy 0
; stop printing object nail_ejector_fittings v9.stl_4 id:7 copy 0

;TYPE:Custom
M862.3 P "MK3S" ; printer model check
M862.1 P0.4 ; nozzle diameter check
M115 U3.13.3 ; tell printer latest fw version
G90 ; use absolute coordinates
M83 ; extruder relative mode
M104 S215 ; set extruder temp
M140 S60 ; set bed temp
M190 S60 ; wait for bed temp
M109 S215 ; wait for extruder temp
G28 W ; home all without mesh bed level
G80 X96.4994 Y73.0009 W57.0012 H63.9983 ; mesh bed levelling

G1 Z0.2 F720
G1 Y-3 F1000 ; go outside print area
G92 E0
G1 X60 E9 F1000 ; intro line
G1 X100 E12.5 F1000 ; intro line

G92 E0
M221 S95

; Don't change E values below. Excessive value can damage the printer.
M907 E430 ; set extruder motor current
G21 ; set units to millimeters
G90 ; use absolute coordinates
M83 ; use relative distances for extrusion

M900 K0.05 ; Filament gcode LA 1.5
M900 K30 ; Filament gcode LA 1.0




M107
;LAYER_CHANGE
;Z:0.2
;HEIGHT:0.2
G1 E-.8 F2100
G1 Z.6 F720
G1 X100.51 Y89.589 F10800
G1 Z.2 F720
M73 Q1 S12
G1 E.8 F2100
M204 S800
;TYPE:Skirt/Brim
;WIDTH:0.42
G1 F1200
G1 X114.134 Y74.304 E.64199
G1 X114.654 Y73.874 E.02116
M73 P1 R11
G1 X115.516 Y73.427 E.03045
G1 X116.313 Y73.227 E.02576
G1 X117.247 Y73.208 E.02929
G1 X118.194 Y73.427 E.03048
G1 X151.402 Y92.014 E1.19321
G1 X152.36 Y92.811 E.03907
G1 X152.9 Y93.619 E.03047
G1 X153.223 Y94.535 E.03045
G1 X153.312 Y95.354 E.02583
G1 X153.312 Y134.434 E1.22533
G1 X152.92 Y135.741 E.04278
G1 X151.875 Y136.617 E.04275
G1 X150.935 Y136.811 E.03009
G1 X99.065 Y136.811 E1.62635
G1 X97.758 Y136.419 E.04278
M73 P2 R11
M73 Q2 S11
G1 X96.882 Y135.373 E.04278
G1 X96.688 Y134.434 E.03006
G1 X96.688 Y95.354 E1.22533
G1 X96.742 Y94.72 E.01995
G1 X96.91 Y94.067 E.02114
G1 X97.244 Y93.357 E.0246
G1 X97.696 Y92.746 E.02383
G1 X100.471 Y89.633 E.13076
M204 S1000
;WIPE_START
G1 F8640
G1 X100.51 Y89.589 E-.01358
G1 X102.776 Y87.047 E-.78642
;WIPE_END
G1 Z.6 F720
; printing object nail_ejector_fittings v9.stl_4 id:7 copy 0
G1 X115.616 Y77.258 F10800
G1 Z.2 F720
G1 E.8 F2100
M204 S800
;TYPE:External perimeter
;WIDTH:0.507598
G1 F1200
G1 X115.657 Y76.738 E.02015
;WIDTH:0.497312
G1 X115.841 Y76.336 E.0167
G1 X116.216 Y75.998 E.01907
;WIDTH:0.503034
G1 X116.748 Y75.822 E.02144
G1 X117.24 Y75.88 E.01895
;WIDTH:0.501524
G1 X117.706 Y76.16 E.02073
;WIDTH:0.50168
G1 X117.951 Y76.471 E.0151
G1 X118.095 Y76.957 E.01934
;WIDTH:0.53212
G1 X118.08 Y77.221 E.01076
;WIDTH:0.57501
G1 X118.066 Y77.485 E.0117
;WIDTH:0.576094
G1 X118.065 Y77.492 E.00031
M204 S1000
;WIPE_START
G1 F8640
G1 X118.066 Y77.485 E-.00163
G1 X118.08 Y77.221 E-.06104
G1 X118.095 Y76.957 E-.06106
G1 X117.951 Y76.471 E-.11704
G1 X117.706 Y76.16 E-.09142
G1 X117.24 Y75.88 E-.12553
G1 X116.748 Y75.822 E-.11439
G1 X116.216 Y75.998 E-.12939
G1 X115.899 Y76.283 E-.0985
;WIPE_END
G1 Z.6 F720
G1 X115.616 Y77.258 F10800
G1 Z.2 F720
G1 E.8 F2100
M204 S800
;WIDTH:0.507598
G1 F1200
G1 X115.701 Y77.442 E.00783
;WIDTH:0.463799
G1 X115.786 Y77.626 E.00709
;WIDTH:0.419999
G1 X116.162 Y78.154 E.02032
G1 X116.541 Y78.38 E.01384
G1 X116.981 Y78.422 E.01386
G1 X117.375 Y78.279 E.01314
G1 X117.578 Y78.13 E.0079
G1 X117.738 Y77.896 E.00889
;WIDTH:0.459023
G1 X117.82 Y77.795 E.0045
;WIDTH:0.498047
G1 X117.902 Y77.694 E.00492
;WIDTH:0.537071
G1 X117.984 Y77.593 E.00535
;WIDTH:0.576094
G1 X118.065 Y77.492 E.00574
G1 X118.083 Y77.635 E.00639
;WIDTH:0.537071
G1 X118.1 Y77.777 E.00588
;WIDTH:0.498047
G1 X118.118 Y77.92 E.00545
;WIDTH:0.459023
G1 X118.135 Y78.063 E.00498
;WIDTH:0.419999
G1 X118.023 Y78.559 E.01594
G1 X117.961 Y79.155 E.01879
G1 X115.75 Y79.154 E.06932
G1 X115.725 Y78.726 E.01344
G1 X115.565 Y77.86 E.02761
;WIDTH:0.463799
G1 X115.591 Y77.559 E.01057
;WIDTH:0.507598
G1 X115.611 Y77.318 E.00934
M204 S1000
;WIPE_START
G1 F8640
G1 X115.616 Y77.258 E-.0139
G1 X115.701 Y77.442 E-.0468
G1 X115.786 Y77.626 E-.0468
G1 X116.162 Y78.154 E-.14967
G1 X116.541 Y78.38 E-.10189
G1 X116.981 Y78.422 E-.10206
G1 X117.375 Y78.279 E-.09678
G1 X117.578 Y78.13 E-.05814
G1 X117.738 Y77.896 E-.06545
G1 X117.82 Y77.795 E-.03004
G1 X117.902 Y77.694 E-.03004
G1 X117.984 Y77.593 E-.03004
G1 X118.061 Y77.497 E-.02839
;WIPE_END
G1 Z.6 F720
G1 X117.548 Y78.7 F10800
G1 Z.2 F720
G1 E.8 F2100
M204 S800
;TYPE:Perimeter
;WIDTH:0.575686
G1 F1200
G1 X117.409 Y78.722 E.00623
;WIDTH:0.531379
G1 X117.269 Y78.744 E.00576
;WIDTH:0.487071
G1 X117.13 Y78.766 E.0052
;WIDTH:0.442764
G1 X116.991 Y78.788 E.00468
;WIDTH:0.444017
G1 X116.668 Y78.765 E.0108
;WIDTH:0.489578
G1 X116.346 Y78.742 E.01199
;WIDTH:0.531703
G1 X116.262 Y78.721 E.00352
;WIDTH:0.573828
G1 X116.178 Y78.7 E.00382
M204 S1000
;WIPE_START
G1 F8640
G1 X116.262 Y78.721 E-.01999
G1 X116.346 Y78.742 E-.01999
G1 X116.668 Y78.765 E-.07454
G1 X116.991 Y78.788 E-.07477
G1 X117.13 Y78.766 E-.0325
G1 X117.269 Y78.744 E-.0325
G1 X117.409 Y78.722 E-.03272
G1 X117.548 Y78.7 E-.0325
;WIPE_END
G1 E-.48049 F2100
G1 Z.6 F720
; stop printing object nail_ejector_fittings v9.stl_4 id:7 copy 0
; printing object nail_ejector_fittings v9.stl_4 id:10 copy 0
G1 X148.196 Y95.548 F10800
G1 Z.2 F720
G1 E.8 F2100
M204 S800
;TYPE:External perimeter
;WIDTH:0.507598
G1 F1200
G1 X148.237 Y95.028 E.02015
;WIDTH:0.497312
G1 X148.421 Y94.626 E.0167
G1 X148.796 Y94.288 E.01907
;WIDTH:0.503034
G1 X149.328 Y94.112 E.02144
G1 X149.82 Y94.17 E.01895
;WIDTH:0.501524
G1 X150.286 Y94.45 E.02073
;WIDTH:0.50168
G1 X150.531 Y94.761 E.0151
G1 X150.675 Y95.247 E.01934
;WIDTH:0.53212
G1 X150.66 Y95.511 E.01076
;WIDTH:0.57501
G1 X150.646 Y95.775 E.0117
;WIDTH:0.576094
G1 X150.645 Y95.782 E.00031
M204 S1000
;WIPE_START
G1 F8640
G1 X150.646 Y95.775 E-.00163
G1 X150.66 Y95.511 E-.06104
G1 X150.675 Y95.247 E-.06106
G1 X150.531 Y94.761 E-.11704
G1 X150.286 Y94.45 E-.09142
G1 X149.82 Y94.17 E-.12553
G1 X149.328 Y94.112 E-.11439
G1 X148.796 Y94.288 E-.12939
G1 X148.479 Y94.573 E-.0985
;WIPE_END
G1 Z.6 F720
G1 X148.196 Y95.548 F10800
G1 Z.2 F720
G1 E.8 F2100
M204 S800
;WIDTH:0.507598
G1 F1200
G1 X148.281 Y95.732 E.00783
;WIDTH:0.463799
G1 X148.366 Y95.916 E.00709
;WIDTH:0.419999
G1 X148.742 Y96.444 E.02032
G1 X149.121 Y96.67 E.01384
G1 X149.561 Y96.712 E.01386
G1 X149.955 Y96.569 E.01314
G1 X150.158 Y96.42 E.0079
G1 X150.318 Y96.186 E.00889
;WIDTH:0.459023
G1 X150.4 Y96.085 E.0045
;WIDTH:0.498047
G1 X150.482 Y95.984 E.00492
;WIDTH:0.537071
G1 X150.564 Y95.883 E.00535
;WIDTH:0.576094
G1 X150.645 Y95.782 E.00574
G1 X150.663 Y95.925 E.00639
;WIDTH:0.537071
G1 X150.68 Y96.067 E.00588
;WIDTH:0.498047
G1 X150.698 Y96.21 E.00545
;WIDTH:0.459023
G1 X150.715 Y96.353 E.00498
;WIDTH:0.419999
G1 X150.603 Y96.849 E.01594
G1 X150.541 Y97.445 E.01879
G1 X148.33 Y97.444 E.06932
G1 X148.305 Y97.016 E.01344
G1 X148.145 Y96.15 E.02761
;WIDTH:0.463799
G1 X148.171 Y95.849 E.01057
M73 P3 R11
;WIDTH:0.507598
G1 X148.191 Y95.608 E.00934
M204 S1000
;WIPE_START
G1 F8640
G1 X148.196 Y95.548 E-.0139
G1 X148.281 Y95.732 E-.0468
G1 X148.366 Y95.916 E-.0468
M73 Q3 S11
G1 X148.742 Y96.444 E-.14967
G1 X149.121 Y96.67 E-.10189
G1 X149.561 Y96.712 E-.10206
G1 X149.955 Y96.569 E-.09678
G1 X150.158 Y96.42 E-.05814
G1 X150.318 Y96.186 E-.06545
G1 X150.4 Y96.085 E-.03004
G1 X150.482 Y95.984 E-.03004
G1 X150.564 Y95.883 E-.03004
G1 X150.641 Y95.787 E-.02839
;WIPE_END
G1 Z.6 F720
G1 X150.128 Y96.99 F10800
G1 Z.2 F720
G1 E.8 F2100
M204 S800
;TYPE:Perimeter
;WIDTH:0.575686
G1 F1200
G1 X149.989 Y97.012 E.00623
;WIDTH:0.531379
G1 X149.849 Y97.034 E.00576
;WIDTH:0.487071
G1 X149.71 Y97.056 E.0052
;WIDTH:0.442764
G1 X149.571 Y97.078 E.00468
;WIDTH:0.444017
G1 X149.248 Y97.055 E.0108
;WIDTH:0.489578
G1 X148.926 Y97.032 E.01199
;WIDTH:0.531703
G1 X148.842 Y97.011 E.00352
;WIDTH:0.573828
G1 X148.758 Y96.99 E.00382
M204 S1000
;WIPE_START
G1 F8640
G1 X148.842 Y97.011 E-.01999
G1 X148.926 Y97.032 E-.01999
G1 X149.248 Y97.055 E-.07454
G1 X149.571 Y97.078 E-.07477
G1 X149.71 Y97.056 E-.0325
G1 X149.849 Y97.034 E-.0325
G1 X149.989 Y97.012 E-.03272
G1 X150.128 Y96.99 E-.0325
;WIPE_END
G1 E-.48049 F2100
G1 Z.6 F720
; stop printing object nail_ejector_fittings v9.stl_4 id:10 copy 0
; printing object nail_ejector_fittings v9.stl_4 id:8 copy 0
G1 X131.906 Y95.548 F10800
G1 Z.2 F720
G1 E.8 F2100
M204 S800
;TYPE:External perimeter
;WIDTH:0.507598
G1 F1200
G1 X131.947 Y95.028 E.02015
;WIDTH:0.497312
G1 X132.131 Y94.626 E.0167
G1 X132.506 Y94.288 E.01907
;WIDTH:0.503034
G1 X133.038 Y94.112 E.02144
G1 X133.53 Y94.17 E.01895
;WIDTH:0.501524
G1 X133.996 Y94.45 E.02073
;WIDTH:0.50168
G1 X134.241 Y94.761 E.0151
G1 X134.385 Y95.247 E.01934
;WIDTH:0.53212
G1 X134.37 Y95.511 E.01076
;WIDTH:0.57501
G1 X134.356 Y95.775 E.0117
;WIDTH:0.576094
G1 X134.355 Y95.782 E.00031
M204 S1000
;WIPE_START
G1 F8640
G1 X134.356 Y95.775 E-.00163
G1 X134.37 Y95.511 E-.06104
G1 X134.385 Y95.247 E-.06106
G1 X134.241 Y94.761 E-.11704
G1 X133.996 Y94.45 E-.09142
G1 X133.53 Y94.17 E-.12553
G1 X133.038 Y94.112 E-.11439
G1 X132.506 Y94.288 E-.12939
G1 X132.189 Y94.573 E-.0985
;WIPE_END
G1 Z.6 F720
G1 X131.906 Y95.548 F10800
G1 Z.2 F720
G1 E.8 F2100
M204 S800
;WIDTH:0.507598
G1 F1200
G1 X131.991 Y95.732 E.00783
;WIDTH:0.463799
G1 X132.076 Y95.916 E.00709
;WIDTH:0.419999
G1 X132.452 Y96.444 E.02032
G1 X132.831 Y96.67 E.01384
G1 X133.271 Y96.712 E.01386
G1 X133.665 Y96.569 E.01314
G1 X133.868 Y96.42 E.0079
G1 X134.028 Y96.186 E.00889
;WIDTH:0.459023
G1 X134.11 Y96.085 E.0045
;WIDTH:0.498047
G1 X134.192 Y95.984 E.00492
;WIDTH:0.537071
G1 X134.274 Y95.883 E.00535
;WIDTH:0.576094
G1 X134.355 Y95.782 E.00574
G1 X134.373 Y95.925 E.00639
;WIDTH:0.537071
G1 X134.39 Y96.067 E.00588
;WIDTH:0.498047
G1 X134.408 Y96.21 E.00545
;WIDTH:0.459023
G1 X134.425 Y96.353 E.00498
;WIDTH:0.419999
G1 X134.313 Y96.849 E.01594
G1 X134.251 Y97.445 E.01879
G1 X132.04 Y97.444 E.06932
G1 X132.015 Y97.016 E.01344
G1 X131.855 Y96.15 E.02761
;WIDTH:0.463799
G1 X131.881 Y95.849 E.01057
;WIDTH:0.507598
G1 X131.901 Y95.608 E.00934
M204 S1000
;WIPE_START
G1 F8640
G1 X131.906 Y95.548 E-.0139
G1 X131.991 Y95.732 E-.0468
G1 X132.076 Y95.916 E-.0468
G1 X132.452 Y96.444 E-.14967
G1 X132.831 Y96.67 E-.10189
G1 X133.271 Y96.712 E-.10206
G1 X133.665 Y96.569 E-.09678
G1 X133.868 Y96.42 E-.05814
G1 X134.028 Y96.186 E-.06545
G1 X134.11 Y96.085 E-.03004
G1 X134.192 Y95.984 E-.03004
G1 X134.274 Y95.883 E-.03004
G1 X134.351 Y95.787 E-.02839
;WIPE_END
G1 Z.6 F720
G1 X133.838 Y96.99 F10800
G1 Z.2 F720
G1 E.8 F2100
M204 S800
;TYPE:Perimeter
