; generated by PrusaSlicer 2.7.4+win64 on 2024-09-04 at 22:36:22 UTC


;
;
; 

; external perimeters extrusion width = 0.45mm
; perimeters extrusion width = 0.45mm
; infill extrusion width = 0.45mm
; solid infill extrusion width = 0.45mm
; top infill extrusion width = 0.40mm
; support material extrusion width = 0.35mm
; first layer extrusion width = 0.42mm

; external perimeters extrusion width = 0.45mm
; perimeters extrusion width = 0.45mm
; infill extrusion width = 0.45mm
; solid infill extrusion width = 0.45mm
; top infill extrusion width = 0.40mm
; support material extrusion width = 0.35mm
; first layer extrusion width = 0.42mm

; external perimeters extrusion width = 0.45mm
; perimeters extrusion width = 0.45mm
; infill extrusion width = 0.45mm
; solid infill extrusion width = 0.45mm
; top infill extrusion width = 0.40mm
; support material extrusion width = 0.35mm
; first layer extrusion width = 0.42mm

; external perimeters extrusion width = 0.45mm
; perimeters extrusion width = 0.45mm
; infill extrusion width = 0.45mm
; solid infill extrusion width = 0.45mm
; top infill extrusion width = 0.40mm
; support material extrusion width = 0.35mm
; first layer extrusion width = 0.42mm

; external perimeters extrusion width = 0.45mm
; perimeters extrusion width = 0.45mm
; infill extrusion width = 0.45mm
; solid infill extrusion width = 0.45mm
; top infill extrusion width = 0.40mm
; support material extrusion width = 0.35mm
; first layer extrusion width = 0.42mm

; external perimeters extrusion width = 0.45mm
; perimeters extrusion width = 0.45mm
; infill extrusion width = 0.45mm
; solid infill extrusion width = 0.45mm
; top infill extrusion width = 0.40mm
; support material extrusion width = 0.35mm
; first layer extrusion width = 0.42mm

; external perimeters extrusion width = 0.45mm
; perimeters extrusion width = 0.45mm
; infill extrusion width = 0.45mm
; solid infill extrusion width = 0.45mm
; top infill extrusion width = 0.40mm
; support material extrusion width = 0.35mm
; first layer extrusion width = 0.42mm

; external perimeters extrusion width = 0.45mm
; perimeters extrusion width = 0.45mm
; infill extrusion width = 0.45mm
; solid infill extrusion width = 0.45mm
; top infill extrusion width = 0.40mm
; support material extrusion width = 0.35mm
; first layer extrusion width = 0.42mm

M73 P0 R29
M73 Q0 S29
M201 X1000 Y1000 Z200 E5000 ; sets maximum accelerations, mm/sec^2
M203 X200 Y200 Z12 E120 ; sets maximum feedrates, mm / sec
M204 S1250 T1250 ; sets acceleration (S) and retract acceleration (R), mm/sec^2
M205 X8.00 Y8.00 Z0.40 E4.50 ; sets the jerk limits, mm/sec
M205 S0 T0 ; sets the minimum extruding and travel feed rate, mm/sec

; printing object blocker.stl id:6 copy 0
; stop printing object blocker.stl id:6 copy 0
; printing object blocker.stl id:7 copy 0
; stop printing object blocker.stl id:7 copy 0
; printing object spacerCube.stl id:1 copy 0
; stop printing object spacerCube.stl id:1 copy 0
; printing object spacerCube.stl id:0 copy 0
; stop printing object spacerCube.stl id:0 copy 0
; printing object twoWiresLimiter.stl id:3 copy 0
; stop printing object twoWiresLimiter.stl id:3 copy 0
; printing object twoWiresLimiter.stl id:4 copy 0
; stop printing object twoWiresLimiter.stl id:4 copy 0
; printing object spacerCube.stl id:2 copy 0
; stop printing object spacerCube.stl id:2 copy 0
; printing object spacerCube.stl id:5 copy 0
; stop printing object spacerCube.stl id:5 copy 0

;TYPE:Custom
M862.3 P "MK3S" ; printer model check
M862.1 P0.4 ; nozzle diameter check
M115 U3.13.3 ; tell printer latest fw version
G90 ; use absolute coordinates
M83 ; extruder relative mode
M104 S215 ; set extruder temp
M140 S60 ; set bed temp
M190 S60 ; wait for bed temp
M109 S215 ; wait for extruder temp
G28 W ; home all without mesh bed level
G80 X85.3148 Y73.0324 W79.3704 H63.9352 ; mesh bed levelling

G1 Z0.2 F720
G1 Y-3 F1000 ; go outside print area
G92 E0
G1 X60 E9 F1000 ; intro line
G1 X100 E12.5 F1000 ; intro line

G92 E0
M221 S95

; Don't change E values below. Excessive value can damage the printer.
M907 E430 ; set extruder motor current
G21 ; set units to millimeters
G90 ; use absolute coordinates
M83 ; use relative distances for extrusion

M900 K0.05 ; Filament gcode LA 1.5
M900 K30 ; Filament gcode LA 1.0




M107
;LAYER_CHANGE
;Z:0.2
;HEIGHT:0.2
G1 E-.8 F2100
G1 Z.6 F720
G1 X88.317 Y83.644 F10800
G1 Z.2 F720
G1 E.8 F2100
M204 S800
;TYPE:Skirt/Brim
;WIDTH:0.42
G1 F1200
G1 X91.657 Y80.367 E.14671
G1 X101.657 Y73.627 E.37811
G1 X102.985 Y73.221 E.04354
G1 X146.132 Y73.221 E1.35284
G1 X147.442 Y73.614 E.04288
G1 X160.442 Y82.199 E.48847
G1 X163.8 Y85.49 E.14742
M73 P0 R28
G1 X164.497 Y87.171 E.05706
G1 X164.468 Y100.361 E.41356
G1 X159.758 Y130.641 E.96083
G1 X159.09 Y131.956 E.04625
G1 X156.102 Y134.944 E.13249
G1 X154.672 Y135.627 E.04969
G1 X143.663 Y136.779 E.34706
G1 X105.877 Y136.779 E1.18475
G1 X105.255 Y136.696 E.01968
G1 X94.243 Y133.712 E.35773
G1 X93.184 Y133.099 E.03837
G1 X90.197 Y130.111 E.13247
G1 X89.579 Y129.037 E.03885
G1 X85.582 Y113.897 E.49097
G1 X85.503 Y113.29 E.01919
M73 P1 R28
M73 Q1 S29
G1 X85.526 Y100.136 E.41244
G1 X87.643 Y84.996 E.47932
G1 X88.29 Y83.698 E.04547
M204 S1000
;WIPE_START
G1 F8640
G1 X88.317 Y83.644 E-.01394
G1 X90.747 Y81.26 E-.78606
;WIPE_END
G1 Z.6 F720
G1 X90.971 Y84.959 F10800
G1 Z.2 F720
G1 E.8 F2100
M204 S800
G1 F1200
G1 X91.022 Y84.85 E.00377
G1 X91.841 Y83.88 E.0398
G1 X92.988 Y83.098 E.04353
G1 X94.327 Y82.674 E.04404
G1 X99.29 Y82.649 E.15561
G1 X100.285 Y82.881 E.03203
G1 X100.293 Y80.279 E.08158
G1 X100.448 Y79.396 E.02811
G1 X100.961 Y78.21 E.04052
G1 X102.023 Y76.982 E.0509
G1 X103.139 Y76.289 E.04119
G1 X104.422 Y75.919 E.04187
G1 X121.788 Y75.892 E.5445
G1 X122.861 Y76.112 E.03434
G1 X123.808 Y76.534 E.03251
G1 X124.54 Y77.127 E.02954
G1 X125.813 Y76.283 E.04789
G1 X127.339 Y75.884 E.04946
G1 X144.41 Y75.888 E.53525
G1 X145.512 Y76.108 E.03523
G1 X146.543 Y76.581 E.03557
G1 X147.556 Y77.421 E.04126
G1 X148.297 Y78.463 E.04009
G1 X148.76 Y79.786 E.04395
G1 X148.815 Y84.793 E.157
G1 X149.917 Y84.478 E.03594
G1 X157.447 Y84.477 E.2361
G1 X158.433 Y84.668 E.03149
M73 Q1 S28
G1 X159.544 Y85.167 E.03819
G1 X160.642 Y86.1 E.04518
G1 X161.385 Y87.227 E.04232
G1 X161.777 Y88.465 E.04072
G1 X161.833 Y98.297 E.30828
G1 X161.518 Y99.615 E.04249
G1 X160.933 Y100.712 E.03898
G1 X160.066 Y101.614 E.03923
G1 X159.335 Y102.125 E.02796
G1 X157.673 Y102.669 E.05483
G1 X157.958 Y103.678 E.03287
G1 X157.978 Y113.41 E.30514
G1 X157.72 Y114.627 E.03901
G1 X157.174 Y115.716 E.0382
G1 X156.272 Y116.734 E.04265
G1 X156.698 Y117.418 E.02527
G1 X157.099 Y118.819 E.04569
G1 X157.119 Y128.547 E.30502
G1 X156.896 Y129.663 E.03568
G1 X156.384 Y130.75 E.03767
G1 X155.567 Y131.719 E.03974
G1 X154.432 Y132.497 E.04315
G1 X153.158 Y132.914 E.04203
G1 X148.308 Y132.971 E.15208
G1 X147.13 Y132.724 E.03774
G1 X146.106 Y132.229 E.03566
G1 X145.643 Y131.838 E.019
G1 X144.74 Y132.918 E.04414
G1 X143.543 Y133.696 E.04476
G1 X142.088 Y134.101 E.04735
G1 X130.203 Y134.104 E.37265
G1 X129.347 Y133.951 E.02726
G1 X128.209 Y133.468 E.03876
G1 X126.885 Y132.315 E.05505
G1 X126.166 Y131.082 E.04475
G1 X125.837 Y129.72 E.04393
G1 X125.837 Y90.188 E1.2395
G1 X124.889 Y89.677 E.03377
G1 X124.555 Y89.371 E.0142
G1 X124.244 Y89.666 E.01344
G1 X123.703 Y89.971 E.01947
G1 X123.703 Y129.602 E1.2426
G1 X123.54 Y130.6 E.03171
G1 X122.978 Y131.87 E.04354
G1 X122.164 Y132.841 E.03973
G1 X121.112 Y133.586 E.04042
G1 X119.486 Y134.092 E.05339
G1 X107.603 Y134.109 E.37258
G1 X106.687 Y133.952 E.02914
G1 X105.55 Y133.469 E.03873
G1 X104.388 Y132.507 E.0473
G1 X103.579 Y131.256 E.04671
G1 X103.296 Y130.273 E.03207
G1 X102.75 Y130.627 E.0204
G1 X101.488 Y131.058 E.04181
G1 X96.572 Y131.125 E.15415
G1 X95.429 Y130.889 E.03659
G1 X94.37 Y130.381 E.03683
G1 X93.355 Y129.503 E.04208
G1 X92.569 Y128.276 E.04569
G1 X92.179 Y126.85 E.04635
G1 X92.164 Y117.231 E.3016
G1 X92.408 Y115.984 E.03984
G1 X91.198 Y115.657 E.0393
G1 X90.239 Y115.155 E.03394
M73 Q2 S28
G1 X89.298 Y114.28 E.04029
M73 P2 R28
G1 X88.736 Y113.487 E.03047
G1 X88.167 Y111.624 E.06108
G1 X88.191 Y101.968 E.30276
G1 X88.502 Y100.793 E.03811
G1 X89.075 Y99.739 E.03762
G1 X89.912 Y98.865 E.03794
G1 X90.728 Y98.276 E.03155
G1 X90.299 Y96.713 E.05082
G1 X90.284 Y87.091 E.30169
G1 X90.509 Y85.941 E.03674
G1 X90.946 Y85.013 E.03216
M204 S1000
G1 X90.946 Y85.013 F10800
G1 X91.285 Y85.174
M204 S800
G1 F1200
G1 X91.352 Y85.035 E.00484
G1 X92.111 Y84.145 E.03667
G1 X93.176 Y83.426 E.04029
G1 X94.357 Y83.051 E.03885
G1 X99.268 Y83.027 E.15398
G1 X100.201 Y83.251 E.03008
G1 X100.662 Y83.459 E.01586
G1 X100.668 Y80.326 E.09823
G1 X100.804 Y79.522 E.02557
G1 X101.266 Y78.432 E.03712
G1 X102.248 Y77.287 E.0473
G1 X103.315 Y76.623 E.0394
G1 X104.499 Y76.289 E.03857
G1 X121.77 Y76.269 E.54152
G1 X122.726 Y76.464 E.03059
G1 X123.63 Y76.868 E.03105
G1 X124.578 Y77.649 E.03851
G1 X124.959 Y77.244 E.01743
G1 X125.937 Y76.64 E.03604
G1 X127.364 Y76.262 E.04629
G1 X144.39 Y76.265 E.53384
G1 X145.415 Y76.473 E.03279
G1 X146.321 Y76.887 E.03123
G1 X147.295 Y77.695 E.03968
G1 X147.974 Y78.659 E.03697
G1 X148.383 Y79.821 E.03862
G1 X148.444 Y85.298 E.17174
G1 X149.945 Y84.855 E.04907
G1 X157.429 Y84.854 E.23466
G1 X158.339 Y85.034 E.02909
G1 X159.323 Y85.473 E.03378
G1 X160.343 Y86.332 E.04181
G1 X161.033 Y87.367 E.039
G1 X161.408 Y88.552 E.03897
G1 X161.456 Y98.275 E.30486
G1 X161.157 Y99.502 E.0396
G1 X160.643 Y100.47 E.03436
G1 X159.832 Y101.318 E.03679
G1 X159.19 Y101.776 E.02473
G1 X157.609 Y102.293 E.05215
G1 X157.176 Y102.317 E.0136
G1 X157.581 Y103.706 E.04536
G1 X157.601 Y113.392 E.3037
G1 X157.372 Y114.48 E.03486
G1 X156.848 Y115.524 E.03663
G1 X156.074 Y116.388 E.03637
G1 X155.752 Y116.621 E.01246
G1 X156.344 Y117.551 E.03457
G1 X156.722 Y118.847 E.04233
G1 X156.742 Y128.529 E.30357
G1 X156.532 Y129.564 E.03311
G1 X156.055 Y130.565 E.03477
G1 X155.297 Y131.455 E.03665
G1 X154.287 Y132.148 E.03841
G1 X153.123 Y132.537 E.03848
G1 X148.364 Y132.597 E.14923
G1 X147.273 Y132.374 E.03491
G1 X146.294 Y131.901 E.03409
G1 X145.548 Y131.251 E.03102
G1 X145.402 Y131.535 E.01001
G1 X144.509 Y132.618 E.04401
G1 X143.362 Y133.365 E.04292
G1 X142.063 Y133.723 E.04225
G1 X130.251 Y133.73 E.37036
G1 X129.474 Y133.595 E.02473
G1 X128.383 Y133.133 E.03715
G1 X127.194 Y132.097 E.04945
G1 X126.525 Y130.965 E.04123
G1 X126.214 Y129.697 E.04094
G1 X126.214 Y89.963 E1.24583
G1 X125.092 Y89.358 E.03997
G1 X124.551 Y88.836 E.02357
G1 X124.034 Y89.351 E.02288
G1 X123.326 Y89.751 E.0255
G1 X123.326 Y129.587 E1.24903
G1 X123.185 Y130.472 E.0281
G1 X122.672 Y131.649 E.04026
G1 X121.892 Y132.579 E.03806
G1 X120.921 Y133.26 E.03719
G1 X119.404 Y133.723 E.04973
G1 X107.619 Y133.732 E.36951
G1 X106.813 Y133.596 E.02563
G1 X105.723 Y133.133 E.03713
G1 X104.652 Y132.237 E.04378
G1 X103.912 Y131.079 E.04309
G1 X103.522 Y129.664 E.04602
G1 X102.601 Y130.28 E.03474
G1 X101.452 Y130.681 E.03816
G1 X96.588 Y130.748 E.15252
G1 X95.531 Y130.525 E.03387
G1 X94.558 Y130.053 E.03391
G1 X93.624 Y129.237 E.03889
G1 X92.902 Y128.098 E.04228
G1 X92.556 Y126.825 E.04136
G1 X92.541 Y117.249 E.30025
G1 X92.755 Y116.177 E.03427
G1 X93.018 Y115.607 E.01968
G1 X92.391 Y115.589 E.01967
G1 X91.317 Y115.299 E.03488
G1 X90.439 Y114.834 E.03115
G1 X89.569 Y114.018 E.0374
G1 X89.087 Y113.346 E.02593
G1 X88.544 Y111.596 E.05745
G1 X88.562 Y102.041 E.29959
G1 X88.86 Y100.912 E.03661
G1 X89.392 Y99.943 E.03466
M73 P3 R28
G1 X90.172 Y99.139 E.03512
G1 X90.759 Y98.711 E.02278
M73 Q3 S28
G1 X91.337 Y98.501 E.01928
G1 X91.047 Y98.015 E.01774
G1 X90.676 Y96.687 E.04323
G1 X90.661 Y87.109 E.30031
G1 X90.875 Y86.038 E.03424
G1 X91.26 Y85.229 E.02809
M204 S1000
G1 X91.26 Y85.229 F10800
G1 X91.598 Y85.392
M204 S800
G1 F1200
G1 X91.68 Y85.222 E.00592
G1 X92.38 Y84.41 E.03361
G1 X93.318 Y83.776 E.0355
G1 X94.389 Y83.428 E.03531
G1 X99.247 Y83.404 E.15232
G1 X100.091 Y83.612 E.02725
G1 X101.038 Y84.059 E.03283
G1 X101.042 Y80.371 E.11563
G1 X101.16 Y79.648 E.02297
G1 X101.602 Y78.606 E.03549
G1 X102.473 Y77.591 E.04194
G1 X103.444 Y76.978 E.036
G1 X104.577 Y76.659 E.03691
G1 X121.75 Y76.646 E.53845
G1 X122.628 Y76.829 E.02812
G1 X123.451 Y77.201 E.02832
G1 X124.576 Y78.218 E.04755
G1 X125.181 Y77.55 E.02826
G1 X126.111 Y76.975 E.03428
G1 X127.388 Y76.639 E.0414
G1 X144.372 Y76.642 E.53252
G1 X145.281 Y76.826 E.02908
G1 X146.102 Y77.195 E.02822
G1 X147.003 Y77.935 E.03656
G1 X147.628 Y78.812 E.03377
G1 X148.006 Y79.858 E.03487
G1 X148.074 Y85.962 E.1914
G1 X148.554 Y85.66 E.01778
G1 X149.973 Y85.232 E.04647
G1 X157.41 Y85.231 E.23318
G1 X158.244 Y85.399 E.02667
G1 X159.102 Y85.78 E.02944
G1 X160.046 Y86.566 E.03852
G1 X160.682 Y87.507 E.03561
G1 X161.04 Y88.638 E.0372
G1 X161.079 Y98.253 E.30147
G1 X160.797 Y99.389 E.0367
G1 X160.351 Y100.229 E.02982
G1 X159.595 Y101.025 E.03442
G1 X159.043 Y101.427 E.02141
G1 X157.522 Y101.925 E.05018
G1 X156.47 Y101.944 E.03299
G1 X156.848 Y102.542 E.02218
G1 X157.204 Y103.735 E.03904
G1 X157.224 Y113.372 E.30216
G1 X157.008 Y114.376 E.0322
G1 X156.524 Y115.33 E.03354
G1 X155.811 Y116.117 E.0333
G1 X155.176 Y116.557 E.02422
G1 X155.406 Y116.784 E.01013
G1 X155.99 Y117.686 E.03369
G1 X156.344 Y118.875 E.0389
G1 X156.365 Y128.51 E.3021
G1 X156.167 Y129.465 E.03058
G1 X155.727 Y130.378 E.03178
G1 X155.027 Y131.19 E.03361
G1 X154.14 Y131.8 E.03375
G1 X153.087 Y132.161 E.0349
G1 X148.379 Y132.22 E.14763
G1 X147.415 Y132.024 E.03084
G1 X146.482 Y131.573 E.03249
G1 X145.39 Y130.604 E.04578
G1 X145.088 Y131.324 E.02448
G1 X144.277 Y132.32 E.04027
G1 X143.231 Y133.01 E.03929
G1 X142.036 Y133.346 E.03892
G1 X130.297 Y133.355 E.36807
G1 X129.6 Y133.239 E.02215
G1 X128.558 Y132.797 E.03549
G1 X127.502 Y131.877 E.04391
G1 X126.884 Y130.846 E.03769
G1 X126.591 Y129.674 E.03788
G1 X126.591 Y89.698 E1.25342
G1 X125.296 Y89.04 E.04554
G1 X124.546 Y88.298 E.03308
G1 X123.825 Y89.037 E.03237
G1 X122.949 Y89.531 E.03153
G1 X122.949 Y129.573 E1.25549
G1 X122.829 Y130.346 E.02453
G1 X122.364 Y131.43 E.03698
G1 X121.654 Y132.285 E.03485
G1 X120.729 Y132.934 E.03543
G1 X119.375 Y133.346 E.04438
G1 X107.663 Y133.357 E.36722
G1 X106.939 Y133.24 E.023
G1 X105.897 Y132.797 E.0355
G1 X104.919 Y131.969 E.04018
G1 X104.247 Y130.903 E.03951
G1 X103.943 Y129.771 E.03675
G1 X103.929 Y128.646 E.03528
G1 X103.226 Y129.407 E.03248
G1 X102.45 Y129.934 E.02941
G1 X101.415 Y130.305 E.03447
G1 X96.604 Y130.37 E.15086
G1 X95.633 Y130.161 E.03114
G1 X94.748 Y129.726 E.03092
G1 X93.894 Y128.973 E.0357
G1 X93.258 Y127.97 E.03724
G1 X92.933 Y126.798 E.03813
G1 X92.918 Y117.268 E.29881
G1 X93.119 Y116.277 E.0317
G1 X93.621 Y115.234 E.03629
G1 X92.463 Y115.218 E.03631
G1 X91.471 Y114.954 E.03219
G1 X90.678 Y114.541 E.02803
G1 X89.84 Y113.754 E.03605
G1 X89.437 Y113.202 E.02143
G1 X88.921 Y111.567 E.05376
G1 X88.933 Y102.112 E.29646
G1 X89.203 Y101.07 E.03375
G1 X89.682 Y100.186 E.03152
G1 X90.407 Y99.434 E.03275
G1 X90.957 Y99.034 E.02132
G1 X91.915 Y98.707 E.03174
G1 X91.402 Y97.883 E.03043
G1 X91.053 Y96.66 E.03988
G1 X91.038 Y87.128 E.29887
G1 X91.239 Y86.137 E.0317
M73 P4 R28
G1 X91.572 Y85.446 E.02405
M204 S1000
G1 X91.572 Y85.446 F10800
G1 X91.91 Y85.611
M204 S800
G1 F1200
G1 X92.007 Y85.411 E.00697
G1 X92.647 Y84.677 E.03053
G1 X93.463 Y84.125 E.03089
M73 Q4 S28
G1 X94.422 Y83.805 E.0317
G1 X99.224 Y83.781 E.15057
G1 X99.979 Y83.972 E.02442
G1 X100.619 Y84.278 E.02224
M73 P4 R27
G1 X101.415 Y84.939 E.03244
G1 X101.417 Y80.414 E.14188
G1 X101.517 Y79.773 E.02034
G1 X101.938 Y78.78 E.03382
G1 X102.698 Y77.895 E.03658
G1 X103.621 Y77.313 E.03421
G1 X104.652 Y77.029 E.03353
G1 X121.73 Y77.023 E.53547
G1 X122.529 Y77.193 E.02561
G1 X123.27 Y77.532 E.02555
G1 X124.12 Y78.25 E.03489
G1 X124.536 Y78.836 E.02253
G1 X125.404 Y77.856 E.04105
G1 X126.286 Y77.311 E.03251
G1 X127.412 Y77.016 E.0365
G1 X144.353 Y77.019 E.53117
G1 X145.148 Y77.18 E.02543
G1 X145.883 Y77.503 E.02517
G1 X146.745 Y78.211 E.03498
G1 X147.284 Y78.968 E.02914
G1 X147.63 Y79.896 E.03105
G1 X147.699 Y86.131 E.19551
G1 X147.614 Y86.531 E.01282
G1 X147.864 Y86.665 E.00889
