; generated by PrusaSlicer 2.7.4+win64 on 2024-09-04 at 22:11:37 UTC


;
;
; 

; external perimeters extrusion width = 0.45mm
; perimeters extrusion width = 0.45mm
; infill extrusion width = 0.45mm
; solid infill extrusion width = 0.45mm
; top infill extrusion width = 0.40mm
; support material extrusion width = 0.35mm
; first layer extrusion width = 0.42mm

; external perimeters extrusion width = 0.45mm
; perimeters extrusion width = 0.45mm
; infill extrusion width = 0.45mm
; solid infill extrusion width = 0.45mm
; top infill extrusion width = 0.40mm
; support material extrusion width = 0.35mm
; first layer extrusion width = 0.42mm

; external perimeters extrusion width = 0.45mm
; perimeters extrusion width = 0.45mm
; infill extrusion width = 0.45mm
; solid infill extrusion width = 0.45mm
; top infill extrusion width = 0.40mm
; support material extrusion width = 0.35mm
; first layer extrusion width = 0.42mm

; external perimeters extrusion width = 0.45mm
; perimeters extrusion width = 0.45mm
; infill extrusion width = 0.45mm
; solid infill extrusion width = 0.45mm
; top infill extrusion width = 0.40mm
; support material extrusion width = 0.35mm
; first layer extrusion width = 0.42mm

; external perimeters extrusion width = 0.45mm
; perimeters extrusion width = 0.45mm
; infill extrusion width = 0.45mm
; solid infill extrusion width = 0.45mm
; top infill extrusion width = 0.40mm
; support material extrusion width = 0.35mm
; first layer extrusion width = 0.42mm

; external perimeters extrusion width = 0.45mm
; perimeters extrusion width = 0.45mm
; infill extrusion width = 0.45mm
; solid infill extrusion width = 0.45mm
; top infill extrusion width = 0.40mm
; support material extrusion width = 0.35mm
; first layer extrusion width = 0.42mm

M73 P0 R14
M73 Q0 S14
M201 X1000 Y1000 Z200 E5000 ; sets maximum accelerations, mm/sec^2
M203 X200 Y200 Z12 E120 ; sets maximum feedrates, mm / sec
M204 S1250 T1250 ; sets acceleration (S) and retract acceleration (R), mm/sec^2
M205 X8.00 Y8.00 Z0.40 E4.50 ; sets the jerk limits, mm/sec
M205 S0 T0 ; sets the minimum extruding and travel feed rate, mm/sec

; printing object spacerCube.stl id:1 copy 0
; stop printing object spacerCube.stl id:1 copy 0
; printing object spacerCube.stl id:0 copy 0
; stop printing object spacerCube.stl id:0 copy 0
; printing object twoWiresLimiter.stl id:3 copy 0
; stop printing object twoWiresLimiter.stl id:3 copy 0
; printing object twoWiresLimiter.stl id:4 copy 0
; stop printing object twoWiresLimiter.stl id:4 copy 0
; printing object spacerCube.stl id:2 copy 0
; stop printing object spacerCube.stl id:2 copy 0
; printing object spacerCube.stl id:5 copy 0
; stop printing object spacerCube.stl id:5 copy 0

;TYPE:Custom
M862.3 P "MK3S" ; printer model check
M862.1 P0.4 ; nozzle diameter check
M115 U3.13.3 ; tell printer latest fw version
G90 ; use absolute coordinates
M83 ; extruder relative mode
M104 S215 ; set extruder temp
M140 S60 ; set bed temp
M190 S60 ; wait for bed temp
M109 S215 ; wait for extruder temp
G28 W ; home all without mesh bed level
G80 X100.534 Y85.4644 W48.9312 H39.0712 ; mesh bed levelling

G1 Z0.2 F720
G1 Y-3 F1000 ; go outside print area
G92 E0
G1 X60 E9 F1000 ; intro line
G1 X100 E12.5 F1000 ; intro line

G92 E0
M221 S95

; Don't change E values below. Excessive value can damage the printer.
M907 E430 ; set extruder motor current
G21 ; set units to millimeters
G90 ; use absolute coordinates
M83 ; use relative distances for extrusion

M900 K0.05 ; Filament gcode LA 1.5
M900 K30 ; Filament gcode LA 1.0




M107
;LAYER_CHANGE
;Z:0.2
;HEIGHT:0.2
G1 E-.8 F2100
G1 Z.6 F720
G1 X101.419 Y89.337 F10800
G1 Z.2 F720
G1 E.8 F2100
M204 S800
;TYPE:Skirt/Brim
;WIDTH:0.42
G1 F1200
G1 X104.407 Y86.349 E.13249
G1 X106.088 Y85.653 E.05705
G1 X136.088 Y85.653 E.94063
G1 X143.912 Y85.653 E.24532
M73 P1 R14
M73 Q1 S14
G1 X145.593 Y86.349 E.05705
G1 X148.581 Y89.337 E.13249
G1 X149.277 Y91.018 E.05705
G1 X149.277 Y103.982 E.40648
G1 X148.756 Y105.467 E.04934
G1 X136.756 Y120.467 E.6023
G1 X133.593 Y123.651 E.14072
G1 X131.912 Y124.347 E.05705
G1 X108.088 Y124.347 E.74698
G1 X106.407 Y123.651 E.05705
G1 X103.419 Y120.663 E.13249
G1 X102.744 Y119.297 E.04777
G1 X100.744 Y104.297 E.47448
G1 X100.723 Y91.018 E.41635
G1 X101.396 Y89.392 E.05518
M204 S1000
;WIPE_START
G1 F8640
G1 X101.419 Y89.337 E-.01377
G1 X103.826 Y86.929 E-.78623
;WIPE_END
G1 Z.6 F720
G1 X104.039 Y90.762 F10800
G1 Z.2 F720
G1 E.8 F2100
M204 S800
G1 F1200
G1 X104.246 Y90.361 E.01415
G1 X105.096 Y89.438 E.03934
G1 X106.09 Y88.79 E.0372
G1 X107.313 Y88.385 E.04039
G1 X112.654 Y88.376 E.16746
G1 X113.533 Y88.625 E.02864
G1 X114.327 Y89.014 E.02772
G1 X114.957 Y89.535 E.02563
G1 X116.037 Y88.816 E.04068
G1 X117.231 Y88.4 E.03964
G1 X122.531 Y88.359 E.16618
G1 X123.446 Y88.593 E.02961
G1 X124.272 Y88.98 E.0286
G1 X124.955 Y89.537 E.02763
G1 X126.04 Y88.815 E.04086
G1 X127.296 Y88.389 E.04158
G1 X132.588 Y88.366 E.16593
G1 X133.453 Y88.596 E.02806
G1 X134.274 Y88.981 E.02843
G1 X134.953 Y89.535 E.02748
G1 X135.992 Y88.839 E.03921
G1 X137.362 Y88.378 E.04532
G1 X142.496 Y88.354 E.16097
M73 Q2 S14
G1 X143.417 Y88.583 E.02976
M73 P2 R14
G1 X144.263 Y88.975 E.02923
G1 X145.46 Y89.99 E.04921
G1 X146.183 Y91.113 E.04188
G1 X146.581 Y92.465 E.04419
G1 X146.614 Y102.216 E.30574
G1 X146.316 Y103.571 E.0435
G1 X145.747 Y104.648 E.03819
G1 X144.937 Y105.533 E.03762
G1 X143.964 Y106.184 E.03671
G1 X142.827 Y106.589 E.03784
G1 X137.758 Y106.673 E.15896
G1 X136.614 Y106.428 E.03668
G1 X135.542 Y105.899 E.03748
G1 X135.037 Y105.462 E.02094
G1 X134.136 Y106.09 E.03444
G1 X134.599 Y107.734 E.05355
G1 X134.603 Y117.377 E.30235
G1 X134.299 Y118.6 E.03951
G1 X133.84 Y119.521 E.03226
G1 X132.869 Y120.582 E.0451
G1 X131.98 Y121.177 E.03354
G1 X130.244 Y121.683 E.0567
G1 X122.782 Y121.683 E.23397
G1 X121.335 Y121.317 E.0468
G1 X120.447 Y120.839 E.03162
G1 X120.011 Y120.44 E.01853
G1 X119.044 Y121.147 E.03756
G1 X117.305 Y121.675 E.05698
G1 X109.783 Y121.684 E.23585
G1 X108.336 Y121.317 E.04681
G1 X107.367 Y120.78 E.03474
G1 X106.406 Y119.842 E.04211
G1 X105.896 Y119.058 E.02933
G1 X105.412 Y117.482 E.05169
G1 X105.387 Y107.852 E.30194
G1 X105.718 Y106.494 E.04383
G1 X105.919 Y106.082 E.01437
G1 X105.413 Y105.811 E.018
G1 X104.47 Y104.928 E.04051
G1 X103.792 Y103.83 E.04046
G1 X103.423 Y102.559 E.0415
G1 X103.386 Y92.784 E.30649
G1 X103.662 Y91.489 E.04152
G1 X104.011 Y90.815 E.0238
M204 S1000
G1 X104.011 Y90.815 F10800
G1 X104.343 Y90.985
M204 S800
G1 F1200
G1 X104.542 Y90.596 E.0137
G1 X105.324 Y89.74 E.03635
G1 X106.233 Y89.14 E.03415
G1 X107.402 Y88.753 E.03861
G1 X112.578 Y88.746 E.16229
G1 X113.383 Y88.972 E.02622
G1 X114.139 Y89.342 E.02639
G1 X115.012 Y90.075 E.03574
G1 X115.364 Y89.705 E.01601
G1 X116.186 Y89.163 E.03087
G1 X117.267 Y88.777 E.03599
G1 X122.463 Y88.73 E.16292
G1 X123.302 Y88.942 E.02713
G1 X124.09 Y89.311 E.02728
G1 X125.012 Y90.076 E.03756
G1 X125.364 Y89.705 E.01604
G1 X126.186 Y89.163 E.03087
G1 X127.33 Y88.766 E.03797
G1 X132.516 Y88.737 E.16261
G1 X133.339 Y88.955 E.02669
G1 X134.091 Y89.311 E.02609
G1 X135.009 Y90.073 E.03741
G1 X135.324 Y89.739 E.0144
G1 X136.14 Y89.187 E.03089
G1 X137.395 Y88.754 E.04163
G1 X142.473 Y88.732 E.15922
G1 X143.308 Y88.944 E.02701
G1 X144.041 Y89.28 E.02528
G1 X145.16 Y90.22 E.04582
G1 X145.83 Y91.248 E.03847
G1 X146.204 Y92.494 E.04079
G1 X146.237 Y102.197 E.30423
G1 X145.97 Y103.419 E.03922
M73 P2 R13
G1 X145.451 Y104.413 E.03516
G1 X144.707 Y105.234 E.03474
G1 X143.814 Y105.837 E.03379
G1 X142.729 Y106.224 E.03612
G1 X137.814 Y106.3 E.15412
M73 Q3 S14
G1 X136.759 Y106.079 E.0338
M73 P3 R13
G1 X135.733 Y105.573 E.03587
G1 X135.001 Y104.922 E.03071
G1 X134.718 Y105.224 E.01298
G1 X133.911 Y105.787 E.03085
G1 X133.551 Y105.937 E.01223
G1 X133.842 Y106.414 E.01752
G1 X134.222 Y107.76 E.04385
G1 X134.231 Y117.308 E.29937
G1 X133.938 Y118.489 E.03815
G1 X133.516 Y119.327 E.02942
G1 X132.607 Y120.31 E.04198
G1 X131.845 Y120.824 E.02882
G1 X130.216 Y121.306 E.05327
G1 X122.806 Y121.306 E.23234
G1 X121.494 Y120.974 E.04243
G1 X120.649 Y120.519 E.03009
G1 X119.999 Y119.908 E.02797
G1 X119.575 Y120.337 E.01891
G1 X118.905 Y120.795 E.02545
G1 X117.276 Y121.298 E.05346
M73 Q3 S13
G1 X109.806 Y121.306 E.23422
G1 X108.496 Y120.975 E.04236
G1 X107.611 Y120.491 E.03163
G1 X106.708 Y119.616 E.03942
G1 X106.248 Y118.92 E.02616
G1 X105.78 Y117.398 E.04993
G1 X105.764 Y107.875 E.29859
G1 X106.079 Y106.608 E.04094
G1 X106.429 Y105.917 E.02429
G1 X105.648 Y105.515 E.02754
G1 X104.777 Y104.708 E.03723
G1 X104.126 Y103.654 E.03884
G1 X103.793 Y102.481 E.03823
G1 X103.764 Y92.802 E.30348
G1 X104.009 Y91.638 E.0373
G1 X104.316 Y91.039 E.0211
M204 S1000
G1 X104.316 Y91.039 F10800
G1 X104.649 Y91.207
M204 S800
G1 F1200
G1 X104.839 Y90.83 E.01324
G1 X105.554 Y90.039 E.03343
G1 X106.376 Y89.49 E.03099
G1 X107.492 Y89.12 E.03686
G1 X112.501 Y89.116 E.15705
G1 X113.264 Y89.33 E.02485
G1 X113.951 Y89.67 E.02403
G1 X115.012 Y90.637 E.04501
G1 X115.592 Y90.006 E.02687
G1 X116.375 Y89.49 E.0294
G1 X117.303 Y89.153 E.03096
G1 X122.394 Y89.102 E.15963
G1 X123.192 Y89.303 E.0258
G1 X123.906 Y89.641 E.02477
G1 X125.012 Y90.636 E.04665
G1 X125.592 Y90.006 E.02685
G1 X126.374 Y89.49 E.02938
G1 X127.364 Y89.143 E.03289
G1 X132.445 Y89.108 E.15931
G1 X133.194 Y89.304 E.02428
G1 X133.907 Y89.641 E.02473
G1 X135.012 Y90.634 E.04658
G1 X135.555 Y90.038 E.02528
G1 X136.331 Y89.513 E.02938
G1 X137.428 Y89.131 E.03642
G1 X142.45 Y89.109 E.15746
G1 X143.195 Y89.304 E.02415
G1 X143.86 Y89.612 E.02298
G1 X144.861 Y90.451 E.04095
G1 X145.478 Y91.386 E.03512
G1 X145.827 Y92.524 E.03732
G1 X145.859 Y102.178 E.3027
G1 X145.624 Y103.267 E.03493
G1 X145.129 Y104.216 E.03356
G1 X144.445 Y104.962 E.03173
G1 X143.625 Y105.51 E.03092
G1 X142.634 Y105.858 E.03293
G1 X137.869 Y105.927 E.14942
G1 X136.903 Y105.73 E.03091
G1 X135.924 Y105.247 E.03423
G1 X134.973 Y104.386 E.04022
G1 X134.484 Y104.928 E.02289
G1 X133.717 Y105.463 E.02932
G1 X132.976 Y105.746 E.02487
G1 X133.488 Y106.547 E.02981
G1 X133.845 Y107.788 E.04049
G1 X133.859 Y117.24 E.29636
G1 X133.577 Y118.376 E.0367
G1 X133.192 Y119.131 E.02657
G1 X132.347 Y120.036 E.03882
G1 X131.66 Y120.495 E.02591
G1 X130.189 Y120.929 E.04809
G1 X122.829 Y120.929 E.23077
M73 Q4 S13
G1 X121.652 Y120.631 E.03807
M73 P4 R13
G1 X120.851 Y120.199 E.02853
G1 X119.989 Y119.374 E.03741
G1 X119.344 Y120.04 E.02907
G1 X118.763 Y120.445 E.02221
G1 X117.247 Y120.921 E.04982
G1 X109.83 Y120.929 E.23255
G1 X108.653 Y120.632 E.03806
G1 X107.853 Y120.201 E.02849
G1 X107.009 Y119.388 E.03674
G1 X106.6 Y118.782 E.02292
G1 X106.149 Y117.314 E.04815
G1 X106.141 Y107.898 E.29523
G1 X106.439 Y106.722 E.03804
G1 X106.988 Y105.774 E.03435
G1 X105.883 Y105.219 E.03877
G1 X105.083 Y104.486 E.03402
G1 X104.482 Y103.525 E.03554
G1 X104.162 Y102.403 E.03658
G1 X104.141 Y92.821 E.30044
G1 X104.357 Y91.785 E.03318
G1 X104.622 Y91.26 E.01844
M204 S1000
G1 X104.622 Y91.26 F10800
G1 X104.956 Y91.427
M204 S800
G1 F1200
G1 X105.138 Y91.061 E.01282
G1 X105.785 Y90.338 E.03042
G1 X106.523 Y89.838 E.02795
G1 X107.525 Y89.497 E.03319
G1 X112.426 Y89.486 E.15367
G1 X113.113 Y89.676 E.02235
G1 X113.762 Y89.997 E.0227
G1 X114.566 Y90.687 E.03322
G1 X114.961 Y91.258 E.02177
G1 X115.82 Y90.307 E.04018
G1 X116.563 Y89.817 E.02791
G1 X117.4 Y89.519 E.02786
G1 X122.327 Y89.473 E.15449
G1 X123.048 Y89.652 E.02329
G1 X123.722 Y89.971 E.02338
G1 X124.566 Y90.687 E.0347
G1 X124.961 Y91.258 E.02177
G1 X125.82 Y90.307 E.04018
G1 X126.563 Y89.817 E.02791
G1 X127.4 Y89.519 E.02786
G1 X132.374 Y89.479 E.15596
G1 X133.081 Y89.664 E.02291
G1 X133.722 Y89.97 E.02227
G1 X134.566 Y90.687 E.03472
G1 X134.962 Y91.259 E.02181
G1 X135.787 Y90.336 E.03882
G1 X136.522 Y89.838 E.02784
G1 X137.462 Y89.508 E.03124
G1 X142.425 Y89.486 E.15561
G1 X143.08 Y89.663 E.02127
G1 X143.678 Y89.943 E.0207
G1 X144.563 Y90.683 E.03617
G1 X145.127 Y91.526 E.0318
G1 X145.45 Y92.554 E.03379
G1 X145.482 Y102.159 E.30116
G1 X145.277 Y103.118 E.03075
G1 X144.832 Y103.982 E.03047
G1 X144.214 Y104.663 E.02883
G1 X143.477 Y105.162 E.02791
G1 X142.538 Y105.492 E.03121
G1 X137.922 Y105.553 E.14474
G1 X137.047 Y105.381 E.02796
G1 X136.115 Y104.921 E.03259
G1 X135.352 Y104.22 E.03249
G1 X135.043 Y103.734 E.01806
G1 X134.249 Y104.632 E.03758
G1 X133.522 Y105.139 E.02779
G1 X132.315 Y105.587 E.04037
G1 X132.6 Y105.864 E.01246
G1 X133.134 Y106.681 E.0306
G1 X133.468 Y107.816 E.0371
G1 X133.482 Y117.217 E.29476
G1 X133.217 Y118.262 E.0338
G1 X132.87 Y118.934 E.02371
G1 X132.087 Y119.762 E.03573
G1 X131.523 Y120.142 E.02132
G1 X130.161 Y120.552 E.0446
G1 X122.852 Y120.552 E.22917
G1 X121.808 Y120.287 E.03377
G1 X121.092 Y119.909 E.02539
G1 X120.306 Y119.155 E.03415
G1 X120 Y118.732 E.01637
G1 X119.086 Y119.764 E.04322
G1 X118.573 Y120.118 E.01954
G1 X117.218 Y120.544 E.04454
G1 X109.853 Y120.552 E.23092
G1 X108.809 Y120.288 E.03376
G1 X108.094 Y119.91 E.02536
G1 X107.307 Y119.157 E.03415
G1 X106.952 Y118.643 E.01959
G1 X106.518 Y117.231 E.04632
G1 X106.518 Y107.923 E.29185
G1 X106.798 Y106.839 E.0351
M73 P5 R13
M73 Q5 S13
G1 X107.13 Y106.206 E.02241
G1 X107.754 Y105.533 E.02878
G1 X107.048 Y105.381 E.02264
G1 X106.115 Y104.921 E.03262
G1 X105.387 Y104.261 E.03081
G1 X104.837 Y103.395 E.03217
G1 X104.532 Y102.325 E.03489
G1 X104.518 Y92.84 E.2974
G1 X104.706 Y91.93 E.02913
G1 X104.929 Y91.48 E.01575
M204 S1000
G1 X104.929 Y91.48 F10800
G1 X105.265 Y91.644
M204 S800
G1 F1200
G1 X105.437 Y91.293 E.01226
G1 X106.05 Y90.607 E.02885
G1 X106.712 Y90.165 E.02496
G1 X107.558 Y89.874 E.02805
G1 X112.352 Y89.857 E.15031
G1 X112.966 Y90.024 E.01995
G1 X113.536 Y90.299 E.01984
G1 X114.3 Y90.955 E.03157
G1 X114.779 Y91.671 E.02701
G1 X114.976 Y92.209 E.01796
G1 X115.464 Y91.253 E.03365
G1 X116.049 Y90.608 E.0273
G1 X116.712 Y90.165 E.025
G1 X117.496 Y89.885 E.0261
G1 X122.304 Y89.851 E.15076
G1 X122.935 Y90.012 E.02042
G1 X123.536 Y90.3 E.0209
G1 X124.3 Y90.955 E.03155
G1 X124.779 Y91.671 E.02701
G1 X124.976 Y92.209 E.01796
G1 X125.464 Y91.253 E.03365
G1 X126.049 Y90.608 E.0273
G1 X126.712 Y90.165 E.025
G1 X127.496 Y89.885 E.0261
G1 X132.304 Y89.851 E.15076
G1 X132.935 Y90.012 E.02042
G1 X133.536 Y90.3 E.0209
G1 X134.3 Y90.955 E.03155
G1 X134.779 Y91.671 E.02701
G1 X134.976 Y92.209 E.01796
G1 X135.464 Y91.253 E.03365
G1 X136.049 Y90.608 E.0273
G1 X136.712 Y90.165 E.025
G1 X137.496 Y89.885 E.0261
G1 X142.353 Y89.857 E.15229
G1 X142.935 Y90.012 E.01888
G1 X143.496 Y90.274 E.01941
G1 X144.266 Y90.918 E.03147
G1 X144.777 Y91.668 E.02846
G1 X145.073 Y92.585 E.03021
G1 X145.105 Y102.141 E.29962
G1 X144.93 Y102.97 E.02657
G1 X144.536 Y103.748 E.02734
G1 X143.951 Y104.392 E.02728
G1 X143.288 Y104.835 E.025
G1 X142.444 Y105.125 E.02798
G1 X137.937 Y105.176 E.14132
G1 X137.191 Y105.031 E.02383
G1 X136.308 Y104.595 E.03088
G1 X135.63 Y103.964 E.02904
G1 X134.975 Y102.886 E.03955
G1 X134.536 Y103.748 E.03033
G1 X133.984 Y104.363 E.02591
G1 X133.329 Y104.815 E.02495
G1 X132.503 Y105.115 E.02755
G1 X131.192 Y105.145 E.04112
G1 X132.302 Y106.098 E.04587
G1 X132.804 Y106.865 E.02874
G1 X133.091 Y107.843 E.03196
G1 X133.105 Y117.193 E.29316
G1 X132.858 Y118.145 E.03084
G1 X132.549 Y118.734 E.02085
G1 X131.829 Y119.487 E.03267
G1 X131.384 Y119.791 E.0169
G1 X130.132 Y120.175 E.04106
G1 X122.877 Y120.175 E.22748
G1 X121.926 Y119.928 E.03081
G1 X121.295 Y119.589 E.02246
G1 X120.582 Y118.898 E.03113
G1 X120.303 Y118.503 E.01516
G1 X120.059 Y117.789 E.02366
G1 X119.52 Y118.775 E.03523
G1 X118.829 Y119.487 E.03111
G1 X118.384 Y119.791 E.0169
G1 X117.189 Y120.166 E.03927
G1 X109.877 Y120.175 E.22926
G1 X108.925 Y119.928 E.03084
G1 X108.336 Y119.619 E.02085
G1 X107.583 Y118.899 E.03267
G1 X107.279 Y118.454 E.0169
G1 X106.895 Y117.202 E.04106
G1 X106.895 Y107.947 E.29018
G1 X107.142 Y106.995 E.03084
G1 X107.451 Y106.405 E.02088
G1 X108.146 Y105.674 E.03163
G1 X108.48 Y105.433 E.01291
G1 X108.395 Y105.172 E.00861
G1 X107.899 Y105.172 E.01555
G1 X107.192 Y105.031 E.0226
G1 X106.307 Y104.595 E.03093
G1 X105.66 Y104.001 E.02754
G1 X105.191 Y103.263 E.02742
G1 X104.909 Y102.297 E.03155
