; generated by PrusaSlicer 2.8.0+win64 on 2024-08-22 at 15:22:42 UTC


;
;
; 

; external perimeters extrusion width = 0.60mm
; perimeters extrusion width = 0.50mm
; infill extrusion width = 0.50mm
; solid infill extrusion width = 0.50mm
; top infill extrusion width = 0.45mm
; support material extrusion width = 0.38mm
; first layer extrusion width = 0.42mm

M73 P0 R47
M73 Q0 S48
M201 X1000 Y1000 Z200 E5000 ; sets maximum accelerations, mm/sec^2
M203 X200 Y200 Z12 E120 ; sets maximum feedrates, mm / sec
M204 S1250 T1250 ; sets acceleration (S) and retract acceleration (R), mm/sec^2
M205 X8.00 Y8.00 Z0.40 E4.50 ; sets the jerk limits, mm/sec
M205 S0 T0 ; sets the minimum extruding and travel feed rate, mm/sec

; printing object longStellMaker v2.stl id:0 copy 0
; stop printing object longStellMaker v2.stl id:0 copy 0

;TYPE:Custom
M862.3 P "MK3S" ; printer model check
M862.1 P0.4 ; nozzle diameter check
M115 U3.13.3 ; tell printer latest fw version
G90 ; use absolute coordinates
M83 ; extruder relative mode
M104 S215 ; set extruder temp
M140 S60 ; set bed temp
M190 S60 ; wait for bed temp
M109 S215 ; wait for extruder temp
G28 W ; home all without mesh bed level
G80 X100.852 Y47.7229 W48.2951 H114.554 ; mesh bed levelling

G1 Z0.2 F720
G1 Y-3 F1000 ; go outside print area
G92 E0
G1 X60 E9 F1000 ; intro line
G1 X100 E12.5 F1000 ; intro line
M73 Q0 S47

G92 E0
M221 S95

; Don't change E values below. Excessive value can damage the printer.

M907 E538 ; set extruder motor current
G21 ; set units to millimeters
G90 ; use absolute coordinates
M83 ; use relative distances for extrusion

M900 K0.05 ; Filament gcode LA 1.5
M900 K30 ; Filament gcode LA 1.0




M107
;LAYER_CHANGE
;Z:0.2
;HEIGHT:0.2
G1 E-.8 F2100
M73 P0 R46
G1 Z.6 F720
G1 X101.682 Y51.54 F10800
G1 Z.2 F720
G1 E.8 F2100
M204 S800
;TYPE:Skirt/Brim
;WIDTH:0.42
G1 F1200
G1 X104.67 Y48.552 E.13249
G1 X106.217 Y47.911 E.0525
G1 X143.783 Y47.911 E1.17786
G1 X145.33 Y48.552 E.0525
G1 X148.318 Y51.54 E.13249
G1 X148.959 Y53.088 E.05253
G1 X148.959 Y156.912 E3.25533
G1 X148.318 Y158.46 E.05253
G1 X145.33 Y161.448 E.13249
G1 X143.783 Y162.089 E.0525
G1 X106.217 Y162.089 E1.17786
G1 X104.67 Y161.448 E.0525
G1 X101.682 Y158.46 E.13249
G1 X101.041 Y156.912 E.05253
G1 X101.041 Y53.088 E3.25533
G1 X101.659 Y51.595 E.05066
M204 S1000
;WIPE_START
G1 F8640
G1 X101.682 Y51.54 E-.01377
G1 X104.089 Y49.133 E-.78623
;WIPE_END
G1 Z.6 F720
G1 X104.023 Y53.066 F10800
G1 Z.2 F720
G1 E.8 F2100
M204 S800
G1 F1200
G1 X104.569 Y52.189 E.03239
G1 X105.449 Y51.325 E.03867
G1 X106.385 Y50.786 E.03387
G1 X107.462 Y50.45 E.03537
G1 X114.364 Y50.42 E.21641
G1 X115.275 Y50.637 E.02936
G1 X116.109 Y51.01 E.02865
G1 X117.213 Y51.894 E.04434
G1 X118.019 Y53.044 E.04403
G1 X118.431 Y54.289 E.04112
G1 X118.713 Y54.279 E.00885
G1 X118.945 Y53.372 E.02935
G1 X119.636 Y52.2 E.04266
G1 X120.562 Y51.306 E.04036
G1 X121.411 Y50.808 E.03086
G1 X122.688 Y50.432 E.04174
G1 X127.368 Y50.435 E.14674
G1 X128.235 Y50.663 E.02811
G1 X129.012 Y51.019 E.0268
G1 X130.105 Y51.899 E.044
G1 X130.97 Y53.179 E.04844
G1 X131.299 Y54.362 E.0385
G1 X131.585 Y54.363 E.00897
G1 X131.927 Y53.154 E.03939
G1 X132.536 Y52.189 E.03578
G1 X133.416 Y51.326 E.03865
G1 X134.389 Y50.77 E.03514
G1 X135.484 Y50.441 E.03585
G1 X142.376 Y50.425 E.21609
G1 X143.242 Y50.636 E.02795
G1 X144.077 Y51.01 E.02869
G1 X145.181 Y51.894 E.04434
G1 X145.987 Y53.044 E.04403
G1 X146.427 Y54.382 E.04416
G1 X146.484 Y65.234 E.34026
G1 X146.063 Y66.796 E.05072
G1 X145.428 Y67.815 E.03765
G1 X144.459 Y68.743 E.04207
G1 X143.464 Y69.275 E.03538
G1 X142.395 Y69.573 E.0348
G1 X135.863 Y69.614 E.20481
G1 X134.301 Y69.192 E.05073
G1 X133.244 Y68.526 E.03917
G1 X132.319 Y67.539 E.04241
G1 X131.728 Y66.273 E.04381
G1 X131.403 Y66.319 E.01029
G1 X131.403 Y143.795 E2.42921
G1 X131.727 Y143.841 E.01026
M73 P1 R46
M73 Q1 S47
G1 X131.926 Y143.155 E.0224
G1 X132.536 Y142.189 E.03582
G1 X133.416 Y141.326 E.03865
G1 X134.389 Y140.77 E.03514
G1 X135.484 Y140.441 E.03585
G1 X142.376 Y140.425 E.21609
G1 X143.242 Y140.636 E.02795
G1 X144.077 Y141.01 E.02869
G1 X145.18 Y141.894 E.04432
G1 X146.01 Y143.093 E.04572
G1 X146.436 Y144.438 E.04424
G1 X146.484 Y155.234 E.3385
G1 X146.063 Y156.796 E.05072
G1 X145.428 Y157.815 E.03765
G1 X144.499 Y158.713 E.04051
G1 X143.464 Y159.275 E.03693
G1 X142.346 Y159.58 E.03634
G1 X135.863 Y159.614 E.20327
G1 X134.301 Y159.192 E.05073
G1 X133.208 Y158.497 E.04061
G1 X132.319 Y157.54 E.04096
G1 X131.814 Y156.573 E.03421
G1 X131.585 Y155.694 E.02848
G1 X131.293 Y155.695 E.00916
G1 X131.058 Y156.621 E.02995
G1 X130.413 Y157.74 E.0405
G1 X129.5 Y158.646 E.04033
G1 X128.672 Y159.155 E.03047
G1 X127.257 Y159.578 E.04631
G1 X123.013 Y159.615 E.13307
G1 X121.509 Y159.234 E.04865
G1 X120.169 Y158.375 E.04991
G1 X119.207 Y157.195 E.04774
G1 X118.701 Y155.61 E.05217
G1 X118.42 Y155.615 E.00881
G1 X118.073 Y156.846 E.0401
G1 X117.433 Y157.85 E.03733
G1 X116.532 Y158.713 E.03912
G1 X115.497 Y159.275 E.03693
G1 X114.379 Y159.58 E.03634
G1 X107.896 Y159.614 E.20327
G1 X106.333 Y159.192 E.05076
G1 X105.276 Y158.526 E.03917
G1 X104.381 Y157.581 E.04081
G1 X103.832 Y156.533 E.03709
G1 X103.528 Y155.312 E.03945
G1 X103.516 Y144.763 E.33076
G1 X103.937 Y143.204 E.05063
G1 X104.568 Y142.189 E.03747
G1 X105.486 Y141.297 E.04013
G1 X106.422 Y140.77 E.03368
G1 X107.462 Y140.45 E.03412
G1 X114.364 Y140.42 E.21641
G1 X115.275 Y140.637 E.02936
G1 X116.109 Y141.01 E.02865
G1 X117.213 Y141.894 E.04434
G1 X118.02 Y143.045 E.04408
G1 X118.281 Y143.821 E.02567
G1 X118.597 Y143.769 E.01004
G1 X118.597 Y66.205 E2.43196
G1 X118.273 Y66.159 E.01026
G1 X118.074 Y66.845 E.0224
G1 X117.461 Y67.815 E.03598
G1 X116.532 Y68.714 E.04053
G1 X115.535 Y69.26 E.03564
G1 X114.428 Y69.573 E.03607
G1 X107.896 Y69.614 E.20481
G1 X106.334 Y69.192 E.05073
G1 X105.241 Y68.497 E.04061
G1 X104.352 Y67.54 E.04096
G1 X103.832 Y66.534 E.03551
G1 X103.528 Y65.312 E.03948
G1 X103.516 Y54.763 E.33076
G1 X103.937 Y53.204 E.05063
G1 X103.992 Y53.117 E.00323
M204 S1000
;WIPE_START
G1 F8640
G1 X104.023 Y53.066 E-.01378
G1 X104.569 Y52.189 E-.23854
G1 X105.449 Y51.325 E-.28476
G1 X106.385 Y50.786 E-.2494
G1 X106.441 Y50.769 E-.01352
;WIPE_END
G1 Z.6 F720
G1 X107.546 Y140.818 F10800
G1 Z.2 F720
G1 E.8 F2100
M204 S800
G1 F1200
G1 X114.342 Y140.797 E.21308
G1 X115.168 Y140.999 E.02666
G1 X115.932 Y141.343 E.02627
G1 X116.955 Y142.17 E.04125
G1 X117.693 Y143.235 E.04063
G1 X118.092 Y144.469 E.04066
G1 X118.14 Y155.209 E.33675
G1 X117.739 Y156.669 E.04747
G1 X117.155 Y157.594 E.0343
G1 X116.29 Y158.423 E.03757
G1 X115.375 Y158.918 E.03262
G1 X114.351 Y159.203 E.03333
G1 X107.92 Y159.237 E.20164
G1 X106.461 Y158.836 E.04744
G1 X105.5 Y158.222 E.03576
G1 X104.674 Y157.342 E.03784
G1 X104.192 Y156.419 E.03265
G1 X103.905 Y155.287 E.03662
G1 X103.893 Y144.788 E.32919
G1 X104.293 Y143.331 E.04737
G1 X104.875 Y142.409 E.03419
G1 X105.694 Y141.613 E.03581
G1 X106.553 Y141.124 E.03099
G1 X107.489 Y140.836 E.03071
M204 S1000
G1 X107.598 Y141.196 F10800
M204 S800
G1 F1200
G1 X107.629 Y141.187 E.00101
G1 X114.276 Y141.169 E.20841
G1 X115.029 Y141.35 E.02428
G1 X115.754 Y141.677 E.02494
G1 X116.695 Y142.444 E.03806
G1 X117.366 Y143.425 E.03727
G1 X117.724 Y144.555 E.03717
G1 X117.762 Y155.184 E.33327
G1 X117.384 Y156.539 E.04411
G1 X116.851 Y157.37 E.03095
G1 X116.049 Y158.132 E.03469
G1 X115.217 Y158.575 E.02955
G1 X114.276 Y158.832 E.03058
G1 X107.945 Y158.859 E.19851
G1 X106.59 Y158.481 E.04411
G1 X105.759 Y157.947 E.03097
G1 X104.966 Y157.103 E.03631
G1 X104.552 Y156.305 E.02819
G1 X104.276 Y155.217 E.03519
G1 X104.27 Y144.814 E.32618
G1 X104.649 Y143.461 E.04406
G1 X105.18 Y142.632 E.03087
G1 X105.938 Y141.902 E.033
G1 X106.719 Y141.464 E.02808
G1 X107.541 Y141.214 E.02694
M204 S1000
G1 X107.649 Y141.575 F10800
M204 S800
G1 F1200
G1 X107.711 Y141.556 E.00203
G1 X114.209 Y141.541 E.20374
G1 X114.923 Y141.712 E.02302
G1 X115.574 Y142.009 E.02244
G1 X116.433 Y142.717 E.0349
G1 X117.037 Y143.611 E.03383
G1 X117.355 Y144.639 E.03374
G1 X117.385 Y155.158 E.32982
G1 X117.029 Y156.408 E.04075
G1 X116.575 Y157.112 E.02627
G1 X115.808 Y157.841 E.03318
G1 X115.098 Y158.217 E.02519
G1 X114.201 Y158.462 E.02916
G1 X107.971 Y158.482 E.19534
G1 X106.721 Y158.126 E.04075
G1 X106.018 Y157.672 E.02624
G1 X105.259 Y156.864 E.03476
G1 X104.912 Y156.192 E.02371
G1 X104.647 Y155.148 E.03377
G1 X104.647 Y144.841 E.32317
G1 X105.003 Y143.592 E.04072
G1 X105.457 Y142.889 E.02624
G1 X106.181 Y142.191 E.03153
G1 X106.882 Y141.804 E.02511
G1 X107.591 Y141.592 E.0232
M204 S1000
G1 X107.591 Y141.592 F10800
G1 X107.698 Y141.953
M204 S800
G1 F1200
G1 X107.791 Y141.926 E.00304
G1 X114.145 Y141.913 E.19923
G1 X114.784 Y142.063 E.02058
G1 X115.394 Y142.341 E.02102
G1 X116.17 Y142.988 E.03168
G1 X116.707 Y143.796 E.03042
G1 X116.986 Y144.721 E.03029
G1 X117.008 Y155.131 E.3264
G1 X116.675 Y156.275 E.03736
G1 X116.299 Y156.854 E.02165
G1 X115.568 Y157.549 E.03163
G1 X114.979 Y157.858 E.02085
G1 X114.125 Y158.092 E.02776
G1 X107.998 Y158.105 E.19211
G1 X106.854 Y157.772 E.03736
G1 X106.276 Y157.396 E.02162
G1 X105.58 Y156.665 E.03165
G1 X105.271 Y156.075 E.02088
G1 X105.024 Y155.123 E.03084
G1 X105.024 Y144.868 E.32154
G1 X105.357 Y143.725 E.03733
G1 X105.734 Y143.146 E.02166
G1 X106.424 Y142.481 E.03005
G1 X107.043 Y142.145 E.02208
G1 X107.64 Y141.97 E.01951
M204 S1000
G1 X107.746 Y142.332 F10800
M204 S800
G1 F1200
G1 X107.871 Y142.295 E.00409
G1 X114.08 Y142.285 E.19468
G1 X114.679 Y142.426 E.01929
G1 X115.212 Y142.672 E.01841
G1 X115.905 Y143.258 E.02846
G1 X116.376 Y143.978 E.02698
G1 X116.617 Y144.8 E.02686
G1 X116.631 Y155.104 E.32307
G1 X116.322 Y156.14 E.0339
G1 X116.022 Y156.597 E.01714
G1 X115.366 Y157.229 E.02856
G1 X114.859 Y157.5 E.01803
G1 X114.05 Y157.721 E.0263
G1 X108.026 Y157.728 E.18888
G1 X106.989 Y157.419 E.03393
G1 X106.533 Y157.119 E.01711
G1 X105.9 Y156.463 E.02858
G1 X105.63 Y155.956 E.01801
G1 X105.401 Y155.098 E.02784
G1 X105.401 Y144.896 E.31988
G1 X105.71 Y143.86 E.0339
G1 X106.01 Y143.403 E.01714
M73 P2 R46
G1 X106.666 Y142.771 E.02856
G1 X107.168 Y142.502 E.01786
G1 X107.689 Y142.349 E.01703
M204 S1000
G1 X107.689 Y142.349 F10800
G1 X107.795 Y142.71
M204 S800
G1 F1200
G1 X107.952 Y142.664 E.00513
G1 X114.017 Y142.657 E.19016
G1 X114.539 Y142.776 E.01679
G1 X115.029 Y143.003 E.01693
G1 X115.637 Y143.525 E.02513
G1 X116.043 Y144.156 E.02353
G1 X116.247 Y144.877 E.02349
M73 Q2 S47
G1 X116.254 Y155.075 E.31975
G1 X115.97 Y156.003 E.03043
G1 X115.745 Y156.341 E.01273
G1 X115.162 Y156.912 E.02559
G1 X114.737 Y157.142 E.01515
G1 X113.975 Y157.351 E.02477
G1 X108.054 Y157.351 E.18565
G1 X107.127 Y157.067 E.0304
G1 X106.788 Y156.842 E.01276
G1 X106.218 Y156.259 E.02556
G1 X105.987 Y155.834 E.01517
G1 X105.779 Y155.072 E.02477
G1 X105.779 Y144.925 E.31815
G1 X106.062 Y143.997 E.03042
G1 X106.288 Y143.659 E.01275
G1 X106.871 Y143.088 E.02559
G1 X107.294 Y142.858 E.0151
G1 X107.738 Y142.727 E.01451
M204 S1000
G1 X107.738 Y142.727 F10800
G1 X107.844 Y143.089
M204 S800
G1 F1200
G1 X108.032 Y143.034 E.00614
G1 X113.957 Y143.03 E.18577
G1 X114.4 Y143.127 E.01422
G1 X114.846 Y143.334 E.01542
G1 X115.369 Y143.791 E.02178
G1 X115.688 Y144.286 E.01846
G1 X115.877 Y144.955 E.0218
G1 X115.877 Y155.045 E.31636
G1 X115.62 Y155.861 E.02682
G1 X114.954 Y156.596 E.0311
G1 X114.612 Y156.786 E.01227
G1 X113.948 Y156.974 E.02164
G1 X108.084 Y156.974 E.18386
G1 X107.268 Y156.717 E.02682
G1 X106.534 Y156.051 E.03108
G1 X106.343 Y155.709 E.01228
G1 X106.156 Y155.045 E.02163
G1 X106.156 Y144.955 E.31636
G1 X106.413 Y144.139 E.02682
G1 X107.078 Y143.404 E.03108
G1 X107.421 Y143.213 E.01231
G1 X107.787 Y143.106 E.01196
M204 S1000
G1 X107.787 Y143.106 F10800
G1 X107.927 Y143.474
M204 S800
G1 F1200
G1 X108.113 Y143.403 E.00624
G1 X113.934 Y143.407 E.18251
G1 X114.659 Y143.662 E.0241
M73 Q2 S46
G1 X115.099 Y144.054 E.01848
G1 X115.334 Y144.42 E.01364
G1 X115.5 Y144.983 E.0184
G1 X115.5 Y155.016 E.31458
G1 X115.291 Y155.675 E.02168
G1 X114.743 Y156.282 E.02564
G1 X113.92 Y156.597 E.02763
G1 X108.113 Y156.597 E.18207
G1 X107.454 Y156.388 E.02168
G1 X106.847 Y155.84 E.02564
G1 X106.533 Y155.017 E.02762
G1 X106.533 Y144.984 E.31458
G1 X106.741 Y144.325 E.02167
G1 X107.289 Y143.718 E.02564
G1 X107.871 Y143.495 E.01954
M204 S1000
G1 X107.871 Y143.495 F10800
G1 X108.003 Y143.834
M204 S800
G1 F1200
G1 X108.142 Y143.78 E.00468
G1 X113.912 Y143.784 E.18091
G1 X114.471 Y143.991 E.01869
G1 X114.982 Y144.557 E.02391
G1 X115.123 Y145.012 E.01494
G1 X115.123 Y154.987 E.31276
G1 X114.899 Y155.589 E.02014
G1 X114.348 Y156.079 E.02312
G1 X113.891 Y156.22 E.015
G1 X108.143 Y156.22 E.18022
G1 X107.541 Y155.996 E.02014
G1 X107.051 Y155.445 E.02312
G1 X106.91 Y154.988 E.015
G1 X106.91 Y145.013 E.31276
G1 X107.072 Y144.507 E.01666
M73 P2 R45
G1 X107.505 Y144.028 E.02025
G1 X107.947 Y143.856 E.01487
M204 S1000
G1 X107.947 Y143.856 F10800
G1 X108.08 Y144.194
M204 S800
G1 F1200
G1 X108.174 Y144.157 E.00317
G1 X113.89 Y144.161 E.17922
G1 X114.281 Y144.318 E.01321
G1 X114.55 Y144.573 E.01162
G1 X114.746 Y145.044 E.016
G1 X114.746 Y154.956 E.31078
G1 X114.627 Y155.317 E.01192
G1 X114.306 Y155.666 E.01487
G1 X113.859 Y155.843 E.01507
G1 X108.174 Y155.843 E.17825
G1 X107.812 Y155.724 E.01195
G1 X107.463 Y155.403 E.01487
G1 X107.287 Y154.956 E.01506
G1 X107.287 Y145.044 E.31078
G1 X107.406 Y144.683 E.01192
G1 X107.726 Y144.334 E.01485
G1 X108.024 Y144.216 E.01005
M204 S1000
G1 X108.024 Y144.216 F10800
G1 X108.156 Y144.555
M204 S800
G1 F1200
G1 X108.209 Y144.534 E.00179
G1 X113.838 Y144.534 E.17649
G1 X114.269 Y144.825 E.01631
G1 X114.369 Y145.079 E.00856
G1 X114.369 Y154.921 E.30859
G1 X114.292 Y155.134 E.0071
G1 X114.075 Y155.368 E.01001
G1 X113.824 Y155.466 E.00845
G1 X108.209 Y155.466 E.17605
G1 X107.996 Y155.389 E.0071
G1 X107.761 Y155.172 E.01003
G1 X107.664 Y154.921 E.00844
G1 X107.664 Y145.079 E.30859
G1 X107.74 Y144.866 E.00709
G1 X107.957 Y144.632 E.01001
G1 X108.1 Y144.577 E.0048
M204 S1000
G1 X108.1 Y144.577 F10800
G1 X108.251 Y144.911
M204 S800
G1 F1200
G1 X113.851 Y144.94 E.17559
G1 X113.992 Y145.121 E.00719
G1 X113.963 Y154.948 E.30812
G1 X113.782 Y155.089 E.00719
G1 X108.181 Y155.06 E.17562
G1 X108.041 Y154.879 E.00717
G1 X108.07 Y145.052 E.30812
G1 X108.203 Y144.948 E.00529
M204 S1000
;WIPE_START
G1 F8640
G1 X108.251 Y144.911 E-.01399
G1 X111.655 Y144.929 E-.78601
;WIPE_END
G1 Z.6 F720
G1 X131.861 Y144.922 F10800
G1 Z.2 F720
G1 E.8 F2100
M204 S800
G1 F1200
G1 X131.861 Y144.788 E.0042
G1 X132.261 Y143.331 E.04737
G1 X132.842 Y142.409 E.03417
G1 X133.662 Y141.613 E.03583
G1 X134.52 Y141.124 E.03096
G1 X135.514 Y140.818 E.03261
G1 X142.309 Y140.797 E.21305
G1 X143.135 Y140.999 E.02666
G1 X143.899 Y141.343 E.02627
G1 X144.922 Y142.17 E.04125
G1 X145.66 Y143.235 E.04063
G1 X146.059 Y144.469 E.04066
G1 X146.107 Y155.209 E.33675
G1 X145.707 Y156.669 E.04746
G1 X145.122 Y157.594 E.03432
G1 X144.257 Y158.423 E.03757
G1 X143.343 Y158.918 E.03259
G1 X142.319 Y159.203 E.03333
G1 X135.888 Y159.237 E.20164
G1 X134.429 Y158.836 E.04744
G1 X133.467 Y158.222 E.03578
G1 X132.641 Y157.342 E.03784
G1 X132.159 Y156.419 E.03265
G1 X131.872 Y155.287 E.03662
G1 X131.861 Y144.982 E.32311
M204 S1000
G1 X131.861 Y144.982 F10800
G1 X132.238 Y144.982
M204 S800
G1 F1200
G1 X132.238 Y144.814 E.00527
G1 X132.616 Y143.461 E.04405
G1 X133.147 Y142.632 E.03087
G1 X133.905 Y141.902 E.033
G1 X134.686 Y141.464 E.02808
G1 X135.596 Y141.187 E.02982
G1 X142.243 Y141.169 E.20841
G1 X142.997 Y141.35 E.02431
G1 X143.721 Y141.677 E.02491
G1 X144.662 Y142.444 E.03806
G1 X145.333 Y143.425 E.03727
G1 X145.691 Y144.555 E.03717
G1 X145.73 Y155.184 E.33327
G1 X145.352 Y156.539 E.04411
G1 X144.818 Y157.37 E.03097
G1 X144.017 Y158.132 E.03466
G1 X143.185 Y158.575 E.02955
G1 X142.244 Y158.832 E.03058
G1 X135.913 Y158.859 E.19851
G1 X134.558 Y158.481 E.04411
G1 X133.726 Y157.947 E.031
G1 X132.934 Y157.103 E.03629
G1 X132.519 Y156.305 E.0282
G1 X132.243 Y155.217 E.03519
G1 X132.238 Y145.042 E.31903
M204 S1000
G1 X132.238 Y145.042 F10800
G1 X132.615 Y145.042
M204 S800
G1 F1200
G1 X132.615 Y144.841 E.0063
