; generated by PrusaSlicer 2.7.4+win64 on 2024-07-17 at 18:21:13 UTC


;
;
; 

; external perimeters extrusion width = 0.45mm
; perimeters extrusion width = 0.45mm
; infill extrusion width = 0.45mm
; solid infill extrusion width = 0.45mm
; top infill extrusion width = 0.40mm
; support material extrusion width = 0.35mm
; first layer extrusion width = 0.42mm

M73 P0 R17
M73 Q0 S17
M201 X1000 Y1000 Z200 E5000 ; sets maximum accelerations, mm/sec^2
M203 X200 Y200 Z12 E120 ; sets maximum feedrates, mm / sec
M204 S1250 T1250 ; sets acceleration (S) and retract acceleration (R), mm/sec^2
M205 X8.00 Y8.00 Z0.40 E4.50 ; sets the jerk limits, mm/sec
M205 S0 T0 ; sets the minimum extruding and travel feed rate, mm/sec

; printing object wireWinch.stl id:0 copy 0
; stop printing object wireWinch.stl id:0 copy 0

;TYPE:Custom
M862.3 P "MK3S" ; printer model check
M862.1 P0.4 ; nozzle diameter check
M115 U3.13.3 ; tell printer latest fw version
G90 ; use absolute coordinates
M83 ; extruder relative mode
M104 S215 ; set extruder temp
M140 S60 ; set bed temp
M190 S60 ; wait for bed temp
M109 S215 ; wait for extruder temp
G28 W ; home all without mesh bed level
G80 X109.886 Y89.8855 W30.2289 H30.2289 ; mesh bed levelling

G1 Z0.2 F720
G1 Y-3 F1000 ; go outside print area
G92 E0
G1 X60 E9 F1000 ; intro line
G1 X100 E12.5 F1000 ; intro line

G92 E0
M221 S95

; Don't change E values below. Excessive value can damage the printer.
M907 E430 ; set extruder motor current
G21 ; set units to millimeters
G90 ; use absolute coordinates
M83 ; use relative distances for extrusion

M900 K0.05 ; Filament gcode LA 1.5
M900 K30 ; Filament gcode LA 1.0




M107
;LAYER_CHANGE
;Z:0.2
;HEIGHT:0.2
G1 E-.8 F2100
G1 Z.6 F720
G1 X113.361 Y95.638 F10800
G1 Z.2 F720
G1 E.8 F2100
M204 S800
;TYPE:Skirt/Brim
;WIDTH:0.42
G1 F1200
G1 X115.361 Y93.331 E.09573
G1 X117.802 Y90.881 E.10844
G1 X119.749 Y90.074 E.06608
G1 X132.558 Y90.074 E.40162
G1 X133.789 Y90.365 E.03966
G1 X138.403 Y92.672 E.16174
G1 X139.496 Y93.657 E.04613
G1 X139.926 Y95.135 E.04826
G1 X139.926 Y114.865 E.61862
G1 X139.533 Y116.282 E.04611
G1 X138.403 Y117.328 E.04828
G1 X133.789 Y119.635 E.16174
G1 X132.558 Y119.926 E.03966
G1 X119.749 Y119.926 E.40162
M73 Q1 S17
G1 X117.802 Y119.119 E.06608
M73 P1 R17
G1 X110.881 Y112.198 E.30689
G1 X110.074 Y110.251 E.06608
G1 X110.074 Y102.364 E.24729
G1 X110.396 Y101.072 E.04175
G1 X113.01 Y96.15 E.17474
G1 X113.327 Y95.688 E.01757
M204 S1000
G1 X113.327 Y95.688 F10800
G1 X113.636 Y95.9
M204 S800
G1 F1200
G1 X113.646 Y95.885 E.00057
G1 X115.646 Y93.578 E.09573
G1 X118.069 Y91.147 E.10762
G1 X119.749 Y90.451 E.05702
G1 X132.558 Y90.451 E.40162
G1 X133.621 Y90.702 E.03425
G1 X138.235 Y93.009 E.16174
G1 X139.229 Y93.944 E.04279
G1 X139.549 Y95.135 E.03867
G1 X139.549 Y114.865 E.61862
G1 X139.157 Y116.172 E.04278
G1 X138.235 Y116.991 E.03867
G1 X133.621 Y119.298 E.16174
G1 X132.558 Y119.549 E.03425
G1 X119.749 Y119.549 E.40162
G1 X118.069 Y118.853 E.05702
G1 X111.147 Y111.931 E.30693
G1 X110.451 Y110.251 E.05702
G1 X110.451 Y102.364 E.24729
G1 X110.729 Y101.249 E.03603
G1 X113.343 Y96.327 E.17474
G1 X113.602 Y95.949 E.01437
M204 S1000
;WIPE_START
G1 F8640
G1 X113.636 Y95.9 E-.01377
G1 X113.646 Y95.885 E-.00416
G1 X115.646 Y93.578 E-.705
G1 X115.882 Y93.342 E-.07707
;WIPE_END
G1 Z.6 F720
; printing object wireWinch.stl id:0 copy 0
G1 X132.558 Y95.135 F10800
G1 Z.2 F720
G1 E.8 F2100
M204 S800
;TYPE:Support material
G1 F1200
G1 X137.172 Y95.135 E.14467
G1 X137.172 Y114.865 E.61862
G1 X132.558 Y114.865 E.14467
G1 X132.558 Y117.172 E.07233
G1 X119.749 Y117.172 E.40162
G1 X119.749 Y114.865 E.07233
G1 X117.442 Y114.865 E.07233
G1 X117.442 Y112.558 E.07233
G1 X115.135 Y112.558 E.07233
G1 X115.135 Y110.251 E.07233
G1 X112.828 Y110.251 E.07233
M73 Q2 S17
G1 X112.828 Y102.364 E.24729
G1 X115.408 Y102.364 E.08089
M73 P2 R17
G1 X115.408 Y105.364 E.09406
G1 X117.305 Y105.364 E.05948
G1 X117.393 Y105.451 E.00388
G1 X118.534 Y105.451 E.03578
G1 X118.766 Y106.966 E.04806
G1 X119.246 Y108.325 E.04519
G1 X119.963 Y109.576 E.04521
G1 X120.893 Y110.678 E.04521
G1 X122.006 Y111.594 E.0452
G1 X123.266 Y112.295 E.04521
G1 X124.631 Y112.758 E.04519
G1 X126.066 Y112.968 E.04547
G1 X126.932 Y112.968 E.02715
G1 X128.068 Y112.824 E.0359
G1 X129.717 Y112.303 E.05422
G1 X131.221 Y111.433 E.05448
G1 X132.094 Y110.691 E.03592
G1 X132.677 Y110.052 E.02712
G1 X133.62 Y108.603 E.05421
G1 X134.231 Y106.976 E.05449
G1 X134.476 Y105.264 E.05423
G1 X134.457 Y104.399 E.02713
G1 X134.289 Y103.266 E.03591
G1 X134.053 Y102.424 E.02742
G1 X133.602 Y101.361 E.03621
G1 X133.008 Y100.382 E.0359
G1 X132.274 Y99.492 E.03617
G1 X131.637 Y98.893 E.02742
G1 X130.71 Y98.221 E.0359
G1 X129.704 Y97.692 E.03564
G1 X128.868 Y97.379 E.02799
G1 X127.467 Y97.079 E.04492
G1 X126.044 Y97.033 E.04464
G1 X124.874 Y97.187 E.037
G1 X123.503 Y97.604 E.04493
G1 X122.467 Y98.114 E.03621
G1 X121.516 Y98.767 E.03617
G1 X120.476 Y99.766 E.04522
G1 X119.673 Y100.87 E.0428
G1 X118.476 Y101.524 E.04277
G1 X118.442 Y100.022 E.04711
G1 X115.442 Y100.022 E.09406
G1 X115.442 Y97.442 E.08089
G1 X117.442 Y97.442 E.06271
G1 X117.442 Y95.135 E.07233
G1 X119.749 Y95.135 E.07233
G1 X119.749 Y92.828 E.07233
G1 X132.558 Y92.828 E.40162
G1 X132.558 Y95.079 E.07058
M73 P2 R16
M204 S1000
G1 X132.558 Y95.079 F10800
G1 X136.731 Y114.695
M204 S800
G1 F1200
G1 X136.731 Y95.475 E.60263
G1 X136.312 Y95.475 E.01314
G1 X136.312 Y114.525 E.5973
G1 X135.893 Y114.525 E.01314
G1 X135.893 Y95.475 E.5973
G1 X135.474 Y95.475 E.01314
G1 X135.474 Y114.525 E.5973
G1 X135.055 Y114.525 E.01314
G1 X135.055 Y95.475 E.5973
G1 X134.636 Y95.475 E.01314
G1 X134.636 Y103.27 E.24441
G1 X134.217 Y101.897 E.04501
M73 Q3 S17
G1 X134.217 Y95.475 E.20136
M73 P3 R16
G1 X133.799 Y95.475 E.01311
G1 X133.799 Y101.009 E.17351
G1 X133.38 Y100.324 E.02518
M73 Q3 S16
G1 X133.38 Y95.475 E.15204
G1 X132.961 Y95.475 E.01314
G1 X132.961 Y99.76 E.13435
G1 X132.542 Y99.281 E.01995
G1 X132.542 Y95.475 E.11933
G1 X132.218 Y95.475 E.01016
G1 X132.218 Y93.168 E.07233
G1 X132.123 Y93.168 E.00298
G1 X132.123 Y98.869 E.17875
G1 X131.704 Y98.51 E.0173
G1 X131.704 Y93.168 E.16749
G1 X131.285 Y93.168 E.01314
G1 X131.285 Y98.196 E.15765
G1 X130.866 Y97.918 E.01577
G1 X130.866 Y93.168 E.14893
G1 X130.447 Y93.168 E.01314
G1 X130.447 Y97.677 E.14138
G1 X130.028 Y97.466 E.01471
G1 X130.028 Y93.168 E.13476
G1 X129.609 Y93.168 E.01314
G1 X129.609 Y97.284 E.12905
G1 X129.19 Y97.128 E.01402
G1 X129.19 Y93.168 E.12416
G1 X128.771 Y93.168 E.01314
G1 X128.771 Y96.997 E.12006
G1 X128.352 Y96.89 E.01356
G1 X128.352 Y93.168 E.1167
G1 X127.933 Y93.168 E.01314
G1 X127.933 Y96.806 E.11407
G1 X127.514 Y96.743 E.01329
G1 X127.514 Y93.168 E.11209
G1 X127.095 Y93.168 E.01314
G1 X127.095 Y96.703 E.11084
G1 X126.676 Y96.683 E.01315
G1 X126.676 Y93.168 E.11021
G1 X126.257 Y93.168 E.01314
G1 X126.257 Y96.685 E.11027
G1 X125.838 Y96.708 E.01316
G1 X125.838 Y93.168 E.11099
G1 X125.419 Y93.168 E.01314
G1 X125.419 Y96.751 E.11234
G1 X125 Y96.818 E.0133
G1 X125 Y93.168 E.11444
G1 X124.581 Y93.168 E.01314
G1 X124.581 Y96.906 E.1172
G1 X124.162 Y97.016 E.01358
G1 X124.162 Y93.168 E.12065
G1 X123.743 Y93.168 E.01314
G1 X123.743 Y97.152 E.12492
G1 X123.324 Y97.311 E.01405
G1 X123.324 Y93.168 E.1299
G1 X122.905 Y93.168 E.01314
G1 X122.905 Y97.498 E.13576
G1 X122.486 Y97.714 E.01478
G1 X122.486 Y93.168 E.14254
G1 X122.067 Y93.168 E.01314
G1 X122.067 Y97.96 E.15025
G1 X121.648 Y98.243 E.01585
G1 X121.648 Y93.168 E.15912
G1 X121.229 Y93.168 E.01314
G1 X121.229 Y98.564 E.16919
G1 X120.81 Y98.931 E.01746
G1 X120.81 Y93.168 E.18069
G1 X120.391 Y93.168 E.01314
G1 X120.391 Y99.353 E.19393
G1 X119.972 Y99.844 E.02024
G1 X119.972 Y95.475 E.13699
G1 X119.553 Y95.475 E.01314
G1 X119.553 Y100.424 E.15517
G1 X119.431 Y100.615 E.00711
G1 X119.134 Y100.777 E.01061
G1 X119.134 Y95.475 E.16624
G1 X118.715 Y95.475 E.01314
G1 X118.715 Y99.683 E.13194
G1 X118.296 Y99.683 E.01314
G1 X118.296 Y95.475 E.13194
G1 X117.877 Y95.475 E.01314
M73 Q4 S16
G1 X117.877 Y99.683 E.13194
G1 X117.458 Y99.683 E.01314
M73 P4 R16
G1 X117.458 Y97.782 E.0596
G1 X117.039 Y97.782 E.01314
G1 X117.039 Y99.683 E.0596
G1 X116.62 Y99.683 E.01314
G1 X116.62 Y97.782 E.0596
G1 X116.201 Y97.782 E.01314
G1 X116.201 Y99.683 E.0596
G1 X115.783 Y99.683 E.01311
G1 X115.783 Y97.612 E.06493
M204 S1000
;WIPE_START
G1 F8640
G1 X115.783 Y99.683 E-.4782
G1 X116.201 Y99.683 E-.09652
G1 X116.201 Y98.707 E-.22528
;WIPE_END
G1 Z.6 F720
G1 X134.636 Y114.695 F10800
G1 Z.2 F720
G1 E.8 F2100
M204 S800
G1 F1200
G1 X134.636 Y106.732 E.24967
G1 X134.217 Y108.103 E.04495
G1 X134.217 Y114.525 E.20136
G1 X133.799 Y114.525 E.01311
G1 X133.799 Y108.992 E.17348
G1 X133.38 Y109.676 E.02515
G1 X133.38 Y114.525 E.15204
G1 X132.961 Y114.525 E.01314
G1 X132.961 Y110.241 E.13432
G1 X132.542 Y110.719 E.01993
G1 X132.542 Y114.525 E.11933
G1 X132.218 Y114.525 E.01016
G1 X132.218 Y116.832 E.07233
G1 X132.123 Y116.832 E.00298
G1 X132.123 Y111.131 E.17875
G1 X131.704 Y111.49 E.0173
G1 X131.704 Y116.832 E.16749
G1 X131.285 Y116.832 E.01314
G1 X131.285 Y111.804 E.15765
G1 X130.866 Y112.081 E.01575
G1 X130.866 Y116.832 E.14896
G1 X130.447 Y116.832 E.01314
G1 X130.447 Y112.323 E.14138
G1 X130.028 Y112.533 E.0147
G1 X130.028 Y116.832 E.13479
G1 X129.609 Y116.832 E.01314
G1 X129.609 Y112.716 E.12905
G1 X129.19 Y112.871 E.01401
G1 X129.19 Y116.832 E.12419
G1 X128.771 Y116.832 E.01314
G1 X128.771 Y113.003 E.12006
G1 X128.352 Y113.109 E.01355
G1 X128.352 Y116.832 E.11673
G1 X127.933 Y116.832 E.01314
G1 X127.933 Y113.194 E.11407
G1 X127.514 Y113.257 E.01329
G1 X127.514 Y116.832 E.11209
G1 X127.095 Y116.832 E.01314
G1 X127.095 Y113.297 E.11084
G1 X126.676 Y113.317 E.01315
G1 X126.676 Y116.832 E.11021
G1 X126.257 Y116.832 E.01314
G1 X126.257 Y113.315 E.11027
G1 X125.838 Y113.292 E.01316
G1 X125.838 Y116.832 E.11099
G1 X125.419 Y116.832 E.01314
G1 X125.419 Y113.248 E.11237
G1 X125 Y113.182 E.0133
G1 X125 Y116.832 E.11444
G1 X124.581 Y116.832 E.01314
G1 X124.581 Y113.095 E.11717
G1 X124.162 Y112.983 E.0136
G1 X124.162 Y116.832 E.12068
G1 X123.743 Y116.832 E.01314
G1 X123.743 Y112.848 E.12492
G1 X123.324 Y112.688 E.01406
G1 X123.324 Y116.832 E.12993
G1 X122.905 Y116.832 E.01314
G1 X122.905 Y112.502 E.13576
G1 X122.486 Y112.286 E.01478
G1 X122.486 Y116.832 E.14254
G1 X122.067 Y116.832 E.01314
G1 X122.067 Y112.04 E.15025
G1 X121.648 Y111.757 E.01585
G1 X121.648 Y116.832 E.15912
G1 X121.229 Y116.832 E.01314
G1 X121.229 Y111.435 E.16922
G1 X120.81 Y111.068 E.01746
G1 X120.81 Y116.832 E.18073
G1 X120.391 Y116.832 E.01314
M73 P5 R16
M73 Q5 S16
G1 X120.391 Y110.646 E.19396
G1 X119.972 Y110.156 E.02021
G1 X119.972 Y114.525 E.13699
G1 X119.553 Y114.525 E.01314
G1 X119.553 Y109.576 E.15517
G1 X119.134 Y108.865 E.02588
G1 X119.134 Y114.525 E.17747
G1 X118.715 Y114.525 E.01314
G1 X118.715 Y107.934 E.20666
G1 X118.296 Y106.377 E.05056
G1 X118.296 Y114.525 E.25547
G1 X117.877 Y114.525 E.01314
G1 X117.877 Y105.791 E.27385
G1 X117.458 Y105.791 E.01314
G1 X117.458 Y112.218 E.20151
G1 X117.039 Y112.218 E.01314
G1 X117.039 Y105.703 E.20427
G1 X116.62 Y105.703 E.01314
G1 X116.62 Y112.218 E.20427
G1 X116.201 Y112.218 E.01314
G1 X116.201 Y105.703 E.20427
G1 X115.783 Y105.703 E.01311
G1 X115.783 Y112.218 E.20427
G1 X115.475 Y112.218 E.00966
G1 X115.475 Y109.911 E.07233
G1 X115.364 Y109.911 E.00348
G1 X115.364 Y105.703 E.13194
G1 X115.069 Y105.703 E.00925
G1 X115.069 Y102.703 E.09406
G1 X114.945 Y102.703 E.00389
G1 X114.945 Y109.911 E.226
G1 X114.526 Y109.911 E.01314
G1 X114.526 Y102.703 E.226
G1 X114.107 Y102.703 E.01314
G1 X114.107 Y109.911 E.226
G1 X113.688 Y109.911 E.01314
G1 X113.688 Y102.703 E.226
G1 X113.269 Y102.703 E.01314
G1 X113.269 Y110.081 E.23133
M204 S1000
;WIPE_START
G1 F8640
G1 X113.269 Y106.616 E-.8
;WIPE_END
G1 Z.6 F720
G1 X115.873 Y105 F10800
G1 Z.2 F720
G1 E.8 F2100
M204 S800
;TYPE:Support material interface
;WIDTH:0.35
G1 F1200
G1 X115.873 Y100.386 E.11781
G1 X116.38 Y100.386 E.01295
G1 X116.38 Y105 E.11781
G1 X116.805 Y105 E.01085
G1 X116.887 Y103.713 E.03293
G1 X116.887 Y100.386 E.08495
G1 X117.24 Y100.386 E.00901
M204 S1000
;WIPE_START
G1 F8640
G1 X116.887 Y100.386 E-.08151
G1 X116.887 Y103.497 E-.71849
;WIPE_END
G1 Z.6 F720
G1 X117.446 Y101.493 F10800
G1 Z.2 F720
G1 E.8 F2100
M204 S800
G1 F1200
G1 X117.771 Y101.327 E.00932
G1 X117.901 Y101.374 E.00353
G1 X117.901 Y100.386 E.02523
G1 X117.394 Y100.386 E.01295
G1 X117.394 Y101.637 E.03194
G1 X117.132 Y102.468 E.02225
M204 S1000
M204 S800
G1 X117.059 Y102.761 E.00771
M204 S1000
;WIPE_START
G1 F8640
G1 X117.132 Y102.468 E-.06972
;WIPE_END
G1 E-.73028 F2100
G1 Z.6 F720
G1 X126.645 Y102.794 F10800
G1 Z.2 F720
G1 E.8 F2100
M204 S800
;TYPE:External perimeter
;WIDTH:0.44948
G1 F1200
G1 X126.762 Y102.795 E.00396
;WIDTH:0.430702
G1 X127.044 Y102.803 E.0091
;WIDTH:0.424642
G1 X127.385 Y102.899 E.01124
;WIDTH:0.426272
G1 X127.848 Y103.218 E.01792
;WIDTH:0.433954
G1 X128.322 Y103.692 E.0218
G1 X128.506 Y103.946 E.0102
;WIDTH:0.423697
G1 X128.631 Y104.252 E.01047
;WIDTH:0.428826
G1 X128.713 Y104.662 E.01342
G1 X128.711 Y105.218 E.01784
;WIDTH:0.424044
G1 X128.707 Y105.465 E.00783
;WIDTH:0.422952
G1 X128.612 Y105.831 E.01195
;WIDTH:0.441557
G1 X128.395 Y106.238 E.01529
G1 X127.854 Y106.776 E.02529
;WIDTH:0.426293
G1 X127.475 Y107.051 E.01493
;WIDTH:0.434634
G1 X126.998 Y107.207 E.01635
;WIDTH:0.441517
G1 X126.101 Y107.21 E.02973
G1 X125.64 Y107.114 E.01561
;WIDTH:0.428337
G1 X125.21 Y106.842 E.01631
;WIDTH:0.43079
G1 X124.707 Y106.342 E.02287
G1 X124.41 Y105.906 E.01701
;WIDTH:0.431721
G1 X124.285 Y105.398 E.01691
G1 X124.289 Y104.789 E.01969
;WIDTH:0.426674
G1 X124.291 Y104.534 E.00814
G1 X124.388 Y104.169 E.01205
;WIDTH:0.436968
G1 X124.635 Y103.734 E.01639
G1 X125.146 Y103.224 E.02366
;WIDTH:0.426294
G1 X125.606 Y102.902 E.0179
;WIDTH:0.44948
G1 X126.001 Y102.786 E.01392
G1 X126.585 Y102.793 E.01974
M204 S1000
;WIPE_START
G1 F8640
G1 X126.645 Y102.794 E-.01386
G1 X126.762 Y102.795 E-.02702
G1 X127.044 Y102.803 E-.06514
G1 X127.385 Y102.899 E-.0818
G1 X127.848 Y103.218 E-.12983
G1 X128.322 Y103.692 E-.15478
G1 X128.506 Y103.946 E-.07242
G1 X128.631 Y104.252 E-.07632
G1 X128.713 Y104.662 E-.09654
G1 X128.712 Y105.018 E-.08229
;WIPE_END
G1 Z.6 F720
G1 X119.681 Y104.437 F10800
G1 Z.2 F720
M73 P6 R16
M73 Q6 S16
G1 E.8 F2100
M204 S800
;TYPE:Perimeter
;WIDTH:0.419999
G1 F1200
G1 X119.674 Y104.415 E.00072
G1 X119.52 Y104.271 E.00661
G1 X119.218 Y104.184 E.00985
G1 X118.418 Y104.184 E.02508
G1 X118.545 Y103.352 E.02639
G1 X118.674 Y102.81 E.01747
G1 X118.805 Y102.788 E.00416
G1 X120.547 Y101.822 E.06245
G1 X120.735 Y101.577 E.00968
G1 X121.144 Y100.955 E.02334
G1 X121.579 Y100.441 E.02111
G1 X122.081 Y99.949 E.02204
G1 X122.497 Y99.611 E.01681
G1 X122.913 Y99.327 E.01579
G1 X123.729 Y98.887 E.02907
G1 X124.197 Y98.695 E.01586
G1 X124.735 Y98.531 E.01763
G1 X125.274 Y98.403 E.01737
G1 X125.85 Y98.319 E.01825
G1 X126.592 Y98.289 E.02328
G1 X127.31 Y98.337 E.02256
G1 X127.818 Y98.427 E.01618
G1 X128.491 Y98.589 E.0217
G1 X129.152 Y98.836 E.02212
G1 X129.612 Y99.052 E.01593
G1 X130.242 Y99.428 E.023
G1 X130.823 Y99.866 E.02281
G1 X131.255 Y100.271 E.01857
G1 X131.673 Y100.723 E.0193
G1 X132.109 Y101.313 E.023
G1 X132.475 Y101.943 E.02284
G1 X132.771 Y102.608 E.02282
G1 X132.988 Y103.284 E.02226
G1 X133.101 Y103.791 E.01629
G1 X133.194 Y104.518 E.02298
G1 X133.208 Y105.226 E.0222
G1 X133.147 Y105.917 E.02175
G1 X133.059 Y106.424 E.01613
G1 X132.865 Y107.131 E.02299
G1 X132.606 Y107.784 E.02203
G1 X132.38 Y108.237 E.01587
G1 X132.065 Y108.741 E.01864
G1 X131.702 Y109.242 E.0194
G1 X131.207 Y109.784 E.02301
G1 X130.671 Y110.258 E.02243
G1 X130.256 Y110.561 E.01611
G1 X129.525 Y110.985 E.0265
G1 X128.896 Y111.267 E.02161
G1 X128.241 Y111.472 E.02152
G1 X127.697 Y111.598 E.01751
G1 X127.081 Y111.686 E.01951
G1 X126.352 Y111.71 E.02287
G1 X125.524 Y111.631 E.02608
G1 X124.702 Y111.467 E.02628
G1 X124.034 Y111.241 E.02211
G1 X123.567 Y111.038 E.01597
G1 X123.117 Y110.787 E.01616
G1 X122.649 Y110.493 E.01733
G1 X122.148 Y110.11 E.01977
G1 X121.617 Y109.605 E.02298
G1 X121.146 Y109.049 E.02285
