; generated by PrusaSlicer 2.7.4+win64 on 2024-06-27 at 17:54:35 UTC


;
;
; 

; external perimeters extrusion width = 0.45mm
; perimeters extrusion width = 0.45mm
; infill extrusion width = 0.45mm
; solid infill extrusion width = 0.45mm
; top infill extrusion width = 0.40mm
; support material extrusion width = 0.35mm
; first layer extrusion width = 0.42mm

; external perimeters extrusion width = 0.45mm
; perimeters extrusion width = 0.45mm
; infill extrusion width = 0.45mm
; solid infill extrusion width = 0.45mm
; top infill extrusion width = 0.40mm
; support material extrusion width = 0.35mm
; first layer extrusion width = 0.42mm

M73 P0 R43
M73 Q0 S43
M201 X1000 Y1000 Z200 E5000 ; sets maximum accelerations, mm/sec^2
M203 X200 Y200 Z12 E120 ; sets maximum feedrates, mm / sec
M204 S1250 T1250 ; sets acceleration (S) and retract acceleration (R), mm/sec^2
M205 X8.00 Y8.00 Z0.40 E4.50 ; sets the jerk limits, mm/sec
M205 S0 T0 ; sets the minimum extruding and travel feed rate, mm/sec

; printing object wireWinch.stl id:1 copy 0
; stop printing object wireWinch.stl id:1 copy 0
; printing object wireBase.stl id:0 copy 0
; stop printing object wireBase.stl id:0 copy 0

;TYPE:Custom
M862.3 P "MK3S" ; printer model check
M862.1 P0.4 ; nozzle diameter check
M115 U3.13.3 ; tell printer latest fw version
G90 ; use absolute coordinates
M83 ; extruder relative mode
M104 S215 ; set extruder temp
M140 S60 ; set bed temp
M190 S60 ; wait for bed temp
M109 S215 ; wait for extruder temp
G28 W ; home all without mesh bed level
G80 X99.7693 Y71.806 W51.9747 H66.388 ; mesh bed levelling

G1 Z0.2 F720
G1 Y-3 F1000 ; go outside print area
G92 E0
G1 X60 E9 F1000 ; intro line
G1 X100 E12.5 F1000 ; intro line

G92 E0
M221 S95

; Don't change E values below. Excessive value can damage the printer.
M907 E430 ; set extruder motor current
G21 ; set units to millimeters
G90 ; use absolute coordinates
M83 ; use relative distances for extrusion

M900 K0.05 ; Filament gcode LA 1.5
M900 K30 ; Filament gcode LA 1.0




M107
;LAYER_CHANGE
;Z:0.2
;HEIGHT:0.2
G1 E-.8 F2100
G1 Z.6 F720
G1 X105.268 Y93.632 F10800
G1 Z.2 F720
G1 E.8 F2100
M204 S800
;TYPE:Skirt/Brim
;WIDTH:0.42
G1 F1200
G1 X107.575 Y91.325 E.1023
G1 X127.978 Y74.18 E.8356
G1 X129.223 Y73.64 E.04255
G1 X142.793 Y72.011 E.42853
G1 X149.178 Y71.995 E.2002
G1 X150.485 Y72.386 E.04277
G1 X151.362 Y73.432 E.0428
G1 X151.555 Y74.372 E.03009
G1 X151.555 Y135.628 E1.92064
G1 X151.164 Y136.935 E.04277
G1 X150.118 Y137.812 E.0428
G1 X149.178 Y138.005 E.03009
G1 X143.112 Y138.005 E.1902
G1 X129.224 Y136.36 E.43849
G1 X127.997 Y135.836 E.04183
G1 X107.746 Y119.186 E.82201
G1 X100.654 Y112.109 E.31414
G1 X99.958 Y110.428 E.05705
G1 X99.958 Y102.542 E.24726
G1 X100.236 Y101.426 E.03606
G1 X102.85 Y96.505 E.17471
G1 X103.153 Y96.063 E.0168
G1 X105.229 Y93.678 E.09914
M204 S1000
;WIPE_START
G1 F8640
G1 X105.268 Y93.632 E-.01393
G1 X107.575 Y91.325 E-.75334
G1 X107.684 Y91.234 E-.03273
;WIPE_END
G1 Z.6 F720
; printing object wireBase.stl id:0 copy 0
G1 X149.178 Y135.628 F10800
G1 Z.2 F720
G1 E.8 F2100
M204 S800
;TYPE:Support material
G1 F1200
G1 X143.112 Y135.628 E.1902
G1 X143.112 Y134.48 E.03599
G1 X144.705 Y134.48 E.04995
G1 X144.987 Y134.199 E.01248
G1 X144.987 Y125.127 E.28445
G1 X149.178 Y125.127 E.13141
G1 X149.178 Y135.572 E.3275
M204 S1000
G1 X149.178 Y135.572 F10800
G1 X148.738 Y135.459
M204 S800
G1 F1200
G1 X148.738 Y125.467 E.31329
G1 X148.319 Y125.467 E.01314
G1 X148.319 Y135.289 E.30796
G1 X147.9 Y135.289 E.01314
M73 P0 R42
G1 X147.9 Y125.467 E.30796
G1 X147.481 Y125.467 E.01314
G1 X147.481 Y135.289 E.30796
G1 X147.062 Y135.289 E.01314
G1 X147.062 Y125.467 E.30796
G1 X146.643 Y125.467 E.01314
G1 X146.643 Y135.289 E.30796
G1 X146.224 Y135.289 E.01314
G1 X146.224 Y125.467 E.30796
G1 X145.805 Y125.467 E.01314
G1 X145.805 Y135.289 E.30796
G1 X145.386 Y135.289 E.01314
G1 X145.386 Y125.467 E.30796
G1 X145.326 Y125.467 E.00188
G1 X145.326 Y134.339 E.27818
G1 X144.967 Y134.698 E.01592
G1 X144.967 Y135.289 E.01853
G1 X144.548 Y135.289 E.01314
G1 X144.548 Y134.819 E.01474
G1 X144.129 Y134.819 E.01314
G1 X144.129 Y135.289 E.01474
G1 X143.71 Y135.289 E.01314
G1 X143.71 Y134.65 E.02004
M204 S1000
;WIPE_START
G1 F8640
G1 X143.71 Y135.289 E-.14755
G1 X144.129 Y135.289 E-.09675
G1 X144.129 Y134.819 E-.10852
G1 X144.548 Y134.819 E-.09675
G1 X144.548 Y135.289 E-.10852
G1 X144.967 Y135.289 E-.09675
G1 X144.967 Y134.698 E-.13646
G1 X144.994 Y134.671 E-.0087
;WIPE_END
G1 Z.6 F720
G1 X149.178 Y84.873 F10800
G1 Z.2 F720
M73 Q1 S43
G1 E.8 F2100
M204 S800
G1 F1200
G1 X144.987 Y84.873 E.13141
G1 X144.987 Y75.801 E.28445
M73 P1 R42
G1 X144.705 Y75.52 E.01248
G1 X143.107 Y75.52 E.0501
G1 X143.077 Y74.372 E.03601
G1 X149.178 Y74.372 E.19129
G1 X149.178 Y84.816 E.32746
M204 S1000
G1 X149.178 Y84.816 F10800
G1 X148.738 Y84.703
M204 S800
G1 F1200
G1 X148.738 Y74.711 E.31329
G1 X148.319 Y74.711 E.01314
G1 X148.319 Y84.533 E.30796
G1 X147.9 Y84.533 E.01314
G1 X147.9 Y74.711 E.30796
G1 X147.481 Y74.711 E.01314
G1 X147.481 Y84.533 E.30796
G1 X147.062 Y84.533 E.01314
G1 X147.062 Y74.711 E.30796
G1 X146.643 Y74.711 E.01314
G1 X146.643 Y84.533 E.30796
G1 X146.224 Y84.533 E.01314
G1 X146.224 Y74.711 E.30796
G1 X145.805 Y74.711 E.01314
G1 X145.805 Y84.533 E.30796
G1 X145.386 Y84.533 E.01314
G1 X145.386 Y74.711 E.30796
G1 X144.967 Y74.711 E.01314
G1 X144.967 Y75.302 E.01853
G1 X144.846 Y75.181 E.00537
G1 X144.548 Y75.181 E.00934
G1 X144.548 Y74.711 E.01474
G1 X144.129 Y74.711 E.01314
G1 X144.129 Y75.181 E.01474
G1 X143.71 Y75.181 E.01314
G1 X143.71 Y74.541 E.02007
M204 S1000
;WIPE_START
G1 F8640
G1 X143.71 Y75.181 E-.14778
G1 X144.129 Y75.181 E-.09675
G1 X144.129 Y74.711 E-.10852
G1 X144.548 Y74.711 E-.09675
G1 X144.548 Y75.181 E-.10852
G1 X144.846 Y75.181 E-.06881
G1 X144.967 Y75.302 E-.03951
G1 X144.967 Y74.724 E-.13336
;WIPE_END
G1 Z.6 F720
G1 X143.719 Y133.213 F10800
G1 Z.2 F720
G1 E.8 F2100
M204 S800
;TYPE:Perimeter
;WIDTH:0.419999
G1 F1200
G1 X130.294 Y133.213 E.42093
G1 X130.294 Y76.787 E1.76919
G1 X143.719 Y76.787 E.42093
G1 X143.719 Y79.175 E.07487
G1 X143.719 Y133.153 E1.69244
M204 S1000
G1 X143.719 Y133.153 F10800
G1 X144.097 Y133.59
M204 S800
;TYPE:External perimeter
G1 F1200
G1 X129.917 Y133.59 E.4446
G1 X129.917 Y76.41 E1.79284
G1 X144.097 Y76.41 E.4446
G1 X144.097 Y79.175 E.08669
G1 X144.097 Y133.53 E1.70426
M204 S1000
;WIPE_START
G1 F8640
G1 X144.097 Y133.59 E-.01385
G1 X140.692 Y133.59 E-.78615
;WIPE_END
G1 Z.6 F720
G1 X135.101 Y79.565 F10800
G1 Z.2 F720
G1 E.8 F2100
M204 S800
;TYPE:Perimeter
G1 F1200
G1 X135.131 Y79.484 E.00271
G1 X135.47 Y79.02 E.01802
G1 X135.916 Y78.666 E.01785
G1 X136.439 Y78.443 E.01783
G1 X136.974 Y78.367 E.01694
G1 X137.435 Y78.41 E.01452
G1 X137.973 Y78.597 E.01786
G1 X138.441 Y78.92 E.01783
G1 X138.807 Y79.355 E.01782
G1 X139.035 Y79.829 E.01649
G1 X139.141 Y80.395 E.01806
G1 X139.104 Y80.911 E.01622
G1 X138.944 Y81.395 E.01598
G1 X138.639 Y81.875 E.01783
G1 X138.218 Y82.257 E.01782
G1 X137.71 Y82.514 E.01785
G1 X137.153 Y82.629 E.01783
G1 X136.586 Y82.592 E.01782
G1 X136.048 Y82.406 E.01785
G1 X135.578 Y82.085 E.01785
G1 X135.21 Y81.652 E.01782
G1 X134.97 Y81.136 E.01784
G1 X134.874 Y80.575 E.01785
G1 X134.924 Y80.037 E.01694
G1 X135.08 Y79.621 E.01393
M204 S1000
G1 X135.08 Y79.621 F10800
G1 X135.358 Y79.941
M204 S800
;TYPE:External perimeter
G1 F1200
G1 X135.506 Y79.582 E.01218
G1 X135.802 Y79.218 E.01471
G1 X136.183 Y78.946 E.01468
G1 X136.622 Y78.783 E.01468
G1 X137.05 Y78.742 E.01348
G1 X137.324 Y78.77 E.00864
G1 X137.77 Y78.915 E.0147
G1 X138.161 Y79.173 E.01469
G1 X138.471 Y79.525 E.01471
G1 X138.676 Y79.947 E.01471
G1 X138.763 Y80.407 E.01468
G1 X138.725 Y80.875 E.01472
G1 X138.565 Y81.316 E.01471
G1 X138.294 Y81.698 E.01469
G1 X137.932 Y81.996 E.0147
G1 X137.504 Y82.187 E.0147
G1 X137.04 Y82.259 E.01472
G1 X136.574 Y82.205 E.01471
G1 X136.139 Y82.03 E.0147
G1 X135.766 Y81.747 E.01468
G1 X135.48 Y81.375 E.01471
G1 X135.304 Y80.94 E.01471
G1 X135.248 Y80.476 E.01465
G1 X135.298 Y80.085 E.01236
G1 X135.335 Y79.996 E.00302
M204 S1000
;WIPE_START
G1 F8640
G1 X135.358 Y79.941 E-.01377
G1 X135.506 Y79.582 E-.08966
G1 X135.802 Y79.218 E-.10833
G1 X136.183 Y78.946 E-.10809
G1 X136.622 Y78.783 E-.10813
G1 X137.05 Y78.742 E-.09928
G1 X137.324 Y78.77 E-.0636
G1 X137.77 Y78.915 E-.10829
G1 X138.135 Y79.156 E-.10085
;WIPE_END
G1 Z.6 F720
G1 X132.954 Y106.968 F10800
G1 Z.2 F720
G1 E.8 F2100
M204 S800
;TYPE:Perimeter
G1 F1200
G1 X132.525 Y106.924 E.01352
G1 X132.003 Y106.711 E.01768
G1 X131.561 Y106.359 E.01772
G1 X131.237 Y105.897 E.01769
G1 X131.056 Y105.362 E.01771
G1 X131.033 Y104.798 E.0177
G1 X131.17 Y104.25 E.01771
G1 X131.456 Y103.763 E.01771
G1 X131.867 Y103.376 E.0177
G1 X132.371 Y103.121 E.01771
G1 X132.905 Y103.02 E.01704
G1 X133.482 Y103.075 E.01817
G1 X134.01 Y103.289 E.01786
G1 X134.452 Y103.641 E.01772
G1 X134.776 Y104.103 E.01769
G1 X134.952 Y104.618 E.01706
G1 X134.98 Y105.197 E.01818
G1 X134.843 Y105.75 E.01786
G1 X134.557 Y106.237 E.01771
G1 X134.146 Y106.624 E.0177
G1 X133.642 Y106.879 E.01771
G1 X133.087 Y106.982 E.0177
G1 X133.013 Y106.974 E.00233
M204 S1000
G1 X133.013 Y106.974 F10800
G1 X133.719 Y106.427
M204 S800
;TYPE:External perimeter
G1 F1200
G1 X133.434 Y106.551 E.00975
G1 X132.98 Y106.609 E.01435
G1 X132.528 Y106.536 E.01436
G1 X132.114 Y106.339 E.01438
G1 X131.773 Y106.033 E.01437
G1 X131.532 Y105.644 E.01435
G1 X131.41 Y105.202 E.01438
G1 X131.41 Y104.798 E.01267
G1 X131.554 Y104.307 E.01604
G1 X131.808 Y103.926 E.01436
G1 X132.159 Y103.632 E.01436
G1 X132.578 Y103.449 E.01434
G1 X133.013 Y103.392 E.01376
G1 X133.485 Y103.464 E.01497
G1 X133.899 Y103.661 E.01438
G1 X134.24 Y103.967 E.01437
G1 X134.481 Y104.356 E.01435
G1 X134.599 Y104.778 E.01374
G1 X134.595 Y105.255 E.01496
G1 X134.459 Y105.693 E.01438
G1 X134.205 Y106.074 E.01436
G1 X133.854 Y106.368 E.01436
G1 X133.774 Y106.403 E.00274
M204 S1000
;WIPE_START
G1 F8640
G1 X133.719 Y106.427 E-.01386
G1 X133.434 Y106.551 E-.07177
G1 X132.98 Y106.609 E-.10568
G1 X132.528 Y106.536 E-.10572
G1 X132.114 Y106.339 E-.10586
G1 X131.773 Y106.033 E-.10579
G1 X131.532 Y105.644 E-.10566
G1 X131.41 Y105.202 E-.10588
G1 X131.41 Y104.856 E-.07978
M73 Q2 S43
;WIPE_END
G1 Z.6 F720
G1 X139.134 Y129.356 F10800
G1 Z.2 F720
M73 P2 R42
G1 E.8 F2100
M204 S800
;TYPE:Perimeter
G1 F1200
G1 X139.141 Y129.395 E.00124
G1 X139.104 Y129.911 E.01622
G1 X138.944 Y130.395 E.01598
G1 X138.639 Y130.875 E.01783
G1 X138.218 Y131.257 E.01782
G1 X137.71 Y131.514 E.01785
G1 X137.153 Y131.629 E.01783
G1 X136.586 Y131.592 E.01782
G1 X136.048 Y131.406 E.01785
G1 X135.578 Y131.085 E.01785
G1 X135.21 Y130.652 E.01782
G1 X134.97 Y130.136 E.01784
G1 X134.874 Y129.575 E.01785
G1 X134.93 Y129.009 E.01783
G1 X135.133 Y128.478 E.01782
G1 X135.47 Y128.02 E.01783
G1 X135.916 Y127.666 E.01785
G1 X136.439 Y127.443 E.01783
G1 X136.974 Y127.367 E.01694
G1 X137.374 Y127.394 E.01257
G1 X137.903 Y127.56 E.01738
G1 X138.441 Y127.92 E.0203
G1 X138.807 Y128.355 E.01782
G1 X139.046 Y128.872 E.01786
G1 X139.123 Y129.297 E.01354
M204 S1000
G1 X139.123 Y129.297 F10800
G1 X138.74 Y129.282
M204 S800
;TYPE:External perimeter
G1 F1200
G1 X138.763 Y129.407 E.00399
G1 X138.712 Y129.913 E.01595
G1 X138.565 Y130.316 E.01345
G1 X138.294 Y130.698 E.01469
G1 X137.932 Y130.996 E.0147
G1 X137.504 Y131.187 E.0147
G1 X137.04 Y131.259 E.01472
G1 X136.574 Y131.205 E.01471
G1 X136.139 Y131.03 E.0147
G1 X135.766 Y130.747 E.01468
G1 X135.48 Y130.375 E.01471
G1 X135.304 Y129.94 E.01471
G1 X135.248 Y129.475 E.01469
G1 X135.317 Y129.011 E.01471
G1 X135.506 Y128.582 E.0147
G1 X135.802 Y128.218 E.01471
G1 X136.183 Y127.946 E.01468
G1 X136.622 Y127.783 E.01468
G1 X137.05 Y127.742 E.01348
G1 X137.303 Y127.765 E.00797
G1 X137.77 Y127.915 E.01538
G1 X138.161 Y128.173 E.01469
G1 X138.471 Y128.525 E.01471
G1 X138.676 Y128.947 E.01471
G1 X138.728 Y129.223 E.00881
M204 S1000
;WIPE_START
G1 F8640
G1 X138.74 Y129.282 E-.0139
G1 X138.763 Y129.407 E-.02935
G1 X138.712 Y129.913 E-.11743
G1 X138.565 Y130.316 E-.09905
G1 X138.294 Y130.698 E-.10815
G1 X137.932 Y130.996 E-.10827
G1 X137.504 Y131.187 E-.10822
G1 X137.04 Y131.259 E-.10842
G1 X136.579 Y131.206 E-.10721
;WIPE_END
G1 Z.6 F720
G1 X142.782 Y76.957 F10800
G1 Z.2 F720
G1 E.8 F2100
M204 S800
;TYPE:Solid infill
;WIDTH:0.422501
G1 F1200
G1 X143.38 Y77.555 E.02669
G1 X143.38 Y78.091 E.01692
G1 X142.415 Y77.126 E.04307
G1 X141.878 Y77.126 E.01695
G1 X143.38 Y78.628 E.06704
G1 X143.38 Y79.165 E.01695
M73 Q2 S42
G1 X141.341 Y77.126 E.09101
G1 X140.805 Y77.126 E.01692
G1 X143.38 Y79.702 E.11496
G1 X143.38 Y80.239 E.01695
G1 X140.268 Y77.126 E.13893
G1 X139.731 Y77.126 E.01695
G1 X143.38 Y80.776 E.1629
G1 X143.38 Y81.312 E.01692
G1 X139.194 Y77.126 E.18685
G1 X138.657 Y77.126 E.01695
G1 X143.38 Y81.849 E.21081
G1 X143.38 Y82.386 E.01695
G1 X138.121 Y77.126 E.23476
G1 X137.584 Y77.126 E.01695
G1 X143.38 Y82.923 E.25873
G1 X143.38 Y83.46 E.01695
G1 X137.047 Y77.126 E.2827
G1 X136.51 Y77.126 E.01695
G1 X137.452 Y78.068 E.04205
G1 X137.351 Y78.048 E.00325
G1 X136.883 Y78.036 E.01478
G1 X135.973 Y77.126 E.04062
G1 X135.437 Y77.126 E.01692
G1 X136.413 Y78.103 E.04359
G1 X136.018 Y78.244 E.01324
G1 X134.9 Y77.126 E.0499
G1 X134.363 Y77.126 E.01695
G1 X135.665 Y78.429 E.05814
G1 X135.358 Y78.658 E.01209
G1 X133.826 Y77.126 E.06838
G1 X133.289 Y77.126 E.01695
G1 X135.101 Y78.938 E.08088
G1 X134.876 Y79.25 E.01214
G1 X132.753 Y77.126 E.09478
G1 X132.216 Y77.126 E.01695
G1 X134.708 Y79.619 E.11125
G1 X134.644 Y79.775 E.00532
G1 X134.583 Y80.031 E.00831
G1 X131.679 Y77.126 E.12964
G1 X131.142 Y77.126 E.01695
G1 X134.725 Y80.71 E.15995
M204 S1000
;WIPE_START
G1 F8640
G1 X132.276 Y78.26 E-.8
;WIPE_END
G1 Z.6 F720
G1 X139.207 Y79.823 F10800
G1 Z.2 F720
G1 E.8 F2100
M204 S800
G1 F1200
G1 X143.38 Y83.996 E.18627
G1 X143.38 Y84.533 E.01695
G1 X139.464 Y80.617 E.17479
G1 X139.439 Y80.973 E.01126
G1 X139.4 Y81.09 E.00389
G1 X143.38 Y85.07 E.17765
G1 X143.38 Y85.607 E.01695
G1 X139.268 Y81.495 E.18354
G1 X139.161 Y81.713 E.00766
G1 X139.075 Y81.839 E.00481
G1 X143.38 Y86.144 E.19216
G1 X143.38 Y86.68 E.01692
G1 X138.847 Y82.147 E.20233
G1 X138.568 Y82.405 E.01199
G1 X143.38 Y87.217 E.21479
G1 X143.38 Y87.754 E.01695
G1 X138.258 Y82.632 E.22862
G1 X137.893 Y82.804 E.01274
G1 X143.38 Y88.291 E.24492
G1 X143.38 Y88.828 E.01695
G1 X137.469 Y82.916 E.26386
G1 X137.057 Y82.977 E.01315
G1 X136.985 Y82.97 E.00228
G1 X143.38 Y89.364 E.28542
G1 X143.38 Y89.901 E.01695
G1 X136.363 Y82.884 E.31321
G1 X135.917 Y82.72 E.015
G1 X135.722 Y82.613 E.00702
G1 X135.369 Y82.353 E.01384
G1 X135.21 Y82.199 E.00699
G1 X134.938 Y81.854 E.01387
G1 X134.825 Y81.664 E.00698
G1 X134.618 Y81.139 E.01781
G1 X130.633 Y77.154 E.17787
G1 X130.633 Y77.691 E.01695
G1 X143.38 Y90.438 E.56897
G1 X143.38 Y90.975 E.01695
G1 X130.633 Y78.228 E.56897
G1 X130.633 Y78.765 E.01695
G1 X143.38 Y91.512 E.56897
G1 X143.38 Y92.048 E.01692
G1 X130.633 Y79.301 E.56897
G1 X130.633 Y79.838 E.01695
G1 X143.38 Y92.585 E.56897
G1 X143.38 Y93.122 E.01695
G1 X130.633 Y80.375 E.56897
G1 X130.633 Y80.912 E.01695
G1 X143.38 Y93.659 E.56897
G1 X143.38 Y94.196 E.01695
G1 X130.633 Y81.449 E.56897
G1 X130.633 Y81.985 E.01692
G1 X143.38 Y94.733 E.569
G1 X143.38 Y95.269 E.01692
G1 X130.633 Y82.522 E.56897
G1 X130.633 Y83.059 E.01695
G1 X143.38 Y95.806 E.56897
G1 X143.38 Y96.343 E.01695
G1 X130.633 Y83.596 E.56897
G1 X130.633 Y84.133 E.01695
G1 X143.38 Y96.88 E.56897
G1 X143.38 Y97.417 E.01695
G1 X130.633 Y84.669 E.569
G1 X130.633 Y85.206 E.01695
M73 P3 R42
M73 Q3 S42
G1 X143.38 Y97.953 E.56897
G1 X143.38 Y98.49 E.01695
G1 X130.633 Y85.743 E.56897
G1 X130.633 Y86.28 E.01695
G1 X143.38 Y99.027 E.56897
G1 X143.38 Y99.564 E.01695
M73 P3 R41
G1 X130.633 Y86.817 E.56897
G1 X130.633 Y87.354 E.01695
G1 X143.38 Y100.101 E.56897
G1 X143.38 Y100.637 E.01692
G1 X130.633 Y87.89 E.56897
G1 X130.633 Y88.427 E.01695
G1 X143.38 Y101.174 E.56897
G1 X143.38 Y101.711 E.01695
G1 X130.633 Y88.964 E.56897
G1 X130.633 Y89.501 E.01695
G1 X143.38 Y102.248 E.56897
G1 X143.38 Y102.785 E.01695
G1 X130.633 Y90.038 E.56897
G1 X130.633 Y90.574 E.01692
